; generated by PrusaSlicer 2.5.2+win64 on 2023-04-07 at 19:50:20 UTC


;
;
; 

; external perimeters extrusion width = 0.45mm
; perimeters extrusion width = 0.45mm
; infill extrusion width = 0.45mm
; solid infill extrusion width = 0.45mm
; top infill extrusion width = 0.40mm
; first layer extrusion width = 0.42mm

M73 P0 R186
M73 Q0 S188
M201 X1000 Y1000 Z200 E5000 ; sets maximum accelerations, mm/sec^2
M203 X200 Y200 Z12 E120 ; sets maximum feedrates, mm / sec
M204 P1250 R1250 T1250 ; sets acceleration (P, T) and retract acceleration (R), mm/sec^2
M205 X8.00 Y8.00 Z0.40 E4.50 ; sets the jerk limits, mm/sec
M205 S0 T0 ; sets the minimum extruding and travel feed rate, mm/sec
M107
;TYPE:Custom
M862.3 P "MK3S" ; printer model check
M862.1 P0.4 ; nozzle diameter check
M115 U3.12.1 ; tell printer latest fw version
G90 ; use absolute coordinates
M83 ; extruder relative mode
M104 S230 ; set extruder temp
M140 S85 ; set bed temp
M190 S85 ; wait for bed temp
M109 S230 ; wait for extruder temp
G28 W ; home all without mesh bed level
G80 ; mesh bed leveling

G1 Z0.2 F720
G1 Y-3 F1000 ; go outside print area
G92 E0
G1 X60 E9 F1000 ; intro line
G1 X100 E12.5 F1000 ; intro line

G92 E0
M221 S95

; Don't change E values below. Excessive value can damage the printer.

M907 E538 ; set extruder motor current
G21 ; set units to millimeters
G90 ; use absolute coordinates
M83 ; use relative distances for extrusion
M900 K0.08 ; Filament gcode LA 1.5
M900 K45 ; Filament gcode LA 1.0
M107
;LAYER_CHANGE
;Z:0.2
;HEIGHT:0.2
;BEFORE_LAYER_CHANGE
G92 E0.0
;0.2


G1 E-1 F2100
G1 Z.2 F720
;AFTER_LAYER_CHANGE
;0.2
G1 Z.4
G1 X91.337 Y84.653 F10800
G1 Z.2 F720
G1 E1 F2100
M204 S800
;TYPE:Skirt/Brim
;WIDTH:0.42
G1 F1200
G1 X91.97 Y84.123 E.02588
G1 X93.033 Y83.509 E.0385
G1 X93.809 Y83.227 E.02588
G1 X95.018 Y83.013 E.0385
G1 X158.051 Y82.977 E1.97636
G1 X159.358 Y83.369 E.04278
G1 X160.235 Y84.415 E.04278
G1 X160.428 Y85.354 E.03008
G1 X160.428 Y90.354 E.15677
G1 X159.841 Y91.918 E.05237
G1 X132.977 Y122.674 E1.2804
G1 X129.332 Y126.327 E.16179
G1 X128.131 Y126.974 E.04278
G1 X126.772 Y126.854 E.04278
G1 X126.007 Y126.362 E.02852
G1 X91.514 Y93.315 E1.49777
G1 X90.548 Y92.186 E.04658
G1 X90.135 Y91.471 E.02588
G1 X89.715 Y90.317 E.0385
G1 X89.572 Y89.504 E.02588
G1 X89.572 Y88.276 E.0385
G1 X89.715 Y87.463 E.02588
G1 X90.135 Y86.309 E.0385
G1 X90.548 Y85.594 E.02589
G1 X91.299 Y84.699 E.03662
M204 S1000
; printing object 1XCameraBracket.stl id:0 copy 0
;WIPE_START
G1 F8640
G1 X91.97 Y84.123 E-.20428
G1 X93.033 Y83.509 E-.28352
G1 X93.809 Y83.227 E-.19062
G1 X94.967 Y83.022 E-.27158
;WIPE_END
G1 E-.05 F2100
G1 Z.4 F720
G1 X99.861 Y89.763 F10800
G1 Z.2 F720
G1 E1 F2100
M204 S800
;TYPE:Perimeter
;WIDTH:0.419999
G1 F1200
G1 X99.83 Y89.794 E.00138
G1 X99.62 Y90.273 E.0164
G1 X99.639 Y90.603 E.01035
G1 X99.77 Y90.806 E.00758
G1 X130.073 Y121.11 E1.34373
G1 X127.651 Y123.533 E.10741
G1 X95.851 Y91.749 E1.4097
G1 X95.636 Y91.662 E.00727
G1 X94.495 Y91.461 E.03634
G1 X93.672 Y90.986 E.0298
G1 X93.061 Y90.258 E.0298
G1 X92.736 Y89.365 E.0298
G1 X92.736 Y88.415 E.0298
G1 X93.061 Y87.522 E.0298
G1 X93.672 Y86.794 E.0298
G1 X94.495 Y86.319 E.0298
G1 X95.5 Y86.141 E.03199
G1 X157.264 Y86.141 E1.93658
G1 X157.264 Y89.567 E.10741
G1 X100.283 Y89.567 E1.78661
G1 X100.185 Y89.576 E.00308
G1 X99.943 Y89.681 E.00828
G1 X99.903 Y89.721 E.00176
M204 S1000
G1 X100.132 Y90.02 F10800
M204 S800
;TYPE:External perimeter
G1 F1200
G1 X99.981 Y90.399 E.01278
G1 X100.036 Y90.54 E.00474
G1 X130.607 Y121.11 E1.35555
G1 X127.651 Y124.066 E.13106
G1 X95.671 Y92.086 E1.41804
G1 X95.571 Y92.034 E.00356
G1 X94.364 Y91.821 E.03842
G1 X93.426 Y91.279 E.03397
G1 X92.729 Y90.449 E.03397
G1 X92.359 Y89.431 E.03397
G1 X92.359 Y88.348 E.03397
G1 X92.729 Y87.33 E.03397
G1 X93.426 Y86.5 E.03397
G1 X94.364 Y85.959 E.03397
G1 X95.467 Y85.764 E.03511
G1 X157.641 Y85.764 E1.94944
G1 X157.641 Y89.944 E.13106
G1 X100.283 Y89.944 E1.79843
G1 X100.185 Y89.993 E.00342
M204 S1000
G1 X99.744 Y89.92 F10800
;WIPE_START
G1 F8640
G1 X99.981 Y90.399 E-.1049
G1 X100.036 Y90.54 E-.03489
G1 X102.517 Y93.021 E-.81022
;WIPE_END
G1 E-.05 F2100
G1 Z.4 F720
G1 X157.151 Y87.021 F10800
G1 Z.2 F720
G1 E1 F2100
M204 S800
;TYPE:Solid infill
;WIDTH:0.422159
G1 F1200
G1 X156.554 Y86.424 E.02663
G1 X156.017 Y86.424 E.01691
G1 X156.981 Y87.388 E.04298
G1 X156.981 Y87.924 E.01691
G1 X155.481 Y86.424 E.0669
G1 X154.945 Y86.424 E.01691
G1 X156.981 Y88.461 E.09082
G1 X156.981 Y88.997 E.01691
G1 X154.408 Y86.424 E.11473
G1 X153.872 Y86.424 E.01691
G1 X156.732 Y89.284 E.12755
G1 X156.196 Y89.284 E.01691
G1 X153.336 Y86.424 E.12755
G1 X152.799 Y86.424 E.01691
G1 X155.66 Y89.284 E.12755
G1 X155.123 Y89.284 E.01691
G1 X152.263 Y86.424 E.12755
G1 X151.727 Y86.424 E.01691
G1 X154.587 Y89.284 E.12755
G1 X154.051 Y89.284 E.01691
G1 X151.191 Y86.424 E.12755
G1 X150.654 Y86.424 E.01691
G1 X153.514 Y89.284 E.12755
G1 X152.978 Y89.284 E.01691
G1 X150.118 Y86.424 E.12755
G1 X149.582 Y86.424 E.01691
G1 X152.442 Y89.284 E.12755
G1 X151.905 Y89.284 E.01691
G1 X149.045 Y86.424 E.12755
G1 X148.509 Y86.424 E.01691
G1 X151.369 Y89.284 E.12755
G1 X150.833 Y89.284 E.01691
G1 X147.973 Y86.424 E.12755
G1 X147.436 Y86.424 E.01691
G1 X150.296 Y89.284 E.12755
G1 X149.76 Y89.284 E.01691
G1 X146.9 Y86.424 E.12755
G1 X146.364 Y86.424 E.01691
G1 X149.224 Y89.284 E.12755
G1 X148.688 Y89.284 E.01691
G1 X145.827 Y86.424 E.12755
G1 X145.291 Y86.424 E.01691
G1 X148.151 Y89.284 E.12755
G1 X147.615 Y89.284 E.01691
G1 X144.755 Y86.424 E.12755
G1 X144.218 Y86.424 E.01691
G1 X147.079 Y89.284 E.12755
G1 X146.542 Y89.284 E.01691
G1 X143.682 Y86.424 E.12755
G1 X143.146 Y86.424 E.01691
G1 X146.006 Y89.284 E.12755
G1 X145.47 Y89.284 E.01691
G1 X142.609 Y86.424 E.12755
G1 X142.073 Y86.424 E.01691
G1 X144.933 Y89.284 E.12755
G1 X144.397 Y89.284 E.01691
G1 X141.537 Y86.424 E.12755
G1 X141 Y86.424 E.01691
G1 X143.861 Y89.284 E.12755
G1 X143.324 Y89.284 E.01691
G1 X140.464 Y86.424 E.12755
G1 X139.928 Y86.424 E.01691
G1 X142.788 Y89.284 E.12755
G1 X142.252 Y89.284 E.01691
M73 P0 R185
G1 X139.391 Y86.424 E.12755
G1 X138.855 Y86.424 E.01691
M73 Q0 S187
G1 X141.715 Y89.284 E.12755
G1 X141.179 Y89.284 E.01691
G1 X138.319 Y86.424 E.12755
G1 X137.782 Y86.424 E.01691
G1 X140.643 Y89.284 E.12755
G1 X140.106 Y89.284 E.01691
G1 X137.246 Y86.424 E.12755
G1 X136.71 Y86.424 E.01691
G1 X139.57 Y89.284 E.12755
G1 X139.034 Y89.284 E.01691
G1 X136.173 Y86.424 E.12755
G1 X135.637 Y86.424 E.01691
G1 X138.497 Y89.284 E.12755
G1 X137.961 Y89.284 E.01691
G1 X135.101 Y86.424 E.12755
G1 X134.564 Y86.424 E.01691
G1 X137.425 Y89.284 E.12755
G1 X136.888 Y89.284 E.01691
G1 X134.028 Y86.424 E.12755
G1 X133.492 Y86.424 E.01691
G1 X136.352 Y89.284 E.12755
G1 X135.816 Y89.284 E.01691
G1 X132.955 Y86.424 E.12755
G1 X132.419 Y86.424 E.01691
G1 X135.279 Y89.284 E.12755
G1 X134.743 Y89.284 E.01691
G1 X131.883 Y86.424 E.12755
G1 X131.346 Y86.424 E.01691
G1 X134.207 Y89.284 E.12755
G1 X133.67 Y89.284 E.01691
G1 X130.81 Y86.424 E.12755
G1 X130.274 Y86.424 E.01691
G1 X133.134 Y89.284 E.12755
G1 X132.598 Y89.284 E.01691
G1 X129.738 Y86.424 E.12755
G1 X129.201 Y86.424 E.01691
G1 X132.061 Y89.284 E.12755
G1 X131.525 Y89.284 E.01691
G1 X128.665 Y86.424 E.12755
G1 X128.129 Y86.424 E.01691
G1 X130.989 Y89.284 E.12755
G1 X130.452 Y89.284 E.01691
G1 X127.592 Y86.424 E.12755
G1 X127.056 Y86.424 E.01691
G1 X129.916 Y89.284 E.12755
G1 X129.38 Y89.284 E.01691
G1 X126.52 Y86.424 E.12755
G1 X125.983 Y86.424 E.01691
G1 X128.843 Y89.284 E.12755
G1 X128.307 Y89.284 E.01691
G1 X125.447 Y86.424 E.12755
G1 X124.911 Y86.424 E.01691
G1 X127.771 Y89.284 E.12755
G1 X127.235 Y89.284 E.01691
G1 X124.374 Y86.424 E.12755
G1 X123.838 Y86.424 E.01691
G1 X126.698 Y89.284 E.12755
G1 X126.162 Y89.284 E.01691
G1 X123.302 Y86.424 E.12755
G1 X122.765 Y86.424 E.01691
G1 X125.626 Y89.284 E.12755
G1 X125.089 Y89.284 E.01691
G1 X122.229 Y86.424 E.12755
G1 X121.693 Y86.424 E.01691
G1 X124.553 Y89.284 E.12755
G1 X124.017 Y89.284 E.01691
G1 X121.156 Y86.424 E.12755
G1 X120.62 Y86.424 E.01691
G1 X123.48 Y89.284 E.12755
G1 X122.944 Y89.284 E.01691
G1 X120.084 Y86.424 E.12755
G1 X119.547 Y86.424 E.01691
G1 X122.408 Y89.284 E.12755
G1 X121.871 Y89.284 E.01691
G1 X119.011 Y86.424 E.12755
G1 X118.475 Y86.424 E.01691
G1 X121.335 Y89.284 E.12755
G1 X120.799 Y89.284 E.01691
G1 X117.938 Y86.424 E.12755
G1 X117.402 Y86.424 E.01691
G1 X120.262 Y89.284 E.12755
G1 X119.726 Y89.284 E.01691
G1 X116.866 Y86.424 E.12755
G1 X116.329 Y86.424 E.01691
G1 X119.19 Y89.284 E.12755
G1 X118.653 Y89.284 E.01691
G1 X115.793 Y86.424 E.12755
G1 X115.257 Y86.424 E.01691
G1 X118.117 Y89.284 E.12755
G1 X117.581 Y89.284 E.01691
G1 X114.72 Y86.424 E.12755
G1 X114.184 Y86.424 E.01691
G1 X117.044 Y89.284 E.12755
G1 X116.508 Y89.284 E.01691
G1 X113.648 Y86.424 E.12755
G1 X113.111 Y86.424 E.01691
G1 X115.972 Y89.284 E.12755
G1 X115.435 Y89.284 E.01691
G1 X112.575 Y86.424 E.12755
G1 X112.039 Y86.424 E.01691
G1 X114.899 Y89.284 E.12755
G1 X114.363 Y89.284 E.01691
G1 X111.502 Y86.424 E.12755
G1 X110.966 Y86.424 E.01691
G1 X113.826 Y89.284 E.12755
G1 X113.29 Y89.284 E.01691
G1 X110.43 Y86.424 E.12755
G1 X109.893 Y86.424 E.01691
G1 X112.754 Y89.284 E.12755
G1 X112.217 Y89.284 E.01691
G1 X109.357 Y86.424 E.12755
G1 X108.821 Y86.424 E.01691
G1 X111.681 Y89.284 E.12755
G1 X111.145 Y89.284 E.01691
G1 X108.285 Y86.424 E.12755
G1 X107.748 Y86.424 E.01691
G1 X110.608 Y89.284 E.12755
G1 X110.072 Y89.284 E.01691
G1 X107.212 Y86.424 E.12755
G1 X106.676 Y86.424 E.01691
G1 X109.536 Y89.284 E.12755
G1 X108.999 Y89.284 E.01691
G1 X106.139 Y86.424 E.12755
G1 X105.603 Y86.424 E.01691
G1 X108.463 Y89.284 E.12755
G1 X107.927 Y89.284 E.01691
G1 X105.067 Y86.424 E.12755
G1 X104.53 Y86.424 E.01691
G1 X107.39 Y89.284 E.12755
G1 X106.854 Y89.284 E.01691
G1 X103.994 Y86.424 E.12755
G1 X103.458 Y86.424 E.01691
G1 X106.318 Y89.284 E.12755
G1 X105.782 Y89.284 E.01691
G1 X102.921 Y86.424 E.12755
G1 X102.385 Y86.424 E.01691
G1 X105.245 Y89.284 E.12755
G1 X104.709 Y89.284 E.01691
G1 X101.849 Y86.424 E.12755
G1 X101.312 Y86.424 E.01691
G1 X104.173 Y89.284 E.12755
G1 X103.636 Y89.284 E.01691
G1 X100.776 Y86.424 E.12755
G1 X100.24 Y86.424 E.01691
G1 X103.1 Y89.284 E.12755
G1 X102.564 Y89.284 E.01691
G1 X99.703 Y86.424 E.12755
G1 X99.167 Y86.424 E.01691
G1 X102.027 Y89.284 E.12755
G1 X101.491 Y89.284 E.01691
G1 X98.631 Y86.424 E.12755
G1 X98.094 Y86.424 E.01691
G1 X100.955 Y89.284 E.12755
G1 X100.418 Y89.284 E.01691
G1 X97.558 Y86.424 E.12755
G1 X97.022 Y86.424 E.01691
G1 X99.955 Y89.357 E.13079
G1 X99.773 Y89.454 E.00649
G1 X99.644 Y89.583 E.00575
G1 X96.485 Y86.424 E.14086
G1 X95.949 Y86.424 E.01691
G1 X99.45 Y89.925 E.15614
G1 X99.382 Y90.089 E.00559
G1 X99.328 Y90.339 E.00806
G1 X95.429 Y86.441 E.17384
G1 X94.974 Y86.521 E.0146
G1 X129.618 Y121.166 E1.54499
G1 X129.35 Y121.434 E.01196
G1 X94.537 Y86.621 E1.55251
G1 X94.197 Y86.817 E.01238
G1 X129.082 Y121.702 E1.55571
G1 X128.813 Y121.97 E.01196
G1 X93.857 Y87.013 E1.55892
G1 X93.612 Y87.305 E.012
G1 X128.545 Y122.238 E1.55787
G1 X128.277 Y122.507 E.01196
G1 X93.367 Y87.597 E1.55683
G1 X93.31 Y87.665 E.00282
G1 X93.2 Y87.966 E.01009
G1 X128.009 Y122.775 E1.55232
G1 X127.741 Y123.043 E.01196
G1 X93.057 Y88.359 E1.54674
G1 X93.019 Y88.465 E.00354
G1 X93.019 Y88.857 E.01238
G1 X95.516 Y91.354 E.11135
G1 X94.864 Y91.239 E.02085
G1 X92.849 Y89.224 E.08988
M204 S1000
; stop printing object 1XCameraBracket.stl id:0 copy 0
;LAYER_CHANGE
;Z:0.35
;HEIGHT:0.15
;BEFORE_LAYER_CHANGE
G92 E0.0
;0.35


;WIPE_START
G1 F8640
G1 X94.864 Y91.239 E-.6581
G1 X95.516 Y91.354 E-.15267
G1 X95.089 Y90.928 E-.13923
;WIPE_END
G1 E-.05 F2100
G1 Z.4 F720
;AFTER_LAYER_CHANGE
;0.35
M104 S240 ; set temperature
M140 S90 ; set bed temperature
G1 X92.185 Y93.958 F10800
G1 Z.35 F720
G1 E1 F2100
;TYPE:Skirt/Brim
;WIDTH:0.42
G1 F3000
G1 X91.514 Y93.315 E.0225
G1 X90.548 Y92.186 E.03593
G1 X90.135 Y91.471 E.01997
G1 X89.715 Y90.317 E.0297
G1 X89.572 Y89.504 E.01997
G1 X89.572 Y88.276 E.0297
G1 X89.715 Y87.463 E.01997
G1 X90.135 Y86.309 E.0297
G1 X90.548 Y85.594 E.01997
G1 X91.337 Y84.653 E.0297
G1 X91.97 Y84.123 E.01997
G1 X93.033 Y83.509 E.0297
G1 X93.809 Y83.227 E.01997
G1 X95.018 Y83.013 E.0297
G1 X158.051 Y82.977 E1.52445
G1 X159.358 Y83.369 E.033
G1 X160.235 Y84.415 E.033
G1 X160.428 Y85.354 E.02321
G1 X160.428 Y90.354 E.12092
G1 X159.841 Y91.918 E.04039
G1 X132.977 Y122.674 E.98763
G1 X129.332 Y126.327 E.1248
G1 X128.131 Y126.974 E.033
G1 X126.772 Y126.854 E.033
G1 X126.007 Y126.362 E.022
G1 X92.229 Y94 E1.13134
; printing object 1XCameraBracket.stl id:0 copy 0
;WIPE_START
G1 F8640
G1 X91.514 Y93.315 E-.2287
G1 X90.548 Y92.186 E-.34306
G1 X90.135 Y91.471 E-.19063
G1 X89.857 Y90.707 E-.18762
;WIPE_END
G1 E-.05 F2100
G1 Z.55 F720
G1 X99.883 Y89.973 F10800
G1 Z.35 F720
G1 E1 F2100
M204 S800
;TYPE:Perimeter
;WIDTH:0.449999
G1 F3600
G1 X99.777 Y90.216 E.00689
G1 X99.785 Y90.494 E.00726
G1 X99.949 Y90.781 E.00861
G1 X130.277 Y121.11 E1.11757
G1 X127.651 Y123.737 E.09678
G1 X96.362 Y92.447 E1.15296
G1 X95.783 Y91.887 E.021
G1 X95.547 Y91.793 E.0066
G1 X94.445 Y91.599 E.02917
G1 X93.578 Y91.098 E.02608
G1 X92.933 Y90.328 E.02619
G1 X92.592 Y89.39 E.02599
G1 X92.592 Y88.389 E.02609
G1 X92.934 Y87.448 E.02609
G1 X93.578 Y86.681 E.02609
G1 X94.445 Y86.181 E.02609
G1 X95.487 Y85.997 E.02757
G1 X157.408 Y85.997 E1.61341
G1 X157.408 Y89.711 E.09678
G1 X100.392 Y89.711 E1.4856
G1 X100.284 Y89.721 E.00283
G1 X100.004 Y89.846 E.00799
G1 X99.925 Y89.93 E.003
M204 S1000
G1 X100.221 Y90.218 F10800
M204 S800
;TYPE:External perimeter
G1 F2100
G1 X100.183 Y90.34 E.00331
G1 X100.244 Y90.486 E.00413
G1 X130.868 Y121.11 E1.12845
G1 X127.651 Y124.328 E.11855
G1 X95.586 Y92.263 E1.18154
G1 X95.475 Y92.205 E.00327
G1 X94.3 Y91.997 E.03109
G1 X93.305 Y91.423 E.02992
G1 X92.565 Y90.54 E.03003
G1 X92.174 Y89.464 E.02982
G1 X92.174 Y88.316 E.02993
G1 X92.567 Y87.236 E.02993
G1 X93.305 Y86.356 E.02993
G1 X94.3 Y85.782 E.02993
G1 X95.45 Y85.579 E.03045
G1 X157.826 Y85.579 E1.62524
G1 X157.826 Y90.129 E.11855
G1 X100.392 Y90.129 E1.49649
G1 X100.356 Y90.132 E.00094
G1 X100.271 Y90.186 E.00261
M204 S1000
G1 X100.094 Y90.213 F10800
;WIPE_START
G1 F8640
G1 X100.183 Y90.34 E-.0409
G1 X100.244 Y90.486 E-.0366
G1 X102.916 Y93.158 E-.8725
;WIPE_END
G1 E-.05 F2100
G1 Z.55 F720
G1 X157.283 Y88.898 F10800
G1 Z.35 F720
G1 E1 F2100
;TYPE:Solid infill
;WIDTH:0.453075
G1 F7603.027
G1 X156.782 Y89.398 E.01858
G1 X156.187 Y89.398 E.01562
G1 X157.095 Y88.49 E.0337
G1 X157.095 Y87.895 E.01562
G1 X155.592 Y89.398 E.05579
G1 X154.997 Y89.398 E.01562
G1 X157.095 Y87.3 E.07789
G1 X157.095 Y86.705 E.01562
G1 X154.401 Y89.398 E.09998
G1 X153.806 Y89.398 E.01562
G1 X156.894 Y86.31 E.11461
G1 X156.299 Y86.31 E.01562
G1 X153.211 Y89.398 E.11461
G1 X152.616 Y89.398 E.01562
G1 X155.703 Y86.31 E.11461
G1 X155.108 Y86.31 E.01562
G1 X152.021 Y89.398 E.11461
G1 X151.425 Y89.398 E.01562
G1 X154.513 Y86.31 E.11461
G1 X153.918 Y86.31 E.01562
G1 X150.83 Y89.398 E.11461
G1 X150.235 Y89.398 E.01562
G1 X153.323 Y86.31 E.11461
G1 X152.727 Y86.31 E.01562
G1 X149.64 Y89.398 E.11461
G1 X149.044 Y89.398 E.01562
G1 X152.132 Y86.31 E.11461
G1 X151.537 Y86.31 E.01562
G1 X148.449 Y89.398 E.11461
G1 X147.854 Y89.398 E.01562
G1 X150.942 Y86.31 E.11461
G1 X150.346 Y86.31 E.01562
G1 X147.259 Y89.398 E.11461
G1 X146.664 Y89.398 E.01562
G1 X149.751 Y86.31 E.11461
G1 X149.156 Y86.31 E.01562
G1 X146.068 Y89.398 E.11461
G1 X145.473 Y89.398 E.01562
G1 X148.561 Y86.31 E.11461
G1 X147.966 Y86.31 E.01562
G1 X144.878 Y89.398 E.11461
G1 X144.283 Y89.398 E.01562
G1 X147.37 Y86.31 E.11461
G1 X146.775 Y86.31 E.01562
M73 P0 R184
M73 Q0 S186
G1 X143.687 Y89.398 E.11461
G1 X143.092 Y89.398 E.01562
G1 X146.18 Y86.31 E.11461
G1 X145.585 Y86.31 E.01562
G1 X142.497 Y89.398 E.11461
G1 X141.902 Y89.398 E.01562
G1 X144.99 Y86.31 E.11461
G1 X144.394 Y86.31 E.01562
G1 X141.307 Y89.398 E.11461
G1 X140.711 Y89.398 E.01562
G1 X143.799 Y86.31 E.11461
G1 X143.204 Y86.31 E.01562
G1 X140.116 Y89.398 E.11461
G1 X139.521 Y89.398 E.01562
G1 X142.609 Y86.31 E.11461
G1 X142.013 Y86.31 E.01562
G1 X138.926 Y89.398 E.11461
