; generated by PrusaSlicer 2.5.2+win64 on 2023-04-07 at 19:51:56 UTC


;
;
; 

; external perimeters extrusion width = 0.45mm
; perimeters extrusion width = 0.45mm
; infill extrusion width = 0.45mm
; solid infill extrusion width = 0.45mm
; top infill extrusion width = 0.40mm
; first layer extrusion width = 0.42mm

M73 P0 R124
M73 Q0 S124
M201 X1000 Y1000 Z200 E5000 ; sets maximum accelerations, mm/sec^2
M203 X200 Y200 Z12 E120 ; sets maximum feedrates, mm / sec
M204 P1250 R1250 T1250 ; sets acceleration (P, T) and retract acceleration (R), mm/sec^2
M205 X8.00 Y8.00 Z0.40 E4.50 ; sets the jerk limits, mm/sec
M205 S0 T0 ; sets the minimum extruding and travel feed rate, mm/sec
M107
;TYPE:Custom
M862.3 P "MK3S" ; printer model check
M862.1 P0.4 ; nozzle diameter check
M115 U3.12.1 ; tell printer latest fw version
G90 ; use absolute coordinates
M83 ; extruder relative mode
M104 S230 ; set extruder temp
M140 S85 ; set bed temp
M190 S85 ; wait for bed temp
M109 S230 ; wait for extruder temp
G28 W ; home all without mesh bed level
G80 ; mesh bed leveling

G1 Z0.2 F720
G1 Y-3 F1000 ; go outside print area
G92 E0
G1 X60 E9 F1000 ; intro line
G1 X100 E12.5 F1000 ; intro line

G92 E0
M221 S95

; Don't change E values below. Excessive value can damage the printer.

M907 E538 ; set extruder motor current
G21 ; set units to millimeters
G90 ; use absolute coordinates
M83 ; use relative distances for extrusion
M900 K0.08 ; Filament gcode LA 1.5
M900 K45 ; Filament gcode LA 1.0
M107
;LAYER_CHANGE
;Z:0.2
;HEIGHT:0.2
;BEFORE_LAYER_CHANGE
G92 E0.0
;0.2


G1 E-1 F2100
G1 Z.2 F720
;AFTER_LAYER_CHANGE
;0.2
G1 Z.4
G1 X104.015 Y93.693 F10800
G1 Z.2 F720
G1 E1 F2100
M204 S800
;TYPE:Skirt/Brim
;WIDTH:0.42
G1 F1200
G1 X105.06 Y92.817 E.04278
G1 X106 Y92.623 E.03008
G1 X144 Y92.623 E1.19146
G1 X145.307 Y93.015 E.04278
G1 X146.183 Y94.06 E.04278
G1 X146.377 Y95 E.03008
G1 X146.377 Y115 E.62709
G1 X145.985 Y116.307 E.04278
G1 X144.94 Y117.183 E.04278
G1 X144 Y117.377 E.03008
G1 X106 Y117.377 E1.19146
G1 X104.693 Y116.985 E.04278
M73 P0 R123
G1 X103.817 Y115.94 E.04278
G1 X103.623 Y115 E.03008
G1 X103.623 Y95 E.62709
G1 X103.997 Y93.75 E.0409
M204 S1000
; printing object 1XDCMotorHolder.stl id:0 copy 0
;WIPE_START
G1 F8640
G1 X105.06 Y92.817 E-.32671
G1 X106 Y92.623 E-.22155
G1 X107.74 Y92.623 E-.40174
;WIPE_END
G1 E-.05 F2100
G1 Z.4 F720
G1 X143.213 Y95.787 F10800
G1 Z.2 F720
G1 E1 F2100
M204 S800
;TYPE:Perimeter
;WIDTH:0.419999
G1 F1200
G1 X143.213 Y114.213 E.57773
G1 X106.787 Y114.213 E1.1421
G1 X106.787 Y95.787 E.57773
G1 X143.153 Y95.787 E1.14022
M204 S1000
G1 X143.59 Y95.41 F10800
M204 S800
;TYPE:External perimeter
G1 F1200
G1 X143.59 Y114.59 E.60137
G1 X106.41 Y114.59 E1.16575
G1 X106.41 Y95.41 E.60137
G1 X143.53 Y95.41 E1.16387
M204 S1000
G1 X143.447 Y95.784 F10800
;WIPE_START
G1 F8640
G1 X143.543 Y99.524 E-.95
;WIPE_END
G1 E-.05 F2100
G1 Z.4 F720
G1 X133.685 Y103.876 F10800
G1 Z.2 F720
G1 E1 F2100
M204 S800
;TYPE:Perimeter
G1 F1200
G1 X133.742 Y103.738 E.00468
G1 X134.279 Y102.935 E.03029
G1 X134.435 Y102.779 E.00692
G1 X135.238 Y102.242 E.03029
G1 X135.442 Y102.158 E.00692
G1 X136.39 Y101.969 E.03029
G1 X136.61 Y101.969 E.00692
G1 X137.558 Y102.158 E.03029
G1 X137.762 Y102.242 E.00692
G1 X138.565 Y102.779 E.03029
G1 X138.721 Y102.935 E.00692
G1 X139.258 Y103.738 E.03029
G1 X139.342 Y103.942 E.00692
G1 X139.531 Y104.89 E.03029
G1 X139.533 Y105.098 E.00652
G1 X139.342 Y106.058 E.03069
G1 X139.258 Y106.262 E.00692
G1 X138.721 Y107.065 E.03029
G1 X138.565 Y107.221 E.00692
G1 X137.759 Y107.759 E.03039
G1 X137.558 Y107.842 E.00682
G1 X136.61 Y108.031 E.03029
G1 X136.39 Y108.031 E.00692
G1 X135.442 Y107.842 E.03029
G1 X135.238 Y107.758 E.00692
G1 X134.435 Y107.221 E.03029
G1 X134.279 Y107.065 E.00692
G1 X133.742 Y106.262 E.03029
G1 X133.658 Y106.058 E.00692
G1 X133.469 Y105.11 E.03029
G1 X133.469 Y104.89 E.00692
G1 X133.662 Y103.932 E.03064
M204 S1000
G1 X134.021 Y104.053 F10800
M204 S800
;TYPE:External perimeter
G1 F1200
G1 X134.028 Y104.016 E.00118
G1 X134.593 Y103.145 E.03255
G1 X135.448 Y102.556 E.03255
G1 X136.463 Y102.339 E.03255
G1 X137.484 Y102.528 E.03256
G1 X138.355 Y103.093 E.03255
G1 X138.944 Y103.948 E.03255
G1 X139.161 Y104.963 E.03255
G1 X139.162 Y105.033 E.00217
G1 X138.972 Y105.984 E.03042
G1 X138.407 Y106.855 E.03255
G1 X137.552 Y107.444 E.03255
G1 X136.537 Y107.661 E.03255
G1 X135.516 Y107.472 E.03255
G1 X134.645 Y106.907 E.03255
G1 X134.056 Y106.052 E.03255
G1 X133.839 Y105.037 E.03255
G1 X134.01 Y104.112 E.02949
M204 S1000
G1 X133.991 Y104.03 F10800
;WIPE_START
G1 F8640
G1 X134.028 Y104.016 E-.02254
G1 X134.593 Y103.145 E-.23974
G1 X135.448 Y102.556 E-.23974
G1 X136.463 Y102.339 E-.23972
G1 X137.35 Y102.503 E-.20826
;WIPE_END
G1 E-.05 F2100
G1 Z.4 F720
G1 X113.461 Y101.969 F10800
G1 Z.2 F720
G1 E1 F2100
M204 S800
;TYPE:Perimeter
G1 F1200
G1 X113.61 Y101.969 E.00468
G1 X114.558 Y102.158 E.03029
G1 X114.762 Y102.242 E.00692
G1 X115.565 Y102.779 E.03029
G1 X115.721 Y102.935 E.00692
G1 X116.258 Y103.738 E.03029
G1 X116.325 Y103.877 E.00483
G1 X116.531 Y104.89 E.0324
G1 X116.531 Y105.11 E.00692
G1 X116.342 Y106.058 E.03029
G1 X116.258 Y106.262 E.00692
G1 X115.721 Y107.065 E.03029
G1 X115.565 Y107.221 E.00692
G1 X114.762 Y107.758 E.03029
G1 X114.558 Y107.842 E.00692
G1 X113.61 Y108.031 E.03029
G1 X113.39 Y108.031 E.00692
G1 X112.442 Y107.842 E.03029
G1 X112.238 Y107.758 E.00692
G1 X111.435 Y107.221 E.03029
G1 X111.279 Y107.065 E.00692
G1 X110.742 Y106.262 E.03029
G1 X110.658 Y106.058 E.00692
G1 X110.469 Y105.11 E.03029
G1 X110.469 Y104.89 E.00692
G1 X110.658 Y103.942 E.03029
G1 X110.742 Y103.738 E.00692
G1 X111.279 Y102.935 E.03029
G1 X111.435 Y102.779 E.00692
G1 X112.241 Y102.241 E.03039
G1 X112.442 Y102.158 E.00682
G1 X113.401 Y101.969 E.03064
M204 S1000
G1 X113.425 Y102.348 F10800
M204 S800
;TYPE:External perimeter
G1 F1200
G1 X113.463 Y102.339 E.00124
G1 X114.484 Y102.528 E.03256
G1 X115.355 Y103.093 E.03255
G1 X115.967 Y103.994 E.03415
G1 X116.161 Y104.963 E.03099
G1 X115.972 Y105.984 E.03255
G1 X115.407 Y106.855 E.03255
G1 X114.552 Y107.444 E.03255
G1 X113.537 Y107.661 E.03255
G1 X112.516 Y107.472 E.03255
G1 X111.645 Y106.907 E.03255
G1 X111.056 Y106.052 E.03255
G1 X110.839 Y105.037 E.03255
G1 X111.028 Y104.016 E.03255
G1 X111.593 Y103.145 E.03255
G1 X112.448 Y102.556 E.03255
G1 X113.366 Y102.36 E.02943
M204 S1000
G1 X113.434 Y102.309 F10800
;WIPE_START
G1 F8640
G1 X113.463 Y102.339 E-.02297
G1 X114.484 Y102.528 E-.23975
G1 X115.355 Y103.093 E-.23974
G1 X115.967 Y103.994 E-.25147
G1 X116.133 Y104.827 E-.19608
;WIPE_END
G1 E-.05 F2100
G1 Z.4 F720
G1 X143.1 Y96.664 F10800
G1 Z.2 F720
G1 E1 F2100
M204 S800
;TYPE:Solid infill
;WIDTH:0.420561
G1 F1200
G1 X142.506 Y96.07 E.02637
G1 X141.972 Y96.07 E.01677
G1 X142.93 Y97.028 E.04255
G1 X142.93 Y97.562 E.01677
G1 X141.438 Y96.07 E.06627
G1 X140.904 Y96.07 E.01677
G1 X142.93 Y98.096 E.08998
G1 X142.93 Y98.63 E.01677
G1 X140.37 Y96.07 E.1137
G1 X139.836 Y96.07 E.01677
G1 X142.93 Y99.164 E.13742
G1 X142.93 Y99.698 E.01677
G1 X139.302 Y96.07 E.16113
G1 X138.768 Y96.07 E.01677
G1 X142.93 Y100.232 E.18485
G1 X142.93 Y100.766 E.01677
G1 X138.234 Y96.07 E.20857
G1 X137.699 Y96.07 E.01677
M73 Q0 S123
G1 X142.93 Y101.301 E.23228
G1 X142.93 Y101.835 E.01677
G1 X137.165 Y96.07 E.256
G1 X136.631 Y96.07 E.01677
G1 X142.93 Y102.369 E.27972
G1 X142.93 Y102.903 E.01677
G1 X136.097 Y96.07 E.30343
G1 X135.563 Y96.07 E.01677
G1 X142.93 Y103.437 E.32715
G1 X142.93 Y103.971 E.01677
G1 X135.029 Y96.07 E.35087
G1 X134.495 Y96.07 E.01677
G1 X142.93 Y104.505 E.37458
G1 X142.93 Y105.039 E.01677
G1 X133.961 Y96.07 E.3983
G1 X133.427 Y96.07 E.01677
G1 X142.93 Y105.573 E.42201
G1 X142.93 Y106.107 E.01677
G1 X132.893 Y96.07 E.44573
G1 X132.359 Y96.07 E.01677
G1 X142.93 Y106.641 E.46945
G1 X142.93 Y107.175 E.01677
G1 X139.607 Y103.852 E.14758
G1 X139.498 Y103.589 E.00894
G1 X138.953 Y102.774 E.03078
G1 X138.844 Y102.642 E.0054
G1 X137.915 Y102.005 E.03535
G1 X137.773 Y101.929 E.00508
G1 X137.645 Y101.89 E.00421
G1 X131.825 Y96.07 E.25844
G1 X131.291 Y96.07 E.01677
G1 X136.974 Y101.754 E.2524
G1 X136.644 Y101.688 E.01059
G1 X136.373 Y101.686 E.00849
G1 X130.757 Y96.07 E.24942
G1 X130.223 Y96.07 E.01677
G1 X135.926 Y101.773 E.25328
G1 X135.481 Y101.862 E.01426
G1 X129.688 Y96.07 E.25721
G1 X129.154 Y96.07 E.01677
G1 X135.096 Y102.012 E.26387
G1 X134.773 Y102.222 E.01212
G1 X128.62 Y96.07 E.27321
G1 X128.086 Y96.07 E.01677
G1 X134.449 Y102.433 E.28256
G1 X134.141 Y102.658 E.012
G1 X127.552 Y96.07 E.29258
G1 X127.018 Y96.07 E.01677
G1 X133.918 Y102.97 E.3064
G1 X133.706 Y103.292 E.01211
G1 X126.484 Y96.07 E.3207
G1 X125.95 Y96.07 E.01677
G1 X133.494 Y103.614 E.33501
G1 X133.447 Y103.685 E.00269
G1 X133.356 Y104.01 E.01059
G1 X125.416 Y96.07 E.3526
G1 X124.882 Y96.07 E.01677
G1 X133.267 Y104.455 E.37238
G1 X133.185 Y104.907 E.0144
G1 X124.348 Y96.07 E.39242
G1 X123.814 Y96.07 E.01677
G1 X133.478 Y105.734 E.42918
M204 S1000
;WIPE_START
G1 F8640
G1 X130.569 Y102.825 E-.95
;WIPE_END
G1 E-.05 F2100
G1 Z.4 F720
G1 X139.531 Y104.31 F10800
G1 Z.2 F720
G1 E1 F2100
M204 S800
G1 F1200
G1 X142.93 Y107.709 E.15097
G1 X142.93 Y108.243 E.01677
G1 X139.814 Y105.127 E.1384
G1 X139.727 Y105.574 E.0143
G1 X142.93 Y108.777 E.14226
G1 X142.93 Y109.312 E.01677
G1 X139.638 Y106.019 E.14619
G1 X139.618 Y106.122 E.00329
G1 X139.497 Y106.412 E.00987
G1 X142.93 Y109.846 E.15246
G1 X142.93 Y110.38 E.01677
G1 X139.283 Y106.733 E.16196
G1 X139.069 Y107.053 E.01209
G1 X142.93 Y110.914 E.17146
G1 X142.93 Y111.448 E.01677
G1 X138.842 Y107.36 E.18154
G1 X138.525 Y107.577 E.01206
G1 X142.93 Y111.982 E.19561
G1 X142.93 Y112.516 E.01677
G1 X138.208 Y107.794 E.20968
G1 X137.889 Y108.009 E.01208
G1 X142.93 Y113.05 E.22385
G1 X142.93 Y113.584 E.01677
G1 X137.49 Y108.144 E.24158
G1 X137.044 Y108.232 E.01426
G1 X142.742 Y113.93 E.25302
G1 X142.208 Y113.93 E.01677
G1 X136.594 Y108.316 E.24929
G1 X136.356 Y108.312 E.00747
G1 X135.981 Y108.238 E.012
G1 X141.674 Y113.93 E.25279
G1 X141.14 Y113.93 E.01677
G1 X135.305 Y108.095 E.25913
G1 X135.221 Y108.069 E.00274
G1 X134.274 Y107.454 E.03545
G1 X134.145 Y107.346 E.00529
G1 X134.046 Y107.225 E.00489
G1 X133.447 Y106.315 E.03424
G1 X133.408 Y106.198 E.00385
G1 X123.28 Y96.07 E.44978
G1 X122.746 Y96.07 E.01677
G1 X140.606 Y113.93 E.79313
G1 X140.072 Y113.93 E.01677
G1 X122.212 Y96.07 E.79313
G1 X121.677 Y96.07 E.01677
G1 X139.538 Y113.93 E.79313
G1 X139.004 Y113.93 E.01677
G1 X121.143 Y96.07 E.79313
G1 X120.609 Y96.07 E.01677
G1 X138.47 Y113.93 E.79313
G1 X137.936 Y113.93 E.01677
G1 X120.075 Y96.07 E.79313
G1 X119.541 Y96.07 E.01677
G1 X137.401 Y113.93 E.79313
G1 X136.867 Y113.93 E.01677
G1 X119.007 Y96.07 E.79313
G1 X118.473 Y96.07 E.01677
G1 X136.333 Y113.93 E.79313
G1 X135.799 Y113.93 E.01677
G1 X117.939 Y96.07 E.79313
G1 X117.405 Y96.07 E.01677
G1 X135.265 Y113.93 E.79313
G1 X134.731 Y113.93 E.01677
G1 X116.871 Y96.07 E.79313
G1 X116.337 Y96.07 E.01677
G1 X134.197 Y113.93 E.79313
G1 X133.663 Y113.93 E.01677
G1 X115.803 Y96.07 E.79313
G1 X115.269 Y96.07 E.01677
M73 P0 R122
G1 X133.129 Y113.93 E.79313
G1 X132.595 Y113.93 E.01677
M73 P1 R122
M73 Q1 S123
G1 X114.735 Y96.07 E.79313
G1 X114.201 Y96.07 E.01677
G1 X132.061 Y113.93 E.79313
G1 X131.527 Y113.93 E.01677
G1 X113.667 Y96.07 E.79313
G1 X113.132 Y96.07 E.01677
G1 X130.993 Y113.93 E.79313
G1 X130.459 Y113.93 E.01677
G1 X112.598 Y96.07 E.79313
G1 X112.064 Y96.07 E.01677
G1 X129.925 Y113.93 E.79313
G1 X129.391 Y113.93 E.01677
G1 X111.53 Y96.07 E.79313
G1 X110.996 Y96.07 E.01677
G1 X128.856 Y113.93 E.79313
G1 X128.322 Y113.93 E.01677
G1 X110.462 Y96.07 E.79313
G1 X109.928 Y96.07 E.01677
G1 X127.788 Y113.93 E.79313
G1 X127.254 Y113.93 E.01677
G1 X109.394 Y96.07 E.79313
G1 X108.86 Y96.07 E.01677
G1 X114.695 Y101.905 E.25913
G1 X114.779 Y101.931 E.00275
G1 X115.726 Y102.546 E.03545
G1 X115.855 Y102.654 E.00529
G1 X115.954 Y102.775 E.00489
G1 X116.553 Y103.685 E.03423
G1 X116.592 Y103.802 E.00385
G1 X126.72 Y113.93 E.44978
G1 X126.186 Y113.93 E.01677
G1 X116.738 Y104.482 E.41958
G1 X116.809 Y104.839 E.01144
G1 X116.815 Y105.094 E.008
G1 X125.652 Y113.93 E.39241
G1 X125.118 Y113.93 E.01677
G1 X116.733 Y105.545 E.37238
G1 X116.644 Y105.99 E.01426
G1 X124.584 Y113.93 E.3526
G1 X124.05 Y113.93 E.01677
M73 Q1 S122
G1 X116.506 Y106.386 E.33501
G1 X116.294 Y106.708 E.01211
G1 X123.516 Y113.93 E.3207
G1 X122.982 Y113.93 E.01677
G1 X116.082 Y107.03 E.3064
G1 X115.859 Y107.342 E.01202
G1 X122.448 Y113.93 E.29258
G1 X121.914 Y113.93 E.01677
G1 X115.551 Y107.567 E.28255
G1 X115.227 Y107.778 E.01212
G1 X121.38 Y113.93 E.27321
G1 X120.845 Y113.93 E.01677
G1 X114.904 Y107.988 E.26387
G1 X114.779 Y108.069 E.00467
G1 X114.519 Y108.138 E.00843
G1 X120.311 Y113.93 E.25721
G1 X119.777 Y113.93 E.01677
G1 X114.074 Y108.227 E.25328
G1 X113.627 Y108.314 E.0143
G1 X119.243 Y113.93 E.24942
G1 X118.709 Y113.93 E.01677
G1 X112.809 Y108.03 E.26199
M204 S1000
;WIPE_START
G1 F8640
G1 X115.719 Y110.94 E-.95
;WIPE_END
G1 E-.05 F2100
G1 Z.4 F720
G1 X114.234 Y101.978 F10800
G1 Z.2 F720
G1 E1 F2100
M204 S800
G1 F1200
G1 X108.326 Y96.07 E.26238
G1 X107.792 Y96.07 E.01677
G1 X113.406 Y101.684 E.24929
G1 X112.955 Y101.768 E.01438
G1 X107.258 Y96.07 E.25302
G1 X107.07 Y96.07 E.0059
G1 X107.07 Y96.416 E.01087
G1 X112.51 Y101.856 E.24158
G1 X112.227 Y101.929 E.00917
G1 X112.111 Y101.991 E.00415
G1 X107.07 Y96.95 E.22385
G1 X107.07 Y97.484 E.01677
G1 X111.792 Y102.206 E.20968
G1 X111.475 Y102.423 E.01206
G1 X107.07 Y98.018 E.19561
G1 X107.07 Y98.552 E.01677
G1 X111.158 Y102.64 E.18154
G1 X110.931 Y102.947 E.01199
G1 X107.07 Y99.086 E.17145
G1 X107.07 Y99.62 E.01677
G1 X110.717 Y103.267 E.16195
G1 X110.503 Y103.588 E.01209
G1 X107.07 Y100.155 E.15245
G1 X107.07 Y100.689 E.01677
G1 X110.362 Y103.981 E.14619
G1 X110.273 Y104.426 E.01426
G1 X107.07 Y101.223 E.14226
G1 X107.07 Y101.757 E.01677
G1 X110.188 Y104.875 E.13845
G1 X110.188 Y105.144 E.00845
G1 X110.254 Y105.475 E.0106
G1 X107.07 Y102.291 E.14139
G1 X107.07 Y102.825 E.01677
G1 X110.393 Y106.148 E.14758
G1 X110.502 Y106.411 E.00894
G1 X111.047 Y107.226 E.03078
G1 X111.156 Y107.358 E.0054
G1 X112.085 Y107.995 E.03535
G1 X112.227 Y108.071 E.00508
G1 X112.355 Y108.11 E.00421
G1 X118.175 Y113.93 E.25844
G1 X117.641 Y113.93 E.01677
G1 X107.07 Y103.359 E.46944
G1 X107.07 Y103.893 E.01677
G1 X117.107 Y113.93 E.44573
G1 X116.573 Y113.93 E.01677
G1 X107.07 Y104.427 E.42201
G1 X107.07 Y104.961 E.01677
G1 X116.039 Y113.93 E.39829
G1 X115.505 Y113.93 E.01677
G1 X107.07 Y105.495 E.37458
G1 X107.07 Y106.029 E.01677
G1 X114.971 Y113.93 E.35086
G1 X114.437 Y113.93 E.01677
G1 X107.07 Y106.563 E.32714
G1 X107.07 Y107.097 E.01677
G1 X113.903 Y113.93 E.30343
G1 X113.369 Y113.93 E.01677
G1 X107.07 Y107.631 E.27971
G1 X107.07 Y108.166 E.01677
G1 X112.834 Y113.93 E.25599
G1 X112.3 Y113.93 E.01677
G1 X107.07 Y108.7 E.23228
G1 X107.07 Y109.234 E.01677
G1 X111.766 Y113.93 E.20856
G1 X111.232 Y113.93 E.01677
G1 X107.07 Y109.768 E.18484
G1 X107.07 Y110.302 E.01677
G1 X110.698 Y113.93 E.16113
G1 X110.164 Y113.93 E.01677
G1 X107.07 Y110.836 E.13741
G1 X107.07 Y111.37 E.01677
G1 X109.63 Y113.93 E.11369
G1 X109.096 Y113.93 E.01677
G1 X107.07 Y111.904 E.08998
G1 X107.07 Y112.438 E.01677
G1 X108.562 Y113.93 E.06626
G1 X108.028 Y113.93 E.01677
G1 X107.07 Y112.972 E.04254
G1 X107.07 Y113.506 E.01677
G1 X107.664 Y114.1 E.02636
M204 S1000
; stop printing object 1XDCMotorHolder.stl id:0 copy 0
;LAYER_CHANGE
;Z:0.35
;HEIGHT:0.15
;BEFORE_LAYER_CHANGE
G92 E0.0
;0.35


;WIPE_START
G1 F8640
G1 X107.07 Y113.506 E-.19386
G1 X107.07 Y112.972 E-.12332
G1 X108.028 Y113.93 E-.31284
G1 X108.562 Y113.93 E-.12332
G1 X107.96 Y113.328 E-.19667
;WIPE_END
G1 E-.05 F2100
G1 Z.4 F720
;AFTER_LAYER_CHANGE
;0.35
M104 S240 ; set temperature
M140 S90 ; set bed temperature
G1 X107.96 Y117.377 F10800
G1 Z.35 F720
G1 E1 F2100
;TYPE:Skirt/Brim
;WIDTH:0.42
G1 F3000
G1 X106 Y117.377 E.0474
G1 X104.693 Y116.985 E.033
G1 X103.817 Y115.94 E.033
G1 X103.623 Y115 E.02321
G1 X103.623 Y95 E.4837
G1 X104.015 Y93.693 E.033
G1 X105.06 Y92.817 E.033
G1 X106 Y92.623 E.02321
G1 X144 Y92.623 E.91903
