; generated by PrusaSlicer 2.5.2+win64 on 2023-04-07 at 19:52:54 UTC


;
;
; 

; external perimeters extrusion width = 0.45mm
; perimeters extrusion width = 0.45mm
; infill extrusion width = 0.45mm
; solid infill extrusion width = 0.45mm
; top infill extrusion width = 0.40mm
; first layer extrusion width = 0.42mm

M73 P0 R56
M73 Q0 S56
M201 X1000 Y1000 Z200 E5000 ; sets maximum accelerations, mm/sec^2
M203 X200 Y200 Z12 E120 ; sets maximum feedrates, mm / sec
M204 P1250 R1250 T1250 ; sets acceleration (P, T) and retract acceleration (R), mm/sec^2
M205 X8.00 Y8.00 Z0.40 E4.50 ; sets the jerk limits, mm/sec
M205 S0 T0 ; sets the minimum extruding and travel feed rate, mm/sec
M107
;TYPE:Custom
M862.3 P "MK3S" ; printer model check
M862.1 P0.4 ; nozzle diameter check
M115 U3.12.1 ; tell printer latest fw version
G90 ; use absolute coordinates
M83 ; extruder relative mode
M104 S230 ; set extruder temp
M140 S85 ; set bed temp
M190 S85 ; wait for bed temp
M109 S230 ; wait for extruder temp
G28 W ; home all without mesh bed level
G80 ; mesh bed leveling

G1 Z0.2 F720
G1 Y-3 F1000 ; go outside print area
G92 E0
G1 X60 E9 F1000 ; intro line
G1 X100 E12.5 F1000 ; intro line

G92 E0
M221 S95

; Don't change E values below. Excessive value can damage the printer.

M907 E538 ; set extruder motor current
G21 ; set units to millimeters
G90 ; use absolute coordinates
M83 ; use relative distances for extrusion
M900 K0.08 ; Filament gcode LA 1.5
M900 K45 ; Filament gcode LA 1.0
M107
;LAYER_CHANGE
;Z:0.2
;HEIGHT:0.2
;BEFORE_LAYER_CHANGE
G92 E0.0
;0.2


G1 E-1 F2100
G1 Z.2 F720
;AFTER_LAYER_CHANGE
;0.2
G1 Z.4
G1 X113.015 Y76.193 F10800
G1 Z.2 F720
G1 E1 F2100
M204 S800
;TYPE:Skirt/Brim
;WIDTH:0.42
G1 F1200
G1 X114.06 Y75.317 E.04278
G1 X115 Y75.123 E.03008
G1 X135 Y75.123 E.62709
G1 X136.307 Y75.515 E.04278
G1 X137.183 Y76.56 E.04278
G1 X137.377 Y77.5 E.03008
G1 X137.377 Y132.5 E1.72449
G1 X136.985 Y133.807 E.04278
G1 X135.94 Y134.683 E.04278
G1 X135 Y134.877 E.03008
G1 X115 Y134.877 E.62709
G1 X113.693 Y134.485 E.04278
G1 X112.817 Y133.44 E.04278
G1 X112.623 Y132.5 E.03008
G1 X112.623 Y77.5 E1.72449
G1 X112.997 Y76.25 E.0409
M204 S1000
; printing object 1XEndSwitchBracket.stl id:0 copy 0
;WIPE_START
G1 F8640
G1 X114.06 Y75.317 E-.32671
G1 X115 Y75.123 E-.22155
G1 X116.74 Y75.123 E-.40174
;WIPE_END
G1 E-.05 F2100
G1 Z.4 F720
G1 X134.213 Y131.713 F10800
G1 Z.2 F720
G1 E1 F2100
M204 S800
;TYPE:Perimeter
;WIDTH:0.419999
G1 F1200
G1 X115.787 Y131.713 E.57773
G1 X115.787 Y78.287 E1.67513
G1 X134.213 Y78.287 E.57773
G1 X134.213 Y131.653 E1.67325
M204 S1000
G1 X134.59 Y132.09 F10800
M204 S800
;TYPE:External perimeter
G1 F1200
G1 X115.41 Y132.09 E.60137
G1 X115.41 Y77.91 E1.69877
G1 X134.59 Y77.91 E.60137
G1 X134.59 Y132.03 E1.69689
M204 S1000
G1 X134.223 Y131.93 F10800
;WIPE_START
G1 F8640
G1 X130.476 Y132.043 E-.95
;WIPE_END
G1 E-.05 F2100
G1 Z.4 F720
G1 X127.877 Y125.835 F10800
G1 Z.2 F720
G1 E1 F2100
M204 S800
;TYPE:Perimeter
G1 F1200
G1 X127.719 Y125.11 E.02325
G1 X127.719 Y124.89 E.00692
G1 X127.851 Y124.229 E.02111
G1 X127.935 Y124.025 E.00692
G1 X128.309 Y123.465 E.02111
G1 X128.465 Y123.309 E.00692
G1 X129.025 Y122.935 E.02111
G1 X129.229 Y122.851 E.00692
G1 X129.89 Y122.719 E.02111
G1 X130.11 Y122.719 E.00692
G1 X130.771 Y122.851 E.02111
G1 X130.975 Y122.935 E.00692
G1 X131.535 Y123.309 E.02111
G1 X131.691 Y123.465 E.00692
G1 X132.065 Y124.025 E.02111
G1 X132.149 Y124.229 E.00692
G1 X132.281 Y124.89 E.02111
G1 X132.283 Y125.098 E.00652
G1 X132.149 Y125.771 E.02152
G1 X132.065 Y125.975 E.00692
G1 X131.691 Y126.535 E.02111
G1 X131.535 Y126.691 E.00692
G1 X130.975 Y127.065 E.02111
G1 X130.771 Y127.149 E.00692
G1 X130.11 Y127.281 E.02111
G1 X129.89 Y127.281 E.00692
G1 X129.229 Y127.149 E.02111
G1 X129.025 Y127.065 E.00692
G1 X128.465 Y126.691 E.02111
G1 X128.309 Y126.535 E.00692
G1 X127.935 Y125.975 E.02111
G1 X127.9 Y125.89 E.00287
M204 S1000
G1 X128.214 Y125.663 F10800
M204 S800
;TYPE:External perimeter
G1 F1200
G1 X128.089 Y125.037 E.02002
G1 X128.221 Y124.303 E.02338
G1 X128.623 Y123.675 E.02338
G1 X129.235 Y123.249 E.02338
G1 X129.963 Y123.089 E.02338
G1 X130.697 Y123.221 E.02338
G1 X131.325 Y123.623 E.02338
G1 X131.751 Y124.235 E.02338
G1 X131.911 Y124.963 E.02338
G1 X131.912 Y125.033 E.00217
G1 X131.779 Y125.697 E.02125
G1 X131.377 Y126.325 E.02338
G1 X130.765 Y126.751 E.02338
G1 X130.037 Y126.911 E.02338
G1 X129.303 Y126.779 E.02338
G1 X128.675 Y126.377 E.02338
G1 X128.322 Y125.875 E.01925
G1 X128.233 Y125.719 E.00563
M204 S1000
G1 X127.822 Y125.583 F10800
;WIPE_START
G1 F8640
G1 X128.089 Y125.037 E-.16097
G1 X128.221 Y124.303 E-.17217
G1 X128.623 Y123.675 E-.17218
G1 X129.235 Y123.249 E-.17217
G1 X129.963 Y123.089 E-.17218
G1 X130.391 Y123.166 E-.10033
;WIPE_END
G1 E-.05 F2100
G1 Z.4 F720
G1 X117.719 Y125.04 F10800
G1 Z.2 F720
G1 E1 F2100
M204 S800
;TYPE:Perimeter
G1 F1200
G1 X117.719 Y124.89 E.0047
G1 X117.851 Y124.229 E.02111
G1 X117.935 Y124.025 E.00692
G1 X118.309 Y123.465 E.02111
G1 X118.465 Y123.309 E.00692
G1 X119.025 Y122.935 E.02111
G1 X119.229 Y122.851 E.00692
G1 X119.89 Y122.719 E.02111
G1 X120.11 Y122.719 E.00692
G1 X120.771 Y122.851 E.02111
G1 X120.975 Y122.935 E.00692
G1 X121.535 Y123.309 E.02111
G1 X121.691 Y123.465 E.00692
G1 X122.065 Y124.025 E.02111
G1 X122.149 Y124.229 E.00692
G1 X122.281 Y124.89 E.02111
G1 X122.281 Y125.11 E.00692
G1 X122.149 Y125.771 E.02111
G1 X121.991 Y126.084 E.01101
G1 X121.691 Y126.535 E.01698
G1 X121.535 Y126.691 E.00692
G1 X120.975 Y127.065 E.02111
G1 X120.771 Y127.149 E.00692
G1 X120.11 Y127.281 E.02111
G1 X119.89 Y127.281 E.00692
G1 X119.229 Y127.149 E.02111
G1 X119.025 Y127.065 E.00692
G1 X118.465 Y126.691 E.02111
M73 Q1 S56
G1 X118.309 Y126.535 E.00692
G1 X117.935 Y125.975 E.02111
G1 X117.851 Y125.771 E.00692
G1 X117.719 Y125.1 E.02144
M204 S1000
G1 X118.097 Y125.073 F10800
M204 S800
;TYPE:External perimeter
G1 F1200
G1 X118.089 Y125.037 E.00118
G1 X118.221 Y124.303 E.02338
G1 X118.623 Y123.675 E.02338
G1 X119.235 Y123.249 E.02338
G1 X119.963 Y123.089 E.02338
G1 X120.697 Y123.221 E.02338
G1 X120.765 Y123.249 E.00231
G1 X121.325 Y123.623 E.02111
G1 X121.751 Y124.235 E.02338
G1 X121.911 Y124.963 E.02338
M73 P1 R56
G1 X121.779 Y125.697 E.02338
G1 X121.377 Y126.325 E.02338
G1 X120.765 Y126.751 E.02338
G1 X120.037 Y126.911 E.02338
G1 X119.303 Y126.779 E.02338
G1 X118.675 Y126.377 E.02338
G1 X118.249 Y125.765 E.02338
G1 X118.11 Y125.132 E.02032
M204 S1000
G1 X118.061 Y125.064 F10800
;WIPE_START
G1 F8640
G1 X118.089 Y125.037 E-.02251
G1 X118.221 Y124.303 E-.17218
G1 X118.623 Y123.675 E-.17217
G1 X119.235 Y123.249 E-.17217
G1 X119.963 Y123.089 E-.17218
G1 X120.697 Y123.221 E-.17218
G1 X120.765 Y123.249 E-.01699
G1 X120.944 Y123.368 E-.04963
;WIPE_END
G1 E-.05 F2100
G1 Z.4 F720
G1 X134.1 Y79.163 F10800
G1 Z.2 F720
G1 E1 F2100
M204 S800
;TYPE:Solid infill
;WIDTH:0.420085
G1 F1200
G1 X133.507 Y78.57 E.02629
G1 X132.974 Y78.57 E.01673
G1 X133.93 Y79.526 E.04242
G1 X133.93 Y80.06 E.01673
G1 X132.44 Y78.57 E.06608
G1 X131.907 Y78.57 E.01673
G1 X133.93 Y80.593 E.08973
G1 X133.93 Y81.127 E.01673
G1 X131.373 Y78.57 E.11339
G1 X130.84 Y78.57 E.01673
G1 X133.93 Y81.66 E.13705
G1 X133.93 Y82.193 E.01673
G1 X130.307 Y78.57 E.16071
G1 X129.773 Y78.57 E.01673
G1 X133.93 Y82.727 E.18436
G1 X133.93 Y83.26 E.01673
G1 X129.24 Y78.57 E.20802
G1 X128.707 Y78.57 E.01673
G1 X133.93 Y83.793 E.23168
G1 X133.93 Y84.327 E.01673
G1 X128.173 Y78.57 E.25533
G1 X127.64 Y78.57 E.01673
G1 X133.93 Y84.86 E.27899
G1 X133.93 Y85.394 E.01673
G1 X127.106 Y78.57 E.30265
G1 X126.573 Y78.57 E.01673
G1 X133.93 Y85.927 E.3263
G1 X133.93 Y86.46 E.01673
G1 X126.04 Y78.57 E.34996
G1 X125.506 Y78.57 E.01673
G1 X133.93 Y86.994 E.37362
G1 X133.93 Y87.527 E.01673
G1 X124.973 Y78.57 E.39727
G1 X124.439 Y78.57 E.01673
G1 X133.93 Y88.061 E.42093
G1 X133.93 Y88.594 E.01673
M73 P1 R55
G1 X123.906 Y78.57 E.44459
G1 X123.373 Y78.57 E.01673
G1 X133.93 Y89.127 E.46824
G1 X133.93 Y89.661 E.01673
G1 X122.839 Y78.57 E.4919
G1 X122.306 Y78.57 E.01673
G1 X133.93 Y90.194 E.51556
G1 X133.93 Y90.728 E.01673
G1 X121.772 Y78.57 E.53921
G1 X121.239 Y78.57 E.01673
G1 X133.93 Y91.261 E.56287
G1 X133.93 Y91.794 E.01673
M73 Q1 S55
G1 X120.706 Y78.57 E.58653
G1 X120.172 Y78.57 E.01673
G1 X133.93 Y92.328 E.61019
G1 X133.93 Y92.861 E.01673
G1 X119.639 Y78.57 E.63384
G1 X119.105 Y78.57 E.01673
G1 X133.93 Y93.395 E.6575
G1 X133.93 Y93.928 E.01673
G1 X118.572 Y78.57 E.68116
G1 X118.039 Y78.57 E.01673
G1 X133.93 Y94.461 E.70481
G1 X133.93 Y94.995 E.01673
G1 X117.505 Y78.57 E.72847
G1 X116.972 Y78.57 E.01673
G1 X133.93 Y95.528 E.75213
G1 X133.93 Y96.061 E.01673
G1 X116.439 Y78.57 E.77578
G1 X116.07 Y78.57 E.01156
G1 X116.07 Y78.735 E.00517
G1 X133.93 Y96.595 E.79213
G1 X133.93 Y97.128 E.01673
G1 X116.07 Y79.268 E.79213
G1 X116.07 Y79.801 E.01673
G1 X133.93 Y97.662 E.79213
G1 X133.93 Y98.195 E.01673
G1 X116.07 Y80.335 E.79213
G1 X116.07 Y80.868 E.01673
G1 X133.93 Y98.728 E.79213
G1 X133.93 Y99.262 E.01673
G1 X116.07 Y81.402 E.79213
G1 X116.07 Y81.935 E.01673
G1 X133.93 Y99.795 E.79213
G1 X133.93 Y100.329 E.01673
G1 X116.07 Y82.468 E.79213
G1 X116.07 Y83.002 E.01673
M73 Q2 S55
G1 X133.93 Y100.862 E.79213
G1 X133.93 Y101.395 E.01673
M73 P2 R55
G1 X116.07 Y83.535 E.79213
G1 X116.07 Y84.069 E.01673
G1 X133.93 Y101.929 E.79213
G1 X133.93 Y102.462 E.01673
G1 X116.07 Y84.602 E.79213
G1 X116.07 Y85.135 E.01673
G1 X133.93 Y102.996 E.79213
G1 X133.93 Y103.529 E.01673
G1 X116.07 Y85.669 E.79213
G1 X116.07 Y86.202 E.01673
G1 X133.93 Y104.062 E.79213
G1 X133.93 Y104.596 E.01673
G1 X116.07 Y86.736 E.79213
G1 X116.07 Y87.269 E.01673
G1 X133.93 Y105.129 E.79213
G1 X133.93 Y105.663 E.01673
G1 X116.07 Y87.802 E.79213
G1 X116.07 Y88.336 E.01673
G1 X133.93 Y106.196 E.79213
G1 X133.93 Y106.729 E.01673
G1 X116.07 Y88.869 E.79213
G1 X116.07 Y89.402 E.01673
G1 X133.93 Y107.263 E.79213
G1 X133.93 Y107.796 E.01673
G1 X116.07 Y89.936 E.79213
G1 X116.07 Y90.469 E.01673
G1 X133.93 Y108.33 E.79213
G1 X133.93 Y108.863 E.01673
G1 X116.07 Y91.003 E.79213
G1 X116.07 Y91.536 E.01673
G1 X133.93 Y109.396 E.79213
G1 X133.93 Y109.93 E.01673
G1 X116.07 Y92.069 E.79213
G1 X116.07 Y92.603 E.01673
G1 X133.93 Y110.463 E.79213
G1 X133.93 Y110.996 E.01673
G1 X116.07 Y93.136 E.79213
G1 X116.07 Y93.67 E.01673
G1 X133.93 Y111.53 E.79213
G1 X133.93 Y112.063 E.01673
G1 X116.07 Y94.203 E.79213
G1 X116.07 Y94.736 E.01673
G1 X133.93 Y112.597 E.79213
G1 X133.93 Y113.13 E.01673
G1 X116.07 Y95.27 E.79213
G1 X116.07 Y95.803 E.01673
G1 X133.93 Y113.663 E.79213
G1 X133.93 Y114.197 E.01673
G1 X116.07 Y96.337 E.79213
G1 X116.07 Y96.87 E.01673
M73 P2 R54
G1 X133.93 Y114.73 E.79213
M73 Q3 S55
G1 X133.93 Y115.264 E.01673
M73 P3 R54
G1 X116.07 Y97.403 E.79213
G1 X116.07 Y97.937 E.01673
G1 X133.93 Y115.797 E.79213
G1 X133.93 Y116.33 E.01673
G1 X116.07 Y98.47 E.79213
G1 X116.07 Y99.004 E.01673
G1 X133.93 Y116.864 E.79213
G1 X133.93 Y117.397 E.01673
M73 Q3 S54
G1 X116.07 Y99.537 E.79213
G1 X116.07 Y100.07 E.01673
G1 X133.93 Y117.931 E.79213
G1 X133.93 Y118.464 E.01673
G1 X116.07 Y100.604 E.79213
G1 X116.07 Y101.137 E.01673
G1 X133.93 Y118.997 E.79213
G1 X133.93 Y119.531 E.01673
G1 X116.07 Y101.67 E.79213
G1 X116.07 Y102.204 E.01673
G1 X133.93 Y120.064 E.79213
G1 X133.93 Y120.598 E.01673
G1 X116.07 Y102.737 E.79213
G1 X116.07 Y103.271 E.01673
G1 X133.93 Y121.131 E.79213
G1 X133.93 Y121.664 E.01673
G1 X116.07 Y103.804 E.79213
G1 X116.07 Y104.337 E.01673
G1 X133.93 Y122.198 E.79213
G1 X133.93 Y122.731 E.01673
G1 X116.07 Y104.871 E.79213
G1 X116.07 Y105.404 E.01673
G1 X133.93 Y123.264 E.79213
G1 X133.93 Y123.798 E.01673
G1 X116.07 Y105.938 E.79213
G1 X116.07 Y106.471 E.01673
G1 X133.93 Y124.331 E.79213
G1 X133.93 Y124.865 E.01673
G1 X116.07 Y107.004 E.79213
G1 X116.07 Y107.538 E.01673
G1 X133.93 Y125.398 E.79213
G1 X133.93 Y125.931 E.01673
G1 X132.483 Y124.484 E.0642
G1 X132.576 Y125 E.01645
G1 X132.559 Y125.094 E.00298
G1 X133.93 Y126.465 E.06082
G1 X133.93 Y126.998 E.01673
G1 X132.477 Y125.545 E.06444
G1 X132.425 Y125.834 E.00921
G1 X132.369 Y125.97 E.00462
G1 X133.93 Y127.532 E.06925
G1 X133.93 Y128.065 E.01673
G1 X132.179 Y126.313 E.07769
G1 X131.965 Y126.633 E.01206
G1 X133.93 Y128.598 E.08716
G1 X133.93 Y129.132 E.01673
G1 X131.709 Y126.911 E.0985
G1 X131.387 Y127.122 E.01208
G1 X133.93 Y129.665 E.11279
G1 X133.93 Y130.199 E.01673
G1 X131.063 Y127.331 E.12717
G1 X130.996 Y127.375 E.00251
G1 X130.656 Y127.457 E.01098
G1 X133.93 Y130.732 E.14523
G1 X133.93 Y131.265 E.01673
G1 X130.204 Y127.539 E.16527
G1 X130 Y127.576 E.00649
G1 X129.643 Y127.511 E.01139
G1 X133.731 Y131.6 E.18134
M204 S1000
;WIPE_START
G1 F8640
G1 X130.822 Y128.691 E-.95
;WIPE_END
G1 E-.05 F2100
G1 Z.4 F720
G1 X130.725 Y122.726 F10800
G1 Z.2 F720
G1 E1 F2100
M204 S800
G1 F1200
G1 X116.07 Y108.071 E.64998
G1 X116.07 Y108.605 E.01673
G1 X129.9 Y122.435 E.61339
G1 X129.45 Y122.518 E.01434
G1 X116.07 Y109.138 E.59345
G1 X116.07 Y109.671 E.01673
G1 X129.023 Y122.624 E.57448
G1 X128.963 Y122.644 E.00197
M73 Q4 S54
G1 X128.689 Y122.824 E.01027
G1 X116.07 Y110.205 E.55969
G1 X116.07 Y110.738 E.01673
M73 P4 R54
G1 X128.367 Y123.036 E.54541
G1 X128.14 Y123.221 E.00918
G1 X128.092 Y123.294 E.00275
G1 X116.07 Y111.272 E.53321
G1 X116.07 Y111.805 E.01673
G1 X127.88 Y123.615 E.52381
G1 X127.668 Y123.937 E.01208
G1 X116.07 Y112.338 E.51442
G1 X116.07 Y112.872 E.01673
G1 X127.543 Y124.344 E.50884
G1 X127.461 Y124.796 E.0144
G1 X116.07 Y113.405 E.50522
G1 X116.07 Y113.939 E.01673
G1 X127.699 Y125.568 E.51578
M204 S1000
;WIPE_START
G1 F8640
G1 X124.79 Y122.659 E-.95
;WIPE_END
G1 E-.05 F2100
G1 Z.4 F720
G1 X133.198 Y131.6 F10800
G1 Z.2 F720
G1 E1 F2100
M204 S800
G1 F1200
G1 X116.07 Y114.472 E.75965
G1 X116.07 Y115.005 E.01673
G1 X132.495 Y131.43 E.72847
G1 X131.961 Y131.43 E.01673
G1 X116.07 Y115.539 E.70481
G1 X116.07 Y116.072 E.01673
G1 X131.428 Y131.43 E.68116
G1 X130.895 Y131.43 E.01673
G1 X116.07 Y116.605 E.6575
G1 X116.07 Y117.139 E.01673
G1 X130.361 Y131.43 E.63384
G1 X129.828 Y131.43 E.01673
G1 X122.328 Y123.93 E.33263
G1 X121.923 Y123.304 E.02338
G1 X121.796 Y123.155 E.00615
G1 X121.059 Y122.661 E.02783
G1 X116.07 Y117.672 E.22125
G1 X116.07 Y118.206 E.01673
G1 X120.345 Y122.481 E.18961
G1 X120.016 Y122.425 E.01048
G1 X119.783 Y122.452 E.00734
G1 X116.07 Y118.739 E.16469
G1 X116.07 Y119.272 E.01673
G1 X119.338 Y122.541 E.14496
G1 X119.165 Y122.575 E.00554
G1 X118.935 Y122.671 E.00782
G1 X116.07 Y119.806 E.12706
G1 X116.07 Y120.339 E.01673
G1 X118.606 Y122.875 E.11248
G1 X118.289 Y123.091 E.01204
G1 X116.07 Y120.873 E.09841
G1 X116.07 Y121.406 E.01673
G1 X118.033 Y123.369 E.08708
G1 X117.82 Y123.689 E.01206
G1 X116.07 Y121.939 E.07761
G1 X116.07 Y122.473 E.01673
G1 X117.63 Y124.033 E.06919
G1 X117.575 Y124.166 E.00451
G1 X117.522 Y124.458 E.00933
G1 X116.07 Y123.006 E.06441
G1 X116.07 Y123.54 E.01673
G1 X117.44 Y124.91 E.06079
G1 X117.424 Y125 E.00286
G1 X117.518 Y125.522 E.01662
G1 X115.9 Y123.903 E.07177
M204 S1000
;WIPE_START
G1 F8640
G1 X117.518 Y125.522 E-.52844
G1 X117.424 Y125 E-.12237
G1 X117.44 Y124.91 E-.02108
G1 X116.589 Y124.058 E-.27811
;WIPE_END
G1 E-.05 F2100
G1 Z.4 F720
G1 X122.302 Y124.437 F10800
G1 Z.2 F720
G1 E1 F2100
M204 S800
G1 F1200
G1 X129.294 Y131.43 E.31014
G1 X128.761 Y131.43 E.01673
G1 X122.538 Y125.207 E.27599
G1 X122.457 Y125.659 E.0144
G1 X128.228 Y131.43 E.25595
G1 X127.694 Y131.43 E.01673
G1 X122.33 Y126.066 E.2379
G1 X122.121 Y126.39 E.0121
G1 X127.161 Y131.43 E.22353
G1 X126.627 Y131.43 E.01673
G1 X121.91 Y126.712 E.20925
G1 X121.825 Y126.816 E.00419
G1 X121.631 Y126.967 E.00772
G1 X126.094 Y131.43 E.19796
G1 X125.561 Y131.43 E.01673
G1 X121.311 Y127.18 E.18849
G1 X121.124 Y127.305 E.00704
G1 X120.967 Y127.37 E.00533
G1 X125.027 Y131.43 E.18007
G1 X124.494 Y131.43 E.01673
G1 X120.542 Y127.478 E.17529
G1 X120.09 Y127.56 E.0144
G1 X123.96 Y131.43 E.17167
G1 X123.427 Y131.43 E.01673
G1 X119.268 Y127.271 E.18446
M204 S1000
;WIPE_START
G1 F8640
G1 X122.177 Y130.18 E-.95
;WIPE_END
G1 E-.05 F2100
G1 Z.4 F720
G1 X115.9 Y124.437 F10800
G1 Z.2 F720
G1 E1 F2100
M204 S800
G1 F1200
G1 X122.894 Y131.43 E.31017
