; generated by PrusaSlicer 2.5.2+win64 on 2023-04-07 at 19:53:42 UTC


;
;
; 

; external perimeters extrusion width = 0.45mm
; perimeters extrusion width = 0.45mm
; infill extrusion width = 0.45mm
; solid infill extrusion width = 0.45mm
; top infill extrusion width = 0.40mm
; support material extrusion width = 0.35mm
; first layer extrusion width = 0.42mm

M73 P0 R262
M73 Q0 S264
M201 X1000 Y1000 Z200 E5000 ; sets maximum accelerations, mm/sec^2
M203 X200 Y200 Z12 E120 ; sets maximum feedrates, mm / sec
M204 P1250 R1250 T1250 ; sets acceleration (P, T) and retract acceleration (R), mm/sec^2
M205 X8.00 Y8.00 Z0.40 E4.50 ; sets the jerk limits, mm/sec
M205 S0 T0 ; sets the minimum extruding and travel feed rate, mm/sec
M107
;TYPE:Custom
M862.3 P "MK3S" ; printer model check
M862.1 P0.4 ; nozzle diameter check
M115 U3.12.1 ; tell printer latest fw version
G90 ; use absolute coordinates
M83 ; extruder relative mode
M104 S230 ; set extruder temp
M140 S85 ; set bed temp
M190 S85 ; wait for bed temp
M109 S230 ; wait for extruder temp
G28 W ; home all without mesh bed level
G80 ; mesh bed leveling

G1 Z0.2 F720
G1 Y-3 F1000 ; go outside print area
G92 E0
G1 X60 E9 F1000 ; intro line
G1 X100 E12.5 F1000 ; intro line

G92 E0
M221 S95

; Don't change E values below. Excessive value can damage the printer.

M907 E538 ; set extruder motor current
G21 ; set units to millimeters
G90 ; use absolute coordinates
M83 ; use relative distances for extrusion
M900 K0.08 ; Filament gcode LA 1.5
M900 K45 ; Filament gcode LA 1.0
M107
;LAYER_CHANGE
;Z:0.2
;HEIGHT:0.2
;BEFORE_LAYER_CHANGE
G92 E0.0
;0.2


G1 E-1 F2100
G1 Z.2 F720
;AFTER_LAYER_CHANGE
;0.2
G1 Z.4
G1 X83.209 Y63.937 F10800
G1 Z.2 F720
G1 E1 F2100
M204 S800
;TYPE:Skirt/Brim
;WIDTH:0.42
G1 F1200
G1 X85 Y63.123 E.06167
G1 X165 Y63.123 E2.50834
G1 X166.307 Y63.515 E.04278
G1 X167.355 Y65.179 E.06167
G1 X172.025 Y99.412 E1.0833
G1 X172.046 Y126.491 E.84905
G1 X171.655 Y127.798 E.04278
G1 X170.966 Y128.484 E.03046
G1 X142.958 Y146.675 E1.04714
G1 X131.225 Y151.845 E.40201
M73 Q0 S263
G1 X130.267 Y152.046 E.03071
G1 X119.733 Y152.046 E.33026
G1 X118.775 Y151.845 E.03071
G1 X106.703 Y146.492 E.41404
G1 X79.034 Y128.484 E1.03512
G1 X78.152 Y127.442 E.04278
G1 X77.954 Y126.491 E.03046
G1 X77.975 Y99.412 E.84905
G1 X82.645 Y65.179 E1.0833
G1 X83.185 Y63.991 E.0409
M204 S1000
; printing object 1XGantryHolder.stl id:0 copy 0
;WIPE_START
G1 F8640
G1 X85 Y63.123 E-.46468
G1 X87.102 Y63.123 E-.48532
;WIPE_END
G1 E-.05 F2100
G1 Z.4 F720
G1 X84.52 Y121.699 F10800
G1 Z.2 F720
G1 E1 F2100
M204 S800
;TYPE:Support material
G1 F1200
G1 X84.801 Y121.98 E.01247
G1 X107.52 Y121.98 E.71233
G1 X107.52 Y126.491 E.14145
G1 X80.331 Y126.491 E.8525
G1 X80.331 Y99.733 E.83898
G1 X84.52 Y99.733 E.13135
G1 X84.52 Y121.642 E.68694
M204 S1000
;WIPE_START
G1 F8640
G1 X84.52 Y117.528 E-.95
;WIPE_END
G1 E-.05 F2100
G1 Z.4 F720
G1 X106.984 Y126.322 F10800
G1 Z.2 F720
G1 E1 F2100
M204 S800
G1 F1200
G1 X106.984 Y122.319 E.12549
G1 X106.565 Y122.319 E.01314
G1 X106.565 Y126.152 E.12017
G1 X106.146 Y126.152 E.01314
G1 X106.146 Y122.319 E.12017
G1 X105.727 Y122.319 E.01314
G1 X105.727 Y126.152 E.12017
G1 X105.308 Y126.152 E.01314
G1 X105.308 Y122.319 E.12017
G1 X104.889 Y122.319 E.01314
G1 X104.889 Y126.152 E.12017
G1 X104.47 Y126.152 E.01314
G1 X104.47 Y122.319 E.12017
G1 X104.051 Y122.319 E.01314
G1 X104.051 Y126.152 E.12017
G1 X103.632 Y126.152 E.01314
G1 X103.632 Y122.319 E.12017
G1 X103.213 Y122.319 E.01314
G1 X103.213 Y126.152 E.12017
G1 X102.794 Y126.152 E.01314
G1 X102.794 Y122.319 E.12017
G1 X102.375 Y122.319 E.01314
G1 X102.375 Y126.152 E.12017
G1 X101.956 Y126.152 E.01314
G1 X101.956 Y122.319 E.12017
G1 X101.537 Y122.319 E.01314
G1 X101.537 Y126.152 E.12017
G1 X101.118 Y126.152 E.01314
G1 X101.118 Y122.319 E.12017
G1 X100.699 Y122.319 E.01314
G1 X100.699 Y126.152 E.12017
G1 X100.28 Y126.152 E.01314
G1 X100.28 Y122.319 E.12017
G1 X99.861 Y122.319 E.01314
G1 X99.861 Y126.152 E.12017
G1 X99.442 Y126.152 E.01314
G1 X99.442 Y122.319 E.12017
G1 X99.023 Y122.319 E.01314
G1 X99.023 Y126.152 E.12017
G1 X98.604 Y126.152 E.01314
G1 X98.604 Y122.319 E.12017
G1 X98.185 Y122.319 E.01314
G1 X98.185 Y126.152 E.12017
G1 X97.766 Y126.152 E.01314
G1 X97.766 Y122.319 E.12017
G1 X97.348 Y122.319 E.01314
G1 X97.348 Y126.152 E.12017
G1 X96.929 Y126.152 E.01314
G1 X96.929 Y122.319 E.12017
G1 X96.51 Y122.319 E.01314
G1 X96.51 Y126.152 E.12017
G1 X96.091 Y126.152 E.01314
G1 X96.091 Y122.319 E.12017
G1 X95.672 Y122.319 E.01314
G1 X95.672 Y126.152 E.12017
G1 X95.253 Y126.152 E.01314
G1 X95.253 Y122.319 E.12017
G1 X94.834 Y122.319 E.01314
G1 X94.834 Y126.152 E.12017
G1 X94.415 Y126.152 E.01314
G1 X94.415 Y122.319 E.12017
G1 X93.996 Y122.319 E.01314
G1 X93.996 Y126.152 E.12017
G1 X93.577 Y126.152 E.01314
G1 X93.577 Y122.319 E.12017
G1 X93.158 Y122.319 E.01314
G1 X93.158 Y126.152 E.12017
G1 X92.739 Y126.152 E.01314
G1 X92.739 Y122.319 E.12017
G1 X92.32 Y122.319 E.01314
G1 X92.32 Y126.152 E.12017
G1 X91.901 Y126.152 E.01314
G1 X91.901 Y122.319 E.12017
G1 X91.482 Y122.319 E.01314
G1 X91.482 Y126.152 E.12017
G1 X91.063 Y126.152 E.01314
G1 X91.063 Y122.319 E.12017
G1 X90.644 Y122.319 E.01314
G1 X90.644 Y126.152 E.12017
G1 X90.225 Y126.152 E.01314
G1 X90.225 Y122.319 E.12017
G1 X89.806 Y122.319 E.01314
G1 X89.806 Y126.152 E.12017
G1 X89.387 Y126.152 E.01314
G1 X89.387 Y122.319 E.12017
G1 X88.968 Y122.319 E.01314
G1 X88.968 Y126.152 E.12017
G1 X88.549 Y126.152 E.01314
G1 X88.549 Y122.319 E.12017
G1 X88.13 Y122.319 E.01314
G1 X88.13 Y126.152 E.12017
G1 X87.711 Y126.152 E.01314
G1 X87.711 Y122.319 E.12017
G1 X87.292 Y122.319 E.01314
G1 X87.292 Y126.152 E.12017
G1 X86.873 Y126.152 E.01314
G1 X86.873 Y122.319 E.12017
G1 X86.454 Y122.319 E.01314
G1 X86.454 Y126.152 E.12017
G1 X86.035 Y126.152 E.01314
G1 X86.035 Y122.319 E.12017
G1 X85.616 Y122.319 E.01314
G1 X85.616 Y126.152 E.12017
G1 X85.197 Y126.152 E.01314
G1 X85.197 Y122.319 E.12017
G1 X84.778 Y122.319 E.01314
G1 X84.778 Y126.152 E.12017
G1 X84.359 Y126.152 E.01314
G1 X84.359 Y122.018 E.12962
G1 X84.181 Y121.839 E.00792
G1 X84.181 Y100.073 E.68248
G1 X83.94 Y100.073 E.00754
G1 X83.94 Y126.152 E.81769
G1 X83.521 Y126.152 E.01314
G1 X83.521 Y100.073 E.81769
G1 X83.102 Y100.073 E.01314
G1 X83.102 Y126.152 E.81769
G1 X82.683 Y126.152 E.01314
G1 X82.683 Y100.073 E.81769
G1 X82.264 Y100.073 E.01314
G1 X82.264 Y126.152 E.81769
G1 X81.845 Y126.152 E.01314
G1 X81.845 Y100.073 E.81769
G1 X81.426 Y100.073 E.01314
G1 X81.426 Y126.152 E.81769
G1 X81.007 Y126.152 E.01314
G1 X81.007 Y99.903 E.82301
M204 S1000
;WIPE_START
G1 F8640
G1 X81.007 Y104.017 E-.95
;WIPE_END
G1 E-.05 F2100
G1 Z.4 F720
G1 X134.52 Y126.491 F10800
G1 Z.2 F720
G1 E1 F2100
M204 S800
G1 F1200
G1 X115.48 Y126.491 E.59699
G1 X115.48 Y121.98 E.14145
G1 X134.52 Y121.98 E.59699
G1 X134.52 Y126.435 E.13968
M204 S1000
M73 P0 R261
G1 X133.799 Y126.322 F10800
M204 S800
G1 F1200
G1 X133.799 Y122.319 E.12549
G1 X133.38 Y122.319 E.01314
G1 X133.38 Y126.152 E.12017
G1 X132.961 Y126.152 E.01314
G1 X132.961 Y122.319 E.12017
G1 X132.542 Y122.319 E.01314
G1 X132.542 Y126.152 E.12017
G1 X132.123 Y126.152 E.01314
G1 X132.123 Y122.319 E.12017
G1 X131.704 Y122.319 E.01314
G1 X131.704 Y126.152 E.12017
G1 X131.285 Y126.152 E.01314
G1 X131.285 Y122.319 E.12017
G1 X130.866 Y122.319 E.01314
G1 X130.866 Y126.152 E.12017
G1 X130.447 Y126.152 E.01314
G1 X130.447 Y122.319 E.12017
G1 X130.028 Y122.319 E.01314
G1 X130.028 Y126.152 E.12017
G1 X129.609 Y126.152 E.01314
G1 X129.609 Y122.319 E.12017
G1 X129.19 Y122.319 E.01314
G1 X129.19 Y126.152 E.12017
G1 X128.771 Y126.152 E.01314
G1 X128.771 Y122.319 E.12017
G1 X128.352 Y122.319 E.01314
G1 X128.352 Y126.152 E.12017
G1 X127.933 Y126.152 E.01314
G1 X127.933 Y122.319 E.12017
G1 X127.514 Y122.319 E.01314
G1 X127.514 Y126.152 E.12017
G1 X127.095 Y126.152 E.01314
G1 X127.095 Y122.319 E.12017
G1 X126.676 Y122.319 E.01314
G1 X126.676 Y126.152 E.12017
G1 X126.257 Y126.152 E.01314
G1 X126.257 Y122.319 E.12017
G1 X125.838 Y122.319 E.01314
G1 X125.838 Y126.152 E.12017
G1 X125.419 Y126.152 E.01314
G1 X125.419 Y122.319 E.12017
G1 X125 Y122.319 E.01314
G1 X125 Y126.152 E.12017
G1 X124.581 Y126.152 E.01314
G1 X124.581 Y122.319 E.12017
G1 X124.162 Y122.319 E.01314
G1 X124.162 Y126.152 E.12017
G1 X123.743 Y126.152 E.01314
G1 X123.743 Y122.319 E.12017
G1 X123.324 Y122.319 E.01314
G1 X123.324 Y126.152 E.12017
G1 X122.905 Y126.152 E.01314
G1 X122.905 Y122.319 E.12017
G1 X122.486 Y122.319 E.01314
G1 X122.486 Y126.152 E.12017
G1 X122.067 Y126.152 E.01314
G1 X122.067 Y122.319 E.12017
G1 X121.648 Y122.319 E.01314
G1 X121.648 Y126.152 E.12017
G1 X121.229 Y126.152 E.01314
G1 X121.229 Y122.319 E.12017
G1 X120.81 Y122.319 E.01314
G1 X120.81 Y126.152 E.12017
G1 X120.391 Y126.152 E.01314
G1 X120.391 Y122.319 E.12017
G1 X119.972 Y122.319 E.01314
G1 X119.972 Y126.152 E.12017
G1 X119.553 Y126.152 E.01314
G1 X119.553 Y122.319 E.12017
G1 X119.134 Y122.319 E.01314
G1 X119.134 Y126.152 E.12017
G1 X118.715 Y126.152 E.01314
G1 X118.715 Y122.319 E.12017
G1 X118.296 Y122.319 E.01314
G1 X118.296 Y126.152 E.12017
G1 X117.877 Y126.152 E.01314
G1 X117.877 Y122.319 E.12017
G1 X117.458 Y122.319 E.01314
G1 X117.458 Y126.152 E.12017
G1 X117.039 Y126.152 E.01314
G1 X117.039 Y122.319 E.12017
G1 X116.62 Y122.319 E.01314
G1 X116.62 Y126.152 E.12017
G1 X116.201 Y126.152 E.01314
G1 X116.201 Y122.15 E.12549
M204 S1000
;WIPE_START
G1 F8640
G1 X116.201 Y126.152 E-.92413
G1 X116.314 Y126.152 E-.02587
;WIPE_END
G1 E-.05 F2100
G1 Z.4 F720
G1 X130.267 Y139.02 F10800
G1 Z.2 F720
G1 E1 F2100
M204 S800
G1 F1200
G1 X119.733 Y139.02 E.33026
G1 X119.733 Y134.501 E.1417
G1 X130.267 Y134.501 E.33026
G1 X130.267 Y138.963 E.13993
M204 S1000
G1 X129.609 Y138.85 F10800
M204 S800
G1 F1200
G1 X129.609 Y134.84 E.12574
G1 X129.19 Y134.84 E.01314
G1 X129.19 Y138.681 E.12042
G1 X128.771 Y138.681 E.01314
G1 X128.771 Y134.84 E.12042
G1 X128.352 Y134.84 E.01314
G1 X128.352 Y138.681 E.12042
G1 X127.933 Y138.681 E.01314
G1 X127.933 Y134.84 E.12042
G1 X127.514 Y134.84 E.01314
G1 X127.514 Y138.681 E.12042
G1 X127.095 Y138.681 E.01314
G1 X127.095 Y134.84 E.12042
G1 X126.676 Y134.84 E.01314
G1 X126.676 Y138.681 E.12042
G1 X126.257 Y138.681 E.01314
G1 X126.257 Y134.84 E.12042
G1 X125.838 Y134.84 E.01314
G1 X125.838 Y138.681 E.12042
G1 X125.419 Y138.681 E.01314
G1 X125.419 Y134.84 E.12042
G1 X125 Y134.84 E.01314
G1 X125 Y138.681 E.12042
G1 X124.581 Y138.681 E.01314
G1 X124.581 Y134.84 E.12042
G1 X124.162 Y134.84 E.01314
G1 X124.162 Y138.681 E.12042
G1 X123.743 Y138.681 E.01314
G1 X123.743 Y134.84 E.12042
G1 X123.324 Y134.84 E.01314
G1 X123.324 Y138.681 E.12042
G1 X122.905 Y138.681 E.01314
G1 X122.905 Y134.84 E.12042
G1 X122.486 Y134.84 E.01314
G1 X122.486 Y138.681 E.12042
G1 X122.067 Y138.681 E.01314
G1 X122.067 Y134.84 E.12042
G1 X121.648 Y134.84 E.01314
G1 X121.648 Y138.681 E.12042
G1 X121.229 Y138.681 E.01314
G1 X121.229 Y134.84 E.12042
G1 X120.81 Y134.84 E.01314
G1 X120.81 Y138.681 E.12042
G1 X120.391 Y138.681 E.01314
G1 X120.391 Y134.67 E.12574
M204 S1000
;WIPE_START
G1 F8640
G1 X120.391 Y138.681 E-.92601
G1 X120.495 Y138.681 E-.02399
;WIPE_END
G1 E-.05 F2100
G1 Z.4 F720
G1 X130.267 Y149.669 F10800
G1 Z.2 F720
G1 E1 F2100
M204 S800
G1 F1200
G1 X119.733 Y149.669 E.33026
G1 X119.733 Y144.98 E.14703
M73 Q0 S262
G1 X130.267 Y144.98 E.33026
G1 X130.267 Y149.613 E.14526
M204 S1000
G1 X129.609 Y149.5 F10800
M204 S800
G1 F1200
G1 X129.609 Y145.319 E.13107
G1 X129.19 Y145.319 E.01314
G1 X129.19 Y149.33 E.12575
G1 X128.771 Y149.33 E.01314
G1 X128.771 Y145.319 E.12575
G1 X128.352 Y145.319 E.01314
G1 X128.352 Y149.33 E.12575
G1 X127.933 Y149.33 E.01314
G1 X127.933 Y145.319 E.12575
G1 X127.514 Y145.319 E.01314
G1 X127.514 Y149.33 E.12575
G1 X127.095 Y149.33 E.01314
G1 X127.095 Y145.319 E.12575
G1 X126.676 Y145.319 E.01314
G1 X126.676 Y149.33 E.12575
G1 X126.257 Y149.33 E.01314
G1 X126.257 Y145.319 E.12575
G1 X125.838 Y145.319 E.01314
G1 X125.838 Y149.33 E.12575
G1 X125.419 Y149.33 E.01314
G1 X125.419 Y145.319 E.12575
G1 X125 Y145.319 E.01314
G1 X125 Y149.33 E.12575
G1 X124.581 Y149.33 E.01314
G1 X124.581 Y145.319 E.12575
G1 X124.162 Y145.319 E.01314
G1 X124.162 Y149.33 E.12575
G1 X123.743 Y149.33 E.01314
G1 X123.743 Y145.319 E.12575
G1 X123.324 Y145.319 E.01314
G1 X123.324 Y149.33 E.12575
G1 X122.905 Y149.33 E.01314
G1 X122.905 Y145.319 E.12575
G1 X122.486 Y145.319 E.01314
G1 X122.486 Y149.33 E.12575
G1 X122.067 Y149.33 E.01314
G1 X122.067 Y145.319 E.12575
G1 X121.648 Y145.319 E.01314
G1 X121.648 Y149.33 E.12575
G1 X121.229 Y149.33 E.01314
G1 X121.229 Y145.319 E.12575
G1 X120.81 Y145.319 E.01314
G1 X120.81 Y149.33 E.12575
G1 X120.391 Y149.33 E.01314
G1 X120.391 Y145.15 E.13107
M204 S1000
;WIPE_START
G1 F8640
G1 X120.391 Y149.264 E-.95
;WIPE_END
G1 E-.05 F2100
G1 Z.4 F720
G1 X169.669 Y126.491 F10800
G1 Z.2 F720
G1 E1 F2100
M204 S800
G1 F1200
G1 X142.48 Y126.491 E.8525
G1 X142.48 Y121.98 E.14145
G1 X165.199 Y121.98 E.71233
G1 X165.48 Y121.699 E.01247
G1 X165.48 Y99.733 E.68871
G1 X169.669 Y99.733 E.13136
G1 X169.669 Y126.435 E.8372
M204 S1000
G1 X168.993 Y126.322 F10800
M204 S800
G1 F1200
G1 X168.993 Y100.073 E.82301
G1 X168.574 Y100.073 E.01314
G1 X168.574 Y126.152 E.81769
G1 X168.155 Y126.152 E.01314
G1 X168.155 Y100.073 E.81769
G1 X167.736 Y100.073 E.01314
G1 X167.736 Y126.152 E.81769
G1 X167.317 Y126.152 E.01314
G1 X167.317 Y100.073 E.81769
G1 X166.898 Y100.073 E.01314
G1 X166.898 Y126.152 E.81769
G1 X166.479 Y126.152 E.01314
G1 X166.479 Y100.073 E.81769
G1 X166.06 Y100.073 E.01314
G1 X166.06 Y126.152 E.81769
G1 X165.641 Y126.152 E.01314
G1 X165.641 Y122.018 E.12962
G1 X165.339 Y122.319 E.01336
G1 X165.222 Y122.319 E.00369
G1 X165.222 Y126.152 E.12017
G1 X164.803 Y126.152 E.01314
G1 X164.803 Y122.319 E.12017
G1 X164.384 Y122.319 E.01314
G1 X164.384 Y126.152 E.12017
G1 X163.965 Y126.152 E.01314
G1 X163.965 Y122.319 E.12017
G1 X163.546 Y122.319 E.01314
G1 X163.546 Y126.152 E.12017
G1 X163.127 Y126.152 E.01314
G1 X163.127 Y122.319 E.12017
G1 X162.708 Y122.319 E.01314
G1 X162.708 Y126.152 E.12017
G1 X162.289 Y126.152 E.01314
G1 X162.289 Y122.319 E.12017
G1 X161.87 Y122.319 E.01314
G1 X161.87 Y126.152 E.12017
G1 X161.451 Y126.152 E.01314
G1 X161.451 Y122.319 E.12017
G1 X161.032 Y122.319 E.01314
G1 X161.032 Y126.152 E.12017
G1 X160.613 Y126.152 E.01314
G1 X160.613 Y122.319 E.12017
G1 X160.194 Y122.319 E.01314
G1 X160.194 Y126.152 E.12017
G1 X159.775 Y126.152 E.01314
G1 X159.775 Y122.319 E.12017
G1 X159.356 Y122.319 E.01314
G1 X159.356 Y126.152 E.12017
G1 X158.937 Y126.152 E.01314
G1 X158.937 Y122.319 E.12017
G1 X158.518 Y122.319 E.01314
G1 X158.518 Y126.152 E.12017
G1 X158.099 Y126.152 E.01314
G1 X158.099 Y122.319 E.12017
G1 X157.68 Y122.319 E.01314
G1 X157.68 Y126.152 E.12017
G1 X157.261 Y126.152 E.01314
G1 X157.261 Y122.319 E.12017
G1 X156.842 Y122.319 E.01314
G1 X156.842 Y126.152 E.12017
G1 X156.423 Y126.152 E.01314
G1 X156.423 Y122.319 E.12017
G1 X156.004 Y122.319 E.01314
G1 X156.004 Y126.152 E.12017
G1 X155.585 Y126.152 E.01314
G1 X155.585 Y122.319 E.12017
G1 X155.166 Y122.319 E.01314
G1 X155.166 Y126.152 E.12017
G1 X154.747 Y126.152 E.01314
G1 X154.747 Y122.319 E.12017
G1 X154.328 Y122.319 E.01314
G1 X154.328 Y126.152 E.12017
G1 X153.909 Y126.152 E.01314
G1 X153.909 Y122.319 E.12017
G1 X153.49 Y122.319 E.01314
G1 X153.49 Y126.152 E.12017
G1 X153.071 Y126.152 E.01314
G1 X153.071 Y122.319 E.12017
G1 X152.652 Y122.319 E.01314
G1 X152.652 Y126.152 E.12017
G1 X152.234 Y126.152 E.01314
G1 X152.234 Y122.319 E.12017
G1 X151.815 Y122.319 E.01314
G1 X151.815 Y126.152 E.12017
G1 X151.396 Y126.152 E.01314
G1 X151.396 Y122.319 E.12017
G1 X150.977 Y122.319 E.01314
G1 X150.977 Y126.152 E.12017
G1 X150.558 Y126.152 E.01314
G1 X150.558 Y122.319 E.12017
G1 X150.139 Y122.319 E.01314
G1 X150.139 Y126.152 E.12017
G1 X149.72 Y126.152 E.01314
G1 X149.72 Y122.319 E.12017
G1 X149.301 Y122.319 E.01314
G1 X149.301 Y126.152 E.12017
G1 X148.882 Y126.152 E.01314
G1 X148.882 Y122.319 E.12017
G1 X148.463 Y122.319 E.01314
G1 X148.463 Y126.152 E.12017
G1 X148.044 Y126.152 E.01314
G1 X148.044 Y122.319 E.12017
