; generated by PrusaSlicer 2.5.2+win64 on 2023-04-07 at 19:57:13 UTC


;
;
; 

; external perimeters extrusion width = 0.45mm
; perimeters extrusion width = 0.45mm
; infill extrusion width = 0.45mm
; solid infill extrusion width = 0.45mm
; top infill extrusion width = 0.40mm
; support material extrusion width = 0.35mm
; first layer extrusion width = 0.42mm

M73 P0 R311
M73 Q0 S316
M201 X1000 Y1000 Z200 E5000 ; sets maximum accelerations, mm/sec^2
M203 X200 Y200 Z12 E120 ; sets maximum feedrates, mm / sec
M204 P1250 R1250 T1250 ; sets acceleration (P, T) and retract acceleration (R), mm/sec^2
M205 X8.00 Y8.00 Z0.40 E4.50 ; sets the jerk limits, mm/sec
M205 S0 T0 ; sets the minimum extruding and travel feed rate, mm/sec
M107
;TYPE:Custom
M862.3 P "MK3S" ; printer model check
M862.1 P0.4 ; nozzle diameter check
M115 U3.12.1 ; tell printer latest fw version
G90 ; use absolute coordinates
M83 ; extruder relative mode
M104 S230 ; set extruder temp
M140 S85 ; set bed temp
M190 S85 ; wait for bed temp
M109 S230 ; wait for extruder temp
G28 W ; home all without mesh bed level
G80 ; mesh bed leveling

G1 Z0.2 F720
G1 Y-3 F1000 ; go outside print area
G92 E0
G1 X60 E9 F1000 ; intro line
G1 X100 E12.5 F1000 ; intro line

G92 E0
M221 S95

; Don't change E values below. Excessive value can damage the printer.

M907 E538 ; set extruder motor current
G21 ; set units to millimeters
G90 ; use absolute coordinates
M83 ; use relative distances for extrusion
M900 K0.08 ; Filament gcode LA 1.5
M900 K45 ; Filament gcode LA 1.0
M107
;LAYER_CHANGE
;Z:0.2
;HEIGHT:0.2
;BEFORE_LAYER_CHANGE
G92 E0.0
;0.2


M73 P0 R310
G1 E-1 F2100
G1 Z.2 F720
;AFTER_LAYER_CHANGE
;0.2
G1 Z.4
G1 X69.916 Y75.884 F10800
G1 Z.2 F720
G1 E1 F2100
M204 S800
;TYPE:Skirt/Brim
;WIDTH:0.42
G1 F1200
G1 X71 Y75.623 E.03495
G1 X179 Y75.623 E3.38626
G1 X180.307 Y76.015 E.04278
G1 X181.068 Y76.829 E.03495
G1 X206.505 Y121.74 E1.61834
G1 X206.814 Y122.911 E.03798
G1 X206.814 Y135.763 E.40294
G1 X206.422 Y137.07 E.04278
G1 X205.376 Y137.946 E.04278
G1 X204.437 Y138.14 E.03008
G1 X45.563 Y138.14 E4.98135
G1 X44.256 Y137.748 E.04278
G1 X43.38 Y136.702 E.04278
G1 X43.186 Y135.763 E.03008
G1 X43.186 Y122.911 E.40294
G1 X43.495 Y121.74 E.03798
G1 X68.932 Y76.829 E1.61834
G1 X69.873 Y75.926 E.0409
M204 S1000
; printing object 1XPSUBracket.stl id:0 copy 0
;WIPE_START
G1 F8640
G1 X71 Y75.623 E-.26942
G1 X73.947 Y75.623 E-.68058
;WIPE_END
G1 E-.05 F2100
G1 Z.4 F720
G1 X70.52 Y132.199 F10800
G1 Z.2 F720
G1 E1 F2100
M204 S800
;TYPE:Support material
G1 F1200
G1 X70.801 Y132.48 E.01247
G1 X74.639 Y132.48 E.12034
G1 X74.639 Y135.763 E.10292
G1 X45.563 Y135.763 E.91165
G1 X45.563 Y122.911 E.40294
G1 X70.52 Y122.911 E.78249
G1 X70.52 Y132.142 E.28942
M204 S1000
G1 X73.885 Y135.593 F10800
M204 S800
G1 F1200
G1 X73.885 Y132.819 E.08696
G1 X73.466 Y132.819 E.01314
G1 X73.466 Y135.423 E.08164
G1 X73.047 Y135.423 E.01314
G1 X73.047 Y132.819 E.08164
G1 X72.628 Y132.819 E.01314
G1 X72.628 Y135.423 E.08164
G1 X72.209 Y135.423 E.01314
G1 X72.209 Y132.819 E.08164
G1 X71.79 Y132.819 E.01314
G1 X71.79 Y135.423 E.08164
G1 X71.371 Y135.423 E.01314
G1 X71.371 Y132.819 E.08164
G1 X70.952 Y132.819 E.01314
G1 X70.952 Y135.423 E.08164
G1 X70.533 Y135.423 E.01314
G1 X70.533 Y132.692 E.08564
G1 X70.181 Y132.339 E.01562
G1 X70.181 Y123.251 E.28496
G1 X70.114 Y123.251 E.00209
G1 X70.114 Y135.423 E.38165
G1 X69.695 Y135.423 E.01314
G1 X69.695 Y123.251 E.38165
G1 X69.276 Y123.251 E.01314
G1 X69.276 Y135.423 E.38165
G1 X68.857 Y135.423 E.01314
G1 X68.857 Y123.251 E.38165
G1 X68.438 Y123.251 E.01314
G1 X68.438 Y135.423 E.38165
G1 X68.019 Y135.423 E.01314
G1 X68.019 Y123.251 E.38165
G1 X67.6 Y123.251 E.01314
M73 Q0 S315
G1 X67.6 Y135.423 E.38165
G1 X67.181 Y135.423 E.01314
G1 X67.181 Y123.251 E.38165
G1 X66.762 Y123.251 E.01314
G1 X66.762 Y135.423 E.38165
G1 X66.343 Y135.423 E.01314
G1 X66.343 Y123.251 E.38165
G1 X65.924 Y123.251 E.01314
G1 X65.924 Y135.423 E.38165
G1 X65.505 Y135.423 E.01314
G1 X65.505 Y123.251 E.38165
G1 X65.086 Y123.251 E.01314
G1 X65.086 Y135.423 E.38165
G1 X64.667 Y135.423 E.01314
G1 X64.667 Y123.251 E.38165
G1 X64.248 Y123.251 E.01314
G1 X64.248 Y135.423 E.38165
G1 X63.829 Y135.423 E.01314
G1 X63.829 Y123.251 E.38165
G1 X63.41 Y123.251 E.01314
G1 X63.41 Y135.423 E.38165
G1 X62.991 Y135.423 E.01314
G1 X62.991 Y123.251 E.38165
G1 X62.572 Y123.251 E.01314
G1 X62.572 Y135.423 E.38165
G1 X62.153 Y135.423 E.01314
G1 X62.153 Y123.251 E.38165
G1 X61.734 Y123.251 E.01314
G1 X61.734 Y135.423 E.38165
G1 X61.315 Y135.423 E.01314
G1 X61.315 Y123.251 E.38165
G1 X60.897 Y123.251 E.01314
G1 X60.897 Y135.423 E.38165
G1 X60.478 Y135.423 E.01314
G1 X60.478 Y123.251 E.38165
G1 X60.059 Y123.251 E.01314
G1 X60.059 Y135.423 E.38165
G1 X59.64 Y135.423 E.01314
G1 X59.64 Y123.251 E.38165
G1 X59.221 Y123.251 E.01314
G1 X59.221 Y135.423 E.38165
G1 X58.802 Y135.423 E.01314
G1 X58.802 Y123.251 E.38165
G1 X58.383 Y123.251 E.01314
G1 X58.383 Y135.423 E.38165
G1 X57.964 Y135.423 E.01314
G1 X57.964 Y123.251 E.38165
G1 X57.545 Y123.251 E.01314
G1 X57.545 Y135.423 E.38165
G1 X57.126 Y135.423 E.01314
G1 X57.126 Y123.251 E.38165
G1 X56.707 Y123.251 E.01314
G1 X56.707 Y135.423 E.38165
G1 X56.288 Y135.423 E.01314
G1 X56.288 Y123.251 E.38165
G1 X55.869 Y123.251 E.01314
G1 X55.869 Y135.423 E.38165
G1 X55.45 Y135.423 E.01314
G1 X55.45 Y123.251 E.38165
G1 X55.031 Y123.251 E.01314
G1 X55.031 Y135.423 E.38165
G1 X54.612 Y135.423 E.01314
G1 X54.612 Y123.251 E.38165
G1 X54.193 Y123.251 E.01314
G1 X54.193 Y135.423 E.38165
G1 X53.774 Y135.423 E.01314
G1 X53.774 Y123.251 E.38165
G1 X53.355 Y123.251 E.01314
G1 X53.355 Y135.423 E.38165
G1 X52.936 Y135.423 E.01314
G1 X52.936 Y123.251 E.38165
G1 X52.517 Y123.251 E.01314
G1 X52.517 Y135.423 E.38165
G1 X52.098 Y135.423 E.01314
G1 X52.098 Y123.251 E.38165
G1 X51.679 Y123.251 E.01314
M73 P0 R309
G1 X51.679 Y135.423 E.38165
G1 X51.26 Y135.423 E.01314
G1 X51.26 Y123.251 E.38165
G1 X50.841 Y123.251 E.01314
G1 X50.841 Y135.423 E.38165
G1 X50.422 Y135.423 E.01314
G1 X50.422 Y123.251 E.38165
G1 X50.003 Y123.251 E.01314
G1 X50.003 Y135.423 E.38165
G1 X49.584 Y135.423 E.01314
G1 X49.584 Y123.251 E.38165
G1 X49.165 Y123.251 E.01314
G1 X49.165 Y135.423 E.38165
G1 X48.746 Y135.423 E.01314
G1 X48.746 Y123.251 E.38165
G1 X48.327 Y123.251 E.01314
G1 X48.327 Y135.423 E.38165
G1 X47.908 Y135.423 E.01314
G1 X47.908 Y123.251 E.38165
G1 X47.489 Y123.251 E.01314
G1 X47.489 Y135.423 E.38165
G1 X47.07 Y135.423 E.01314
G1 X47.07 Y123.251 E.38165
G1 X46.651 Y123.251 E.01314
G1 X46.651 Y135.423 E.38165
G1 X46.232 Y135.423 E.01314
G1 X46.232 Y123.081 E.38697
M204 S1000
;WIPE_START
G1 F8640
G1 X46.232 Y127.195 E-.95
;WIPE_END
G1 E-.05 F2100
G1 Z.4 F720
G1 X204.437 Y135.763 F10800
G1 Z.2 F720
G1 E1 F2100
M204 S800
G1 F1200
G1 X175.361 Y135.763 E.91165
G1 X175.361 Y132.48 E.10292
G1 X179.199 Y132.48 E.12034
G1 X179.48 Y132.199 E.01247
G1 X179.48 Y122.911 E.2912
G1 X204.437 Y122.911 E.7825
G1 X204.437 Y135.706 E.40116
M204 S1000
G1 X203.768 Y135.593 F10800
M204 S800
G1 F1200
G1 X203.768 Y123.251 E.38697
G1 X203.349 Y123.251 E.01314
G1 X203.349 Y135.423 E.38165
G1 X202.93 Y135.423 E.01314
G1 X202.93 Y123.251 E.38165
G1 X202.511 Y123.251 E.01314
G1 X202.511 Y135.423 E.38165
G1 X202.092 Y135.423 E.01314
G1 X202.092 Y123.251 E.38165
G1 X201.673 Y123.251 E.01314
G1 X201.673 Y135.423 E.38165
G1 X201.254 Y135.423 E.01314
G1 X201.254 Y123.251 E.38165
G1 X200.835 Y123.251 E.01314
G1 X200.835 Y135.423 E.38165
G1 X200.416 Y135.423 E.01314
G1 X200.416 Y123.251 E.38165
G1 X199.997 Y123.251 E.01314
G1 X199.997 Y135.423 E.38165
G1 X199.578 Y135.423 E.01314
G1 X199.578 Y123.251 E.38165
G1 X199.159 Y123.251 E.01314
G1 X199.159 Y135.423 E.38165
G1 X198.74 Y135.423 E.01314
G1 X198.74 Y123.251 E.38165
G1 X198.321 Y123.251 E.01314
G1 X198.321 Y135.423 E.38165
G1 X197.902 Y135.423 E.01314
G1 X197.902 Y123.251 E.38165
G1 X197.483 Y123.251 E.01314
G1 X197.483 Y135.423 E.38165
G1 X197.064 Y135.423 E.01314
G1 X197.064 Y123.251 E.38165
G1 X196.645 Y123.251 E.01314
G1 X196.645 Y135.423 E.38165
G1 X196.226 Y135.423 E.01314
G1 X196.226 Y123.251 E.38165
G1 X195.807 Y123.251 E.01314
G1 X195.807 Y135.423 E.38165
G1 X195.388 Y135.423 E.01314
G1 X195.388 Y123.251 E.38165
G1 X194.969 Y123.251 E.01314
G1 X194.969 Y135.423 E.38165
G1 X194.55 Y135.423 E.01314
G1 X194.55 Y123.251 E.38165
G1 X194.131 Y123.251 E.01314
G1 X194.131 Y135.423 E.38165
G1 X193.712 Y135.423 E.01314
G1 X193.712 Y123.251 E.38165
G1 X193.293 Y123.251 E.01314
G1 X193.293 Y135.423 E.38165
G1 X192.874 Y135.423 E.01314
G1 X192.874 Y123.251 E.38165
G1 X192.455 Y123.251 E.01314
G1 X192.455 Y135.423 E.38165
G1 X192.036 Y135.423 E.01314
G1 X192.036 Y123.251 E.38165
G1 X191.617 Y123.251 E.01314
G1 X191.617 Y135.423 E.38165
G1 X191.198 Y135.423 E.01314
G1 X191.198 Y123.251 E.38165
G1 X190.779 Y123.251 E.01314
M73 Q0 S314
G1 X190.779 Y135.423 E.38165
G1 X190.36 Y135.423 E.01314
G1 X190.36 Y123.251 E.38165
G1 X189.941 Y123.251 E.01314
G1 X189.941 Y135.423 E.38165
G1 X189.522 Y135.423 E.01314
G1 X189.522 Y123.251 E.38165
G1 X189.103 Y123.251 E.01314
G1 X189.103 Y135.423 E.38165
G1 X188.685 Y135.423 E.01314
G1 X188.685 Y123.251 E.38165
G1 X188.266 Y123.251 E.01314
G1 X188.266 Y135.423 E.38165
G1 X187.847 Y135.423 E.01314
G1 X187.847 Y123.251 E.38165
G1 X187.428 Y123.251 E.01314
G1 X187.428 Y135.423 E.38165
G1 X187.009 Y135.423 E.01314
G1 X187.009 Y123.251 E.38165
G1 X186.59 Y123.251 E.01314
G1 X186.59 Y135.423 E.38165
G1 X186.171 Y135.423 E.01314
G1 X186.171 Y123.251 E.38165
G1 X185.752 Y123.251 E.01314
G1 X185.752 Y135.423 E.38165
G1 X185.333 Y135.423 E.01314
G1 X185.333 Y123.251 E.38165
G1 X184.914 Y123.251 E.01314
G1 X184.914 Y135.423 E.38165
G1 X184.495 Y135.423 E.01314
G1 X184.495 Y123.251 E.38165
G1 X184.076 Y123.251 E.01314
G1 X184.076 Y135.423 E.38165
G1 X183.657 Y135.423 E.01314
G1 X183.657 Y123.251 E.38165
G1 X183.238 Y123.251 E.01314
G1 X183.238 Y135.423 E.38165
G1 X182.819 Y135.423 E.01314
G1 X182.819 Y123.251 E.38165
G1 X182.4 Y123.251 E.01314
G1 X182.4 Y135.423 E.38165
G1 X181.981 Y135.423 E.01314
G1 X181.981 Y123.251 E.38165
G1 X181.562 Y123.251 E.01314
G1 X181.562 Y135.423 E.38165
G1 X181.143 Y135.423 E.01314
G1 X181.143 Y123.251 E.38165
G1 X180.724 Y123.251 E.01314
G1 X180.724 Y135.423 E.38165
G1 X180.305 Y135.423 E.01314
G1 X180.305 Y123.251 E.38165
G1 X179.886 Y123.251 E.01314
G1 X179.886 Y135.423 E.38165
G1 X179.467 Y135.423 E.01314
G1 X179.467 Y132.692 E.08564
G1 X179.339 Y132.819 E.00566
G1 X179.048 Y132.819 E.00914
G1 X179.048 Y135.423 E.08164
G1 X178.629 Y135.423 E.01314
G1 X178.629 Y132.819 E.08164
G1 X178.21 Y132.819 E.01314
G1 X178.21 Y135.423 E.08164
G1 X177.791 Y135.423 E.01314
G1 X177.791 Y132.819 E.08164
G1 X177.372 Y132.819 E.01314
G1 X177.372 Y135.423 E.08164
G1 X176.953 Y135.423 E.01314
G1 X176.953 Y132.819 E.08164
G1 X176.534 Y132.819 E.01314
G1 X176.534 Y135.423 E.08164
G1 X176.115 Y135.423 E.01314
G1 X176.115 Y132.65 E.08696
M204 S1000
;WIPE_START
G1 F8640
G1 X176.115 Y135.423 E-.6404
G1 X176.534 Y135.423 E-.09674
G1 X176.534 Y134.501 E-.21286
;WIPE_END
G1 E-.05 F2100
G1 Z.4 F720
G1 X178.213 Y131.213 F10800
G1 Z.2 F720
G1 E1 F2100
M204 S800
;TYPE:Perimeter
;WIDTH:0.419999
G1 F1200
G1 X71.787 Y131.213 E3.3369
G1 X71.787 Y78.787 E1.64377
G1 X178.213 Y78.787 E3.3369
M73 P0 R308
G1 X178.213 Y131.153 E1.64189
M204 S1000
G1 X178.59 Y131.59 F10800
M204 S800
;TYPE:External perimeter
G1 F1200
G1 X71.41 Y131.59 E3.36055
G1 X71.41 Y78.41 E1.66742
G1 X178.59 Y78.41 E3.36055
G1 X178.59 Y131.53 E1.66554
M204 S1000
G1 X178.195 Y131.529 F10800
;WIPE_START
G1 F8640
G1 X174.476 Y131.532 E-.95
;WIPE_END
G1 E-.05 F2100
G1 Z.4 F720
G1 X80.233 Y92.697 F10800
G1 Z.2 F720
G1 E1 F2100
M204 S800
;TYPE:Perimeter
G1 F1200
G1 X80.279 Y92.514 E.00591
G1 X80.437 Y92.328 E.00766
G1 X80.681 Y92.221 E.00834
G1 X80.779 Y92.213 E.00308
G1 X164.221 Y92.213 E2.61629
G1 X164.496 Y92.284 E.00889
G1 X164.688 Y92.458 E.00812
G1 X164.784 Y92.72 E.00876
G1 X164.787 Y92.779 E.00183
G1 X164.787 Y117.221 E.76639
G1 X164.716 Y117.496 E.00889
G1 X164.542 Y117.688 E.00812
G1 X164.28 Y117.784 E.00876
G1 X164.221 Y117.787 E.00183
G1 X80.779 Y117.787 E2.61629
G1 X80.497 Y117.712 E.00912
M73 Q0 S313
G1 X80.325 Y117.559 E.00724
G1 X80.221 Y117.315 E.00834
G1 X80.213 Y117.221 E.00293
G1 X80.219 Y92.755 E.76713
M204 S1000
G1 X80.59 Y92.779 F10800
M204 S800
;TYPE:External perimeter
G1 F1200
G1 X80.645 Y92.645 E.00452
G1 X80.779 Y92.59 E.00453
G1 X164.221 Y92.59 E2.61629
G1 X164.366 Y92.658 E.00501
G1 X164.41 Y92.779 E.00403
G1 X164.41 Y117.221 E.76639
G1 X164.342 Y117.366 E.00501
G1 X164.221 Y117.41 E.00403
G1 X80.779 Y117.41 E2.61629
G1 X80.645 Y117.355 E.00453
G1 X80.59 Y117.221 E.00452
G1 X80.59 Y92.839 E.76451
M204 S1000
G1 X80.488 Y92.677 F10800
;WIPE_START
G1 F8640
G1 X80.645 Y92.645 E-.04642
G1 X80.779 Y92.59 E-.03333
G1 X84.547 Y92.59 E-.87026
;WIPE_END
G1 E-.05 F2100
G1 Z.4 F720
G1 X177.337 Y78.9 F10800
G1 Z.2 F720
G1 E1 F2100
M204 S800
;TYPE:Solid infill
;WIDTH:0.420221
G1 F1200
G1 X177.93 Y79.493 E.02631
G1 X177.93 Y80.027 E.01674
G1 X176.973 Y79.07 E.04246
G1 X176.44 Y79.07 E.01674
G1 X177.93 Y80.56 E.06613
G1 X177.93 Y81.094 E.01674
G1 X175.906 Y79.07 E.08981
G1 X175.372 Y79.07 E.01674
G1 X177.93 Y81.628 E.11348
G1 X177.93 Y82.161 E.01674
G1 X174.839 Y79.07 E.13715
G1 X174.305 Y79.07 E.01674
G1 X177.93 Y82.695 E.16083
G1 X177.93 Y83.228 E.01674
G1 X173.772 Y79.07 E.1845
G1 X173.238 Y79.07 E.01674
G1 X177.93 Y83.762 E.20818
G1 X177.93 Y84.296 E.01674
G1 X172.704 Y79.07 E.23185
G1 X172.171 Y79.07 E.01674
G1 X177.93 Y84.829 E.25552
G1 X177.93 Y85.363 E.01674
G1 X171.637 Y79.07 E.2792
G1 X171.104 Y79.07 E.01674
G1 X177.93 Y85.896 E.30287
G1 X177.93 Y86.43 E.01674
G1 X170.57 Y79.07 E.32654
G1 X170.037 Y79.07 E.01674
G1 X177.93 Y86.963 E.35022
G1 X177.93 Y87.497 E.01674
G1 X169.503 Y79.07 E.37389
G1 X168.969 Y79.07 E.01674
G1 X177.93 Y88.031 E.39757
G1 X177.93 Y88.564 E.01674
G1 X168.436 Y79.07 E.42124
G1 X167.902 Y79.07 E.01674
G1 X177.93 Y89.098 E.44491
G1 X177.93 Y89.631 E.01674
G1 X167.369 Y79.07 E.46859
G1 X166.835 Y79.07 E.01674
G1 X177.93 Y90.165 E.49226
G1 X177.93 Y90.699 E.01674
G1 X166.301 Y79.07 E.51594
G1 X165.768 Y79.07 E.01674
M73 P0 R307
G1 X177.93 Y91.232 E.53961
G1 X177.93 Y91.766 E.01674
G1 X165.234 Y79.07 E.56328
G1 X164.701 Y79.07 E.01674
G1 X177.93 Y92.299 E.58696
G1 X177.93 Y92.833 E.01674
G1 X164.167 Y79.07 E.61063
G1 X163.634 Y79.07 E.01674
M73 P1 R307
G1 X177.93 Y93.366 E.63431
G1 X177.93 Y93.9 E.01674
M73 Q1 S313
G1 X163.1 Y79.07 E.65798
G1 X162.566 Y79.07 E.01674
G1 X177.93 Y94.434 E.68165
G1 X177.93 Y94.967 E.01674
G1 X162.033 Y79.07 E.70533
G1 X161.499 Y79.07 E.01674
G1 X177.93 Y95.501 E.729
G1 X177.93 Y96.034 E.01674
G1 X160.966 Y79.07 E.75267
G1 X160.432 Y79.07 E.01674
G1 X177.93 Y96.568 E.77635
G1 X177.93 Y97.102 E.01674
G1 X159.898 Y79.07 E.80002
G1 X159.365 Y79.07 E.01674
G1 X177.93 Y97.635 E.8237
G1 X177.93 Y98.169 E.01674
G1 X158.831 Y79.07 E.84737
G1 X158.298 Y79.07 E.01674
G1 X177.93 Y98.702 E.87104
G1 X177.93 Y99.236 E.01674
G1 X157.764 Y79.07 E.89472
G1 X157.231 Y79.07 E.01674
G1 X177.93 Y99.769 E.91839
G1 X177.93 Y100.303 E.01674
G1 X156.697 Y79.07 E.94207
G1 X156.163 Y79.07 E.01674
G1 X177.93 Y100.837 E.96574
G1 X177.93 Y101.37 E.01674
G1 X155.63 Y79.07 E.98941
G1 X155.096 Y79.07 E.01674
G1 X177.93 Y101.904 E1.01309
G1 X177.93 Y102.437 E.01674
G1 X154.563 Y79.07 E1.03676
G1 X154.029 Y79.07 E.01674
G1 X177.93 Y102.971 E1.06044
G1 X177.93 Y103.505 E.01674
G1 X153.495 Y79.07 E1.08411
G1 X152.962 Y79.07 E.01674
G1 X177.93 Y104.038 E1.10778
G1 X177.93 Y104.572 E.01674
M73 Q1 S312
G1 X152.428 Y79.07 E1.13146
G1 X151.895 Y79.07 E.01674
G1 X177.93 Y105.105 E1.15513
G1 X177.93 Y105.639 E.01674
G1 X165.07 Y92.779 E.57058
G1 X165.031 Y92.521 E.00817
G1 X164.923 Y92.3 E.00774
G1 X164.822 Y92.178 E.00495
G1 X164.7 Y92.077 E.00495
G1 X164.479 Y91.969 E.00774
G1 X164.221 Y91.93 E.00817
G1 X151.361 Y79.07 E.57058
G1 X150.828 Y79.07 E.01674
G1 X163.688 Y91.93 E.57058
G1 X163.154 Y91.93 E.01674
G1 X150.294 Y79.07 E.57058
G1 X149.76 Y79.07 E.01674
G1 X162.621 Y91.93 E.57058
