; generated by PrusaSlicer 2.5.2+win64 on 2023-04-07 at 20:03:11 UTC


;
;
; 

; external perimeters extrusion width = 0.45mm
; perimeters extrusion width = 0.45mm
; infill extrusion width = 0.45mm
; solid infill extrusion width = 0.45mm
; top infill extrusion width = 0.40mm
; first layer extrusion width = 0.42mm

; external perimeters extrusion width = 0.45mm
; perimeters extrusion width = 0.45mm
; infill extrusion width = 0.45mm
; solid infill extrusion width = 0.45mm
; top infill extrusion width = 0.40mm
; first layer extrusion width = 0.42mm

M73 P0 R187
M73 Q0 S189
M201 X1000 Y1000 Z200 E5000 ; sets maximum accelerations, mm/sec^2
M203 X200 Y200 Z12 E120 ; sets maximum feedrates, mm / sec
M204 P1250 R1250 T1250 ; sets acceleration (P, T) and retract acceleration (R), mm/sec^2
M205 X8.00 Y8.00 Z0.40 E4.50 ; sets the jerk limits, mm/sec
M205 S0 T0 ; sets the minimum extruding and travel feed rate, mm/sec
M107
;TYPE:Custom
M862.3 P "MK3S" ; printer model check
M862.1 P0.4 ; nozzle diameter check
M115 U3.12.1 ; tell printer latest fw version
G90 ; use absolute coordinates
M83 ; extruder relative mode
M104 S230 ; set extruder temp
M140 S85 ; set bed temp
M190 S85 ; wait for bed temp
M109 S230 ; wait for extruder temp
G28 W ; home all without mesh bed level
G80 ; mesh bed leveling

G1 Z0.2 F720
G1 Y-3 F1000 ; go outside print area
G92 E0
G1 X60 E9 F1000 ; intro line
G1 X100 E12.5 F1000 ; intro line

G92 E0
M221 S95

; Don't change E values below. Excessive value can damage the printer.

M907 E538 ; set extruder motor current
G21 ; set units to millimeters
G90 ; use absolute coordinates
M83 ; use relative distances for extrusion
M900 K0.08 ; Filament gcode LA 1.5
M900 K45 ; Filament gcode LA 1.0
M107
;LAYER_CHANGE
;Z:0.2
;HEIGHT:0.2
;BEFORE_LAYER_CHANGE
G92 E0.0
;0.2


G1 E-1 F2100
G1 Z.2 F720
;AFTER_LAYER_CHANGE
;0.2
G1 Z.4
G1 X65.85 Y77.758 F10800
G1 Z.2 F720
G1 E1 F2100
M204 S800
;TYPE:Skirt/Brim
;WIDTH:0.42
G1 F1200
G1 X67.377 Y77.204 E.05091
G1 X87.377 Y77.204 E.62709
G1 X88.06 Y77.304 E.02165
G1 X188.06 Y107.304 E3.27348
G1 X189.199 Y108.055 E.04278
G1 X189.754 Y109.581 E.05091
G1 X189.754 Y114.581 E.15677
G1 X189.653 Y115.264 E.02165
G1 X184.9 Y131.102 E.51848
G1 X184.15 Y132.242 E.04278
G1 X182.623 Y132.796 E.05091
G1 X162.623 Y132.796 E.62709
G1 X161.94 Y132.696 E.02165
G1 X61.94 Y102.696 E3.27348
G1 X60.801 Y101.945 E.04278
M73 Q0 S188
G1 X60.246 Y100.419 E.05091
G1 X60.246 Y95.419 E.15677
G1 X60.347 Y94.736 E.02165
G1 X65.1 Y78.898 E.51848
G1 X65.817 Y77.808 E.0409
M204 S1000
; printing object 2XBracketControlPannel.stl id:0 copy 0
;WIPE_START
M73 P0 R186
G1 F8640
G1 X67.377 Y77.204 E-.38611
G1 X69.819 Y77.204 E-.56389
;WIPE_END
G1 E-.05 F2100
G1 Z.4 F720
G1 X68.164 Y83.794 F10800
G1 Z.2 F720
G1 E1 F2100
M204 S800
;TYPE:Perimeter
;WIDTH:0.419999
G1 F1200
G1 X68.164 Y80.368 E.10741
G1 X87.234 Y80.368 E.59793
G1 X167.138 Y110.332 E2.67569
G1 X167.336 Y110.368 E.00633
G1 X186.589 Y110.368 E.60367
G1 X186.589 Y113.794 E.10741
G1 X167.519 Y113.794 E.59793
G1 X87.615 Y83.83 E2.67569
G1 X87.417 Y83.794 E.00633
G1 X68.224 Y83.794 E.60178
M204 S1000
G1 X67.787 Y84.171 F10800
M204 S800
;TYPE:External perimeter
G1 F1200
G1 X67.787 Y79.991 E.13106
G1 X87.302 Y79.991 E.6119
G1 X167.27 Y109.979 E2.67784
G1 X186.967 Y109.991 E.61756
G1 X186.967 Y114.171 E.13106
G1 X167.451 Y114.171 E.6119
G1 X87.483 Y84.183 E2.67784
G1 X67.847 Y84.171 E.61568
M204 S1000
G1 X68.019 Y83.846 F10800
;WIPE_START
G1 F8640
G1 X67.787 Y80.057 E-.95
;WIPE_END
G1 E-.05 F2100
G1 Z.4 F720
G1 X186.476 Y111.246 F10800
G1 Z.2 F720
G1 E1 F2100
M204 S800
;TYPE:Solid infill
;WIDTH:0.421179
G1 F1200
G1 X185.881 Y110.651 E.02647
G1 X185.346 Y110.651 E.01683
G1 X186.307 Y111.611 E.04272
G1 X186.307 Y112.146 E.01683
G1 X184.811 Y110.651 E.06651
G1 X184.276 Y110.651 E.01683
G1 X186.307 Y112.681 E.0903
G1 X186.307 Y113.216 E.01683
G1 X183.741 Y110.651 E.1141
G1 X183.207 Y110.651 E.01683
G1 X186.067 Y113.511 E.12722
G1 X185.532 Y113.511 E.01683
G1 X182.672 Y110.651 E.12722
G1 X182.137 Y110.651 E.01683
G1 X184.997 Y113.511 E.12722
G1 X184.462 Y113.511 E.01683
G1 X181.602 Y110.651 E.12722
G1 X181.067 Y110.651 E.01683
G1 X183.927 Y113.511 E.12722
G1 X183.392 Y113.511 E.01683
G1 X180.532 Y110.651 E.12722
G1 X179.997 Y110.651 E.01683
G1 X182.857 Y113.511 E.12722
G1 X182.322 Y113.511 E.01683
G1 X179.462 Y110.651 E.12722
G1 X178.927 Y110.651 E.01683
G1 X181.787 Y113.511 E.12722
G1 X181.252 Y113.511 E.01683
G1 X178.392 Y110.651 E.12722
G1 X177.857 Y110.651 E.01683
G1 X180.717 Y113.511 E.12722
G1 X180.182 Y113.511 E.01683
G1 X177.322 Y110.651 E.12722
G1 X176.787 Y110.651 E.01683
G1 X179.648 Y113.511 E.12722
G1 X179.113 Y113.511 E.01683
G1 X176.252 Y110.651 E.12722
G1 X175.717 Y110.651 E.01683
G1 X178.578 Y113.511 E.12722
G1 X178.043 Y113.511 E.01683
G1 X175.182 Y110.651 E.12722
G1 X174.648 Y110.651 E.01683
G1 X177.508 Y113.511 E.12722
G1 X176.973 Y113.511 E.01683
G1 X174.113 Y110.651 E.12722
G1 X173.578 Y110.651 E.01683
G1 X176.438 Y113.511 E.12722
G1 X175.903 Y113.511 E.01683
G1 X173.043 Y110.651 E.12722
G1 X172.508 Y110.651 E.01683
G1 X175.368 Y113.511 E.12722
G1 X174.833 Y113.511 E.01683
G1 X171.973 Y110.651 E.12722
G1 X171.438 Y110.651 E.01683
G1 X174.298 Y113.511 E.12722
G1 X173.763 Y113.511 E.01683
G1 X170.903 Y110.651 E.12722
G1 X170.368 Y110.651 E.01683
G1 X173.228 Y113.511 E.12722
G1 X172.693 Y113.511 E.01683
G1 X169.833 Y110.651 E.12722
G1 X169.298 Y110.651 E.01683
G1 X172.158 Y113.511 E.12722
G1 X171.623 Y113.511 E.01683
G1 X168.763 Y110.651 E.12722
G1 X168.228 Y110.651 E.01683
G1 X171.088 Y113.511 E.12722
G1 X170.554 Y113.511 E.01683
G1 X167.693 Y110.651 E.12722
G1 X167.328 Y110.651 E.01149
G1 X167.121 Y110.613 E.00662
G1 X170.019 Y113.511 E.12889
G1 X169.484 Y113.511 E.01683
G1 X166.288 Y110.315 E.14215
G1 X165.432 Y109.994 E.02875
G1 X168.949 Y113.511 E.15642
G1 X168.414 Y113.511 E.01683
G1 X164.576 Y109.673 E.1707
G1 X163.72 Y109.352 E.02875
G1 X167.879 Y113.511 E.18498
G1 X167.571 Y113.511 E.0097
G1 X167.208 Y113.375 E.01217
G1 X162.864 Y109.031 E.19321
G1 X162.008 Y108.71 E.02875
G1 X166.352 Y113.054 E.19322
G1 X165.497 Y112.734 E.02874
G1 X161.153 Y108.39 E.19323
G1 X160.297 Y108.069 E.02875
G1 X164.641 Y112.413 E.19324
G1 X163.785 Y112.092 E.02874
G1 X159.441 Y107.748 E.19325
G1 X158.585 Y107.427 E.02875
G1 X162.93 Y111.771 E.19325
G1 X162.074 Y111.451 E.02874
G1 X157.729 Y107.106 E.19326
G1 X156.873 Y106.785 E.02875
G1 X161.218 Y111.13 E.19327
G1 X160.362 Y110.809 E.02874
G1 X156.017 Y106.464 E.19328
G1 X155.161 Y106.143 E.02875
G1 X159.507 Y110.488 E.19329
G1 X158.651 Y110.168 E.02874
G1 X154.305 Y105.822 E.1933
G1 X153.449 Y105.501 E.02875
G1 X157.795 Y109.847 E.19331
G1 X156.94 Y109.526 E.02874
G1 X152.594 Y105.18 E.19332
G1 X151.738 Y104.859 E.02875
G1 X156.084 Y109.205 E.19333
G1 X155.228 Y108.885 E.02874
G1 X150.882 Y104.538 E.19334
G1 X150.026 Y104.217 E.02875
G1 X154.373 Y108.564 E.19335
G1 X153.517 Y108.243 E.02874
G1 X149.17 Y103.896 E.19336
G1 X148.314 Y103.575 E.02875
G1 X152.661 Y107.922 E.19337
G1 X151.806 Y107.602 E.02874
G1 X147.458 Y103.254 E.19337
G1 X146.602 Y102.933 E.02875
G1 X150.95 Y107.281 E.19338
G1 X150.094 Y106.96 E.02874
G1 X145.746 Y102.612 E.19339
G1 X144.89 Y102.291 E.02875
G1 X149.238 Y106.639 E.1934
G1 X148.383 Y106.318 E.02874
G1 X144.035 Y101.97 E.19341
G1 X143.179 Y101.649 E.02875
G1 X147.527 Y105.998 E.19342
G1 X146.671 Y105.677 E.02874
G1 X142.323 Y101.328 E.19343
G1 X141.467 Y101.007 E.02875
G1 X145.816 Y105.356 E.19344
G1 X144.96 Y105.035 E.02874
G1 X140.611 Y100.686 E.19345
G1 X139.755 Y100.365 E.02875
G1 X144.104 Y104.715 E.19346
G1 X143.249 Y104.394 E.02874
G1 X138.899 Y100.044 E.19347
G1 X138.043 Y99.724 E.02875
G1 X142.393 Y104.073 E.19348
G1 X141.537 Y103.752 E.02874
G1 X137.187 Y99.403 E.19348
G1 X136.331 Y99.082 E.02875
G1 X140.681 Y103.432 E.19349
G1 X139.826 Y103.111 E.02874
G1 X135.475 Y98.761 E.1935
G1 X134.62 Y98.44 E.02875
G1 X138.97 Y102.79 E.19351
G1 X138.114 Y102.469 E.02874
G1 X133.764 Y98.119 E.19352
G1 X132.908 Y97.798 E.02875
G1 X137.259 Y102.149 E.19353
G1 X136.403 Y101.828 E.02874
G1 X132.052 Y97.477 E.19354
G1 X131.196 Y97.156 E.02875
G1 X135.547 Y101.507 E.19355
G1 X134.692 Y101.186 E.02874
G1 X130.34 Y96.835 E.19356
G1 X129.484 Y96.514 E.02875
G1 X133.836 Y100.866 E.19357
G1 X132.98 Y100.545 E.02874
G1 X128.628 Y96.193 E.19358
G1 X127.772 Y95.872 E.02875
G1 X132.125 Y100.224 E.19359
G1 X131.269 Y99.903 E.02874
G1 X126.916 Y95.551 E.1936
G1 X126.061 Y95.23 E.02875
G1 X130.413 Y99.583 E.1936
G1 X129.557 Y99.262 E.02874
G1 X125.205 Y94.909 E.19361
G1 X124.349 Y94.588 E.02875
G1 X128.702 Y98.941 E.19362
G1 X127.846 Y98.62 E.02874
G1 X123.493 Y94.267 E.19363
G1 X122.637 Y93.946 E.02875
G1 X126.99 Y98.3 E.19364
G1 X126.135 Y97.979 E.02874
G1 X121.781 Y93.625 E.19365
G1 X120.925 Y93.304 E.02875
G1 X125.279 Y97.658 E.19366
G1 X124.423 Y97.337 E.02874
G1 X120.069 Y92.983 E.19367
G1 X119.213 Y92.662 E.02875
G1 X123.568 Y97.017 E.19368
G1 X122.712 Y96.696 E.02874
G1 X118.357 Y92.341 E.19369
G1 X117.502 Y92.02 E.02875
G1 X121.856 Y96.375 E.1937
G1 X121.001 Y96.054 E.02874
G1 X116.646 Y91.699 E.19371
G1 X115.79 Y91.378 E.02875
G1 X120.145 Y95.734 E.19372
G1 X119.289 Y95.413 E.02874
G1 X114.934 Y91.057 E.19372
G1 X114.078 Y90.737 E.02875
G1 X118.433 Y95.092 E.19373
G1 X117.578 Y94.771 E.02874
G1 X113.222 Y90.416 E.19374
G1 X112.366 Y90.095 E.02875
M73 Q0 S187
G1 X116.722 Y94.451 E.19375
G1 X115.866 Y94.13 E.02874
G1 X111.51 Y89.774 E.19376
G1 X110.654 Y89.453 E.02875
G1 X115.011 Y93.809 E.19377
G1 X114.155 Y93.488 E.02874
G1 X109.798 Y89.132 E.19378
M73 P0 R185
G1 X108.943 Y88.811 E.02875
G1 X113.299 Y93.167 E.19379
G1 X112.444 Y92.847 E.02874
G1 X108.087 Y88.49 E.1938
G1 X107.231 Y88.169 E.02875
G1 X111.588 Y92.526 E.19381
G1 X110.732 Y92.205 E.02874
G1 X106.375 Y87.848 E.19382
G1 X105.519 Y87.527 E.02875
G1 X109.876 Y91.884 E.19383
G1 X109.021 Y91.564 E.02874
G1 X104.663 Y87.206 E.19384
G1 X103.807 Y86.885 E.02875
G1 X108.165 Y91.243 E.19384
G1 X107.309 Y90.922 E.02874
G1 X102.951 Y86.564 E.19385
G1 X102.095 Y86.243 E.02875
G1 X106.454 Y90.601 E.19386
G1 X105.598 Y90.281 E.02874
G1 X101.239 Y85.922 E.19387
G1 X100.383 Y85.601 E.02875
G1 X104.742 Y89.96 E.19388
G1 X103.887 Y89.639 E.02874
G1 X99.528 Y85.28 E.19389
G1 X98.672 Y84.959 E.02875
G1 X103.031 Y89.318 E.1939
G1 X102.175 Y88.998 E.02874
G1 X97.816 Y84.638 E.19391
G1 X96.96 Y84.317 E.02875
G1 X101.32 Y88.677 E.19392
G1 X100.464 Y88.356 E.02874
G1 X96.104 Y83.996 E.19393
G1 X95.248 Y83.675 E.02875
G1 X99.608 Y88.035 E.19394
G1 X98.752 Y87.715 E.02874
G1 X94.392 Y83.354 E.19395
G1 X93.536 Y83.033 E.02875
G1 X97.897 Y87.394 E.19396
G1 X97.041 Y87.073 E.02874
G1 X92.68 Y82.712 E.19396
G1 X91.824 Y82.391 E.02875
G1 X96.185 Y86.752 E.19397
G1 X95.33 Y86.432 E.02874
G1 X90.969 Y82.071 E.19398
G1 X90.113 Y81.75 E.02875
G1 X94.474 Y86.111 E.19399
G1 X93.618 Y85.79 E.02874
G1 X89.257 Y81.429 E.194
G1 X88.401 Y81.108 E.02875
G1 X92.763 Y85.469 E.19401
G1 X91.907 Y85.149 E.02874
G1 X87.545 Y80.787 E.19402
G1 X87.182 Y80.651 E.01218
G1 X86.874 Y80.651 E.0097
G1 X91.051 Y84.828 E.1858
G1 X90.195 Y84.507 E.02874
G1 X86.339 Y80.651 E.17153
G1 X85.804 Y80.651 E.01683
G1 X89.34 Y84.186 E.15726
G1 X88.484 Y83.866 E.02874
G1 X85.269 Y80.651 E.143
G1 X84.734 Y80.651 E.01683
G1 X87.628 Y83.545 E.12873
G1 X87.421 Y83.511 E.00661
G1 X87.06 Y83.511 E.01137
G1 X84.199 Y80.651 E.12722
G1 X83.664 Y80.651 E.01683
G1 X86.525 Y83.511 E.12722
G1 X85.99 Y83.511 E.01683
G1 X83.13 Y80.651 E.12722
G1 X82.595 Y80.651 E.01683
G1 X85.455 Y83.511 E.12722
G1 X84.92 Y83.511 E.01683
G1 X82.06 Y80.651 E.12722
G1 X81.525 Y80.651 E.01683
G1 X84.385 Y83.511 E.12722
G1 X83.85 Y83.511 E.01683
G1 X80.99 Y80.651 E.12722
G1 X80.455 Y80.651 E.01683
G1 X83.315 Y83.511 E.12722
G1 X82.78 Y83.511 E.01683
G1 X79.92 Y80.651 E.12722
G1 X79.385 Y80.651 E.01683
G1 X82.245 Y83.511 E.12722
G1 X81.71 Y83.511 E.01683
G1 X78.85 Y80.651 E.12722
G1 X78.315 Y80.651 E.01683
G1 X81.175 Y83.511 E.12722
G1 X80.64 Y83.511 E.01683
G1 X77.78 Y80.651 E.12722
G1 X77.245 Y80.651 E.01683
G1 X80.105 Y83.511 E.12722
G1 X79.57 Y83.511 E.01683
G1 X76.71 Y80.651 E.12722
G1 X76.175 Y80.651 E.01683
G1 X79.036 Y83.511 E.12722
G1 X78.501 Y83.511 E.01683
G1 X75.64 Y80.651 E.12722
G1 X75.105 Y80.651 E.01683
G1 X77.966 Y83.511 E.12722
G1 X77.431 Y83.511 E.01683
G1 X74.57 Y80.651 E.12722
G1 X74.036 Y80.651 E.01683
G1 X76.896 Y83.511 E.12722
G1 X76.361 Y83.511 E.01683
G1 X73.501 Y80.651 E.12722
G1 X72.966 Y80.651 E.01683
G1 X75.826 Y83.511 E.12722
G1 X75.291 Y83.511 E.01683
G1 X72.431 Y80.651 E.12722
G1 X71.896 Y80.651 E.01683
G1 X74.756 Y83.511 E.12722
G1 X74.221 Y83.511 E.01683
G1 X71.361 Y80.651 E.12722
G1 X70.826 Y80.651 E.01683
G1 X73.686 Y83.511 E.12722
G1 X73.151 Y83.511 E.01683
G1 X70.291 Y80.651 E.12722
G1 X69.756 Y80.651 E.01683
G1 X72.616 Y83.511 E.12722
G1 X72.081 Y83.511 E.01683
G1 X69.221 Y80.651 E.12722
G1 X68.686 Y80.651 E.01683
G1 X71.546 Y83.511 E.12722
G1 X71.011 Y83.511 E.01683
G1 X68.446 Y80.946 E.1141
G1 X68.446 Y81.481 E.01683
G1 X70.477 Y83.511 E.0903
G1 X69.942 Y83.511 E.01683
G1 X68.446 Y82.016 E.06651
G1 X68.446 Y82.551 E.01683
G1 X69.407 Y83.511 E.04271
G1 X68.872 Y83.511 E.01683
G1 X68.277 Y82.916 E.02647
M204 S1000
; stop printing object 2XBracketControlPannel.stl id:0 copy 0
; printing object 2XBracketControlPannel.stl id:1 copy 0
;WIPE_START
G1 F8640
G1 X68.872 Y83.511 E-.1943
G1 X69.407 Y83.511 E-.12352
G1 X68.446 Y82.551 E-.31357
G1 X68.446 Y82.016 E-.12352
G1 X69.044 Y82.613 E-.19508
;WIPE_END
G1 E-.05 F2100
G1 Z.4 F720
G1 X63.411 Y99.632 F10800
G1 Z.2 F720
G1 E1 F2100
M204 S800
;TYPE:Perimeter
;WIDTH:0.419999
G1 F1200
G1 X63.411 Y96.206 E.10741
G1 X82.481 Y96.206 E.59793
G1 X162.385 Y126.17 E2.67569
G1 X162.583 Y126.206 E.00633
G1 X181.836 Y126.206 E.60367
G1 X181.836 Y129.632 E.10741
G1 X162.766 Y129.632 E.59793
G1 X82.862 Y99.668 E2.67569
G1 X82.664 Y99.632 E.00633
M73 P1 R185
M73 Q1 S187
G1 X63.471 Y99.632 E.60178
M204 S1000
G1 X63.033 Y100.009 F10800
M204 S800
;TYPE:External perimeter
G1 F1200
G1 X63.033 Y95.829 E.13106
G1 X82.549 Y95.829 E.6119
G1 X162.517 Y125.817 E2.67784
G1 X182.213 Y125.829 E.61756
G1 X182.213 Y130.009 E.13106
G1 X162.698 Y130.009 E.6119
G1 X82.73 Y100.021 E2.67784
G1 X63.093 Y100.009 E.61568
M204 S1000
G1 X63.266 Y99.684 F10800
;WIPE_START
G1 F8640
G1 X63.034 Y95.895 E-.95
;WIPE_END
G1 E-.05 F2100
G1 Z.4 F720
G1 X181.723 Y127.084 F10800
G1 Z.2 F720
G1 E1 F2100
M204 S800
;TYPE:Solid infill
;WIDTH:0.421179
G1 F1200
G1 X181.128 Y126.489 E.02647
G1 X180.593 Y126.489 E.01683
G1 X181.554 Y127.449 E.04272
G1 X181.554 Y127.984 E.01683
G1 X180.058 Y126.489 E.06651
G1 X179.523 Y126.489 E.01683
G1 X181.554 Y128.519 E.0903
G1 X181.554 Y129.054 E.01683
G1 X178.988 Y126.489 E.1141
G1 X178.454 Y126.489 E.01683
G1 X181.314 Y129.349 E.12722
G1 X180.779 Y129.349 E.01683
G1 X177.919 Y126.489 E.12722
G1 X177.384 Y126.489 E.01683
G1 X180.244 Y129.349 E.12722
G1 X179.709 Y129.349 E.01683
G1 X176.849 Y126.489 E.12722
G1 X176.314 Y126.489 E.01683
G1 X179.174 Y129.349 E.12722
G1 X178.639 Y129.349 E.01683
G1 X175.779 Y126.489 E.12722
G1 X175.244 Y126.489 E.01683
G1 X178.104 Y129.349 E.12722
G1 X177.569 Y129.349 E.01683
G1 X174.709 Y126.489 E.12722
G1 X174.174 Y126.489 E.01683
G1 X177.034 Y129.349 E.12722
G1 X176.499 Y129.349 E.01683
G1 X173.639 Y126.489 E.12722
G1 X173.104 Y126.489 E.01683
G1 X175.964 Y129.349 E.12722
G1 X175.429 Y129.349 E.01683
G1 X172.569 Y126.489 E.12722
G1 X172.034 Y126.489 E.01683
G1 X174.895 Y129.349 E.12722
G1 X174.36 Y129.349 E.01683
G1 X171.499 Y126.489 E.12722
G1 X170.964 Y126.489 E.01683
G1 X173.825 Y129.349 E.12722
G1 X173.29 Y129.349 E.01683
G1 X170.429 Y126.489 E.12722
G1 X169.895 Y126.489 E.01683
G1 X172.755 Y129.349 E.12722
G1 X172.22 Y129.349 E.01683
G1 X169.36 Y126.489 E.12722
G1 X168.825 Y126.489 E.01683
G1 X171.685 Y129.349 E.12722
G1 X171.15 Y129.349 E.01683
G1 X168.29 Y126.489 E.12722
G1 X167.755 Y126.489 E.01683
G1 X170.615 Y129.349 E.12722
G1 X170.08 Y129.349 E.01683
G1 X167.22 Y126.489 E.12722
G1 X166.685 Y126.489 E.01683
