; generated by PrusaSlicer 2.5.2+win64 on 2023-04-07 at 20:05:33 UTC


;
;
; 

; external perimeters extrusion width = 0.45mm
; perimeters extrusion width = 0.45mm
; infill extrusion width = 0.45mm
; solid infill extrusion width = 0.45mm
; top infill extrusion width = 0.40mm
; first layer extrusion width = 0.42mm

; external perimeters extrusion width = 0.45mm
; perimeters extrusion width = 0.45mm
; infill extrusion width = 0.45mm
; solid infill extrusion width = 0.45mm
; top infill extrusion width = 0.40mm
; first layer extrusion width = 0.42mm

; external perimeters extrusion width = 0.45mm
; perimeters extrusion width = 0.45mm
; infill extrusion width = 0.45mm
; solid infill extrusion width = 0.45mm
; top infill extrusion width = 0.40mm
; first layer extrusion width = 0.42mm

; external perimeters extrusion width = 0.45mm
; perimeters extrusion width = 0.45mm
; infill extrusion width = 0.45mm
; solid infill extrusion width = 0.45mm
; top infill extrusion width = 0.40mm
; first layer extrusion width = 0.42mm

M73 P0 R92
M73 Q0 S93
M201 X1000 Y1000 Z200 E5000 ; sets maximum accelerations, mm/sec^2
M203 X200 Y200 Z12 E120 ; sets maximum feedrates, mm / sec
M204 P1250 R1250 T1250 ; sets acceleration (P, T) and retract acceleration (R), mm/sec^2
M205 X8.00 Y8.00 Z0.40 E4.50 ; sets the jerk limits, mm/sec
M205 S0 T0 ; sets the minimum extruding and travel feed rate, mm/sec
M107
;TYPE:Custom
M862.3 P "MK3S" ; printer model check
M862.1 P0.4 ; nozzle diameter check
M115 U3.12.1 ; tell printer latest fw version
G90 ; use absolute coordinates
M83 ; extruder relative mode
M104 S230 ; set extruder temp
M140 S85 ; set bed temp
M190 S85 ; wait for bed temp
M109 S230 ; wait for extruder temp
G28 W ; home all without mesh bed level
G80 ; mesh bed leveling

G1 Z0.2 F720
G1 Y-3 F1000 ; go outside print area
G92 E0
G1 X60 E9 F1000 ; intro line
G1 X100 E12.5 F1000 ; intro line

G92 E0
M221 S95

; Don't change E values below. Excessive value can damage the printer.
M907 E430 ; set extruder motor current
G21 ; set units to millimeters
G90 ; use absolute coordinates
M83 ; use relative distances for extrusion
M900 K0.08 ; Filament gcode LA 1.5
M900 K45 ; Filament gcode LA 1.0
M107
;LAYER_CHANGE
;Z:0.2
;HEIGHT:0.2
;BEFORE_LAYER_CHANGE
G92 E0.0
;0.2


M73 Q0 S92
G1 E-1 F2100
G1 Z.2 F720
;AFTER_LAYER_CHANGE
;0.2
G1 Z.4
G1 X159.127 Y68.601 F10800
G1 Z.2 F720
G1 E1 F2100
M204 S800
;TYPE:Skirt/Brim
;WIDTH:0.42
G1 F1200
G1 X159.562 Y67.786 E.02896
G1 X160.481 Y66.516 E.04917
G1 X161.358 Y65.63 E.03907
G1 X162.346 Y64.871 E.03907
G1 X163.14 Y64.399 E.02896
G1 X164.279 Y63.893 E.03907
G1 X165.793 Y63.483 E.04917
G1 X167.095 Y63.345 E.04105
G1 X187.052 Y64.158 E.62628
G1 X188.521 Y64.38 E.04658
G1 X189.409 Y64.635 E.02896
G1 X190.558 Y65.117 E.03907
G1 X191.631 Y65.751 E.03907
G1 X192.608 Y66.525 E.03907
G1 X193.471 Y67.423 E.03907
G1 X194.205 Y68.431 E.03907
G1 X194.795 Y69.528 E.03907
G1 X195.231 Y70.695 E.03907
G1 X195.505 Y71.911 E.03907
G1 X195.617 Y73.314 E.04413
G1 X195.616 Y89.392 E.5041
G1 X193.785 Y145.469 E1.75921
G1 X193.351 Y146.763 E.04278
G1 X192.277 Y147.604 E.04278
G1 X191.409 Y147.769 E.0277
G1 X157.409 Y147.769 E1.06605
G1 X156.102 Y147.377 E.04278
G1 X155.226 Y146.331 E.04278
G1 X155.032 Y145.403 E.02972
G1 X154.912 Y121.544 E.74811
G1 X154.912 Y101.532 E.62746
G1 X158.341 Y71.22 E.95646
G1 X158.674 Y69.762 E.04691
G1 X159.105 Y68.657 E.03719
M204 S1000
; printing object 2XExtruderLock.stl id:1 copy 0
;WIPE_START
G1 F8640
G1 X159.562 Y67.786 E-.22707
G1 X160.481 Y66.516 E-.36207
G1 X161.358 Y65.63 E-.28774
G1 X161.609 Y65.437 E-.07312
;WIPE_END
G1 E-.05 F2100
G1 Z.4 F720
G1 X180.491 Y72.479 F10800
G1 Z.2 F720
G1 E1 F2100
M204 S800
;TYPE:Perimeter
;WIDTH:0.419999
G1 F1200
G1 X180.674 Y71.615 E.0277
G1 X180.958 Y70.849 E.0256
G1 X181.342 Y70.129 E.0256
G1 X181.821 Y69.467 E.0256
G1 X182.385 Y68.877 E.0256
G1 X183.024 Y68.368 E.0256
G1 X183.726 Y67.951 E.0256
G1 X184.478 Y67.632 E.0256
G1 X185.265 Y67.419 E.02559
G1 X186.085 Y67.314 E.0259
G1 X186.892 Y67.32 E.02532
G1 X187.701 Y67.437 E.0256
G1 X188.485 Y67.662 E.0256
G1 X189.233 Y67.991 E.0256
G1 X189.928 Y68.419 E.0256
G1 X190.56 Y68.937 E.0256
G1 X191.115 Y69.535 E.0256
G1 X191.584 Y70.204 E.0256
G1 X191.958 Y70.93 E.0256
G1 X192.23 Y71.7 E.0256
G1 X192.396 Y72.499 E.0256
G1 X192.453 Y73.341 E.02644
G1 X192.453 Y89.287 E.49999
G1 X192.396 Y90.129 E.02644
G1 X192.23 Y90.928 E.0256
G1 X191.958 Y91.698 E.0256
G1 X191.584 Y92.424 E.0256
G1 X191.115 Y93.093 E.0256
G1 X190.56 Y93.691 E.0256
G1 X189.928 Y94.209 E.0256
G1 X189.233 Y94.637 E.0256
G1 X188.485 Y94.966 E.0256
G1 X187.701 Y95.191 E.0256
G1 X186.893 Y95.308 E.02559
G1 X186.067 Y95.313 E.0259
G1 X185.266 Y95.209 E.02532
G1 X184.478 Y94.996 E.0256
G1 X183.726 Y94.677 E.0256
G1 X183.024 Y94.26 E.0256
G1 X182.524 Y93.862 E.02004
G1 X182.198 Y93.555 E.01403
G1 X181.728 Y93.032 E.02206
G1 X181.283 Y92.389 E.02451
G1 X180.884 Y91.581 E.02824
G1 X180.663 Y90.962 E.02062
G1 X180.491 Y90.149 E.02605
G1 X180.719 Y90.135 E.00716
G1 X181.852 Y89.922 E.03613
G1 X182.945 Y89.563 E.03608
G1 X183.953 Y89.084 E.03499
G1 X184.892 Y88.482 E.03499
G1 X185.703 Y87.811 E.03299
G1 X186.51 Y86.951 E.03699
G1 X187.162 Y86.045 E.03499
G1 X187.666 Y85.13 E.03277
G1 X188.102 Y84.026 E.03721
G1 X188.376 Y82.944 E.03499
G1 X188.511 Y81.837 E.03499
G1 X188.511 Y80.792 E.03277
G1 X188.362 Y79.614 E.03721
G1 X188.08 Y78.534 E.03499
G1 X187.666 Y77.498 E.03499
G1 X187.124 Y76.523 E.03499
G1 X186.51 Y75.677 E.03277
G1 X185.698 Y74.812 E.03721
G1 X184.835 Y74.104 E.03499
G1 X184.404 Y73.831 E.01601
G1 X183.808 Y73.471 E.02183
G1 X182.879 Y73.039 E.03213
G1 X181.816 Y72.698 E.03499
G1 X181.273 Y72.595 E.01733
G1 X180.551 Y72.488 E.0229
M204 S1000
G1 X180.084 Y72.831 F10800
M204 S800
;TYPE:External perimeter
G1 F1200
G1 X180.123 Y72.355 E.01498
G1 X180.312 Y71.508 E.02721
G1 X180.613 Y70.694 E.02721
G1 X181.022 Y69.928 E.02721
G1 X181.531 Y69.225 E.02721
G1 X182.13 Y68.598 E.02721
G1 X182.809 Y68.057 E.02721
G1 X183.555 Y67.613 E.02721
G1 X184.354 Y67.275 E.02721
G1 X185.192 Y67.048 E.02721
G1 X186.062 Y66.937 E.02751
G1 X186.921 Y66.943 E.02692
G1 X187.78 Y67.067 E.02721
G1 X188.614 Y67.306 E.02721
G1 X189.408 Y67.656 E.02721
G1 X190.148 Y68.111 E.02721
G1 X190.819 Y68.661 E.02721
G1 X191.409 Y69.298 E.02721
G1 X191.907 Y70.008 E.02721
G1 X192.305 Y70.78 E.02721
G1 X192.594 Y71.598 E.02721
G1 X192.77 Y72.448 E.02721
G1 X192.83 Y73.328 E.02765
G1 X192.83 Y89.3 E.50079
G1 X192.77 Y90.18 E.02765
G1 X192.594 Y91.03 E.02721
G1 X192.305 Y91.848 E.02721
G1 X191.907 Y92.62 E.02721
G1 X191.409 Y93.33 E.02721
G1 X190.819 Y93.967 E.02721
G1 X190.148 Y94.517 E.02721
G1 X189.408 Y94.972 E.02721
G1 X188.614 Y95.322 E.02721
G1 X187.78 Y95.561 E.02721
G1 X186.921 Y95.685 E.02721
G1 X186.044 Y95.69 E.02751
G1 X185.192 Y95.58 E.02692
G1 X184.354 Y95.353 E.02721
G1 X183.555 Y95.015 E.02721
G1 X182.809 Y94.571 E.02721
G1 X182.13 Y94.031 E.02721
G1 X181.525 Y93.395 E.02751
G1 X181.022 Y92.7 E.02692
G1 X180.613 Y91.934 E.02721
G1 X180.312 Y91.12 E.02721
M73 P0 R91
G1 X180.13 Y90.302 E.02628
G1 X180.084 Y89.797 E.01591
G1 X180.719 Y89.755 E.01996
G1 X181.745 Y89.56 E.03277
G1 X182.784 Y89.222 E.03425
G1 X183.751 Y88.766 E.03351
G1 X184.652 Y88.192 E.03351
G1 X185.27 Y87.68 E.02514
G1 X185.773 Y87.191 E.02202
G1 X186.205 Y86.729 E.01982
G1 X186.819 Y85.884 E.03277
G1 X187.345 Y84.927 E.03425
G1 X187.737 Y83.932 E.03351
G1 X188.002 Y82.897 E.03351
G1 X188.132 Y81.86 E.03277
G1 X188.134 Y80.792 E.03351
G1 X187.997 Y79.708 E.03425
G1 X187.73 Y78.673 E.03351
G1 X187.345 Y77.702 E.03277
G1 X186.819 Y76.744 E.03425
G1 X186.205 Y75.899 E.03277
G1 X185.459 Y75.104 E.03417
G1 X184.633 Y74.423 E.03358
G1 X184.202 Y74.149 E.01601
G1 X183.647 Y73.812 E.02034
G1 X182.762 Y73.397 E.03064
G1 X181.745 Y73.069 E.03351
G1 X180.696 Y72.87 E.03351
G1 X180.144 Y72.835 E.01734
M204 S1000
G1 X180.318 Y72.507 F10800
;WIPE_START
G1 F8640
G1 X180.123 Y72.355 E-.11089
G1 X180.312 Y71.508 E-.20041
G1 X180.613 Y70.694 E-.20041
G1 X181.022 Y69.928 E-.20041
G1 X181.531 Y69.225 E-.20041
G1 X181.643 Y69.108 E-.03748
;WIPE_END
G1 E-.05 F2100
G1 Z.4 F720
G1 X189.524 Y68.303 F10800
G1 Z.2 F720
G1 E1 F2100
M204 S800
;TYPE:Solid infill
;WIDTH:0.422234
G1 F1200
G1 X190.38 Y69.159 E.03818
G1 X190.894 Y69.714 E.02386
G1 X191.341 Y70.351 E.02454
G1 X191.667 Y70.982 E.02241
G1 X188.789 Y68.105 E.12834
G1 X188.389 Y67.928 E.0138
G1 X187.951 Y67.803 E.01438
G1 X191.966 Y71.818 E.17908
G1 X192.106 Y72.494 E.02178
G1 X187.272 Y67.661 E.21558
G1 X186.871 Y67.603 E.01279
G1 X186.677 Y67.601 E.00613
G1 X192.151 Y73.076 E.2442
G1 X192.17 Y73.631 E.01752
G1 X186.136 Y67.597 E.26914
G1 X185.656 Y67.654 E.01524
G1 X192.17 Y74.168 E.29053
G1 X192.17 Y74.704 E.01692
G1 X185.197 Y67.73 E.31105
G1 X184.775 Y67.845 E.01379
G1 X192.17 Y75.24 E.32987
G1 X192.17 Y75.777 E.01692
G1 X184.376 Y67.982 E.34766
G1 X183.999 Y68.142 E.01291
G1 X192.17 Y76.313 E.36447
G1 X192.17 Y76.85 E.01692
G1 X183.647 Y68.326 E.38017
G1 X183.311 Y68.527 E.01234
G1 X192.17 Y77.386 E.39518
G1 X192.17 Y77.923 E.01692
G1 X182.998 Y68.75 E.40913
G1 X182.699 Y68.988 E.01204
G1 X192.17 Y78.459 E.42245
G1 X192.17 Y78.995 E.01692
G1 X182.422 Y69.247 E.43481
G1 X182.16 Y69.522 E.01197
G1 X192.17 Y79.532 E.4465
G1 X192.17 Y80.068 E.01692
G1 X181.918 Y69.816 E.4573
G1 X181.692 Y70.127 E.01212
G1 X192.17 Y80.605 E.46735
G1 X192.17 Y81.141 E.01692
G1 X187.244 Y76.215 E.21975
G1 X186.701 Y75.462 E.02926
G1 X185.928 Y74.639 E.03559
G1 X184.991 Y73.869 E.03827
G1 X184.735 Y73.706 E.00956
G1 X181.487 Y70.458 E.14489
G1 X181.3 Y70.808 E.0125
G1 X183.514 Y73.021 E.09874
G1 X183.06 Y72.807 E.01583
G1 X182.617 Y72.661 E.01472
G1 X181.136 Y71.18 E.06603
G1 X180.991 Y71.572 E.01317
G1 X181.836 Y72.416 E.03765
G1 X181.177 Y72.294 E.02112
G1 X180.737 Y71.854 E.01965
M204 S1000
;WIPE_START
G1 F8640
G1 X181.177 Y72.294 E-.14383
G1 X181.836 Y72.416 E-.15461
G1 X180.991 Y71.572 E-.27567
G1 X181.136 Y71.18 E-.09639
G1 X181.992 Y72.036 E-.2795
;WIPE_END
G1 E-.05 F2100
G1 Z.4 F720
G1 X187.555 Y77.062 F10800
G1 Z.2 F720
G1 E1 F2100
M204 S800
G1 F1200
G1 X192.17 Y81.678 E.20585
G1 X192.17 Y82.214 E.01692
G1 X188.315 Y78.358 E.17197
G1 X188.52 Y79.1 E.02427
G1 X192.17 Y82.75 E.16282
G1 X192.17 Y83.287 E.01692
G1 X188.669 Y79.785 E.15618
G1 X188.75 Y80.403 E.01965
G1 X192.17 Y83.823 E.15255
G1 X192.17 Y84.36 E.01692
G1 X188.789 Y80.979 E.15079
G1 X188.792 Y81.518 E.01701
G1 X192.17 Y84.896 E.15067
G1 X192.17 Y85.433 E.01692
G1 X188.77 Y82.032 E.15166
G1 X188.71 Y82.509 E.01514
G1 X192.17 Y85.969 E.15435
G1 X192.17 Y86.505 E.01692
G1 X188.65 Y82.985 E.15703
G1 X188.55 Y83.421 E.01412
G1 X192.17 Y87.042 E.16149
G1 X192.17 Y87.578 E.01692
G1 X188.44 Y83.848 E.16637
G1 X188.314 Y84.259 E.01354
G1 X192.17 Y88.115 E.172
G1 X192.17 Y88.651 E.01692
G1 X188.163 Y84.644 E.17871
G1 X188.013 Y85.03 E.01307
G1 X192.17 Y89.188 E.18543
G1 X192.142 Y89.696 E.01605
G1 X187.838 Y85.392 E.19194
G1 X187.65 Y85.74 E.01248
G1 X192.095 Y90.185 E.19828
G1 X192.003 Y90.63 E.01432
G1 X187.461 Y86.088 E.2026
G1 X187.247 Y86.41 E.0122
G1 X191.887 Y91.05 E.20698
G1 X191.747 Y91.447 E.01326
G1 X187.022 Y86.722 E.21074
G1 X186.798 Y87.034 E.01212
G1 X191.579 Y91.816 E.21327
G1 X191.397 Y92.17 E.01256
G1 X186.548 Y87.321 E.21627
G1 X186.289 Y87.598 E.01197
G1 X191.188 Y92.497 E.21852
G1 X190.966 Y92.812 E.01215
G1 X186.029 Y87.874 E.22024
G1 X185.754 Y88.136 E.01197
G1 X190.72 Y93.102 E.22153
G1 X190.462 Y93.381 E.01197
G1 X185.46 Y88.378 E.22314
G1 X185.165 Y88.62 E.01202
G1 X190.181 Y93.636 E.22374
G1 X189.887 Y93.878 E.01202
G1 X184.855 Y88.846 E.22445
G1 X184.526 Y89.054 E.01226
G1 X189.57 Y94.098 E.22497
G1 X189.238 Y94.302 E.0123
G1 X184.198 Y89.262 E.2248
G1 X183.848 Y89.449 E.01251
G1 X188.882 Y94.482 E.22454
G1 X188.51 Y94.647 E.01283
G1 X183.484 Y89.621 E.22417
G1 X183.12 Y89.793 E.01271
G1 X188.107 Y94.781 E.22246
G1 X187.69 Y94.9 E.01368
G1 X182.723 Y89.933 E.22156
G1 X182.32 Y90.066 E.01339
G1 X187.228 Y94.974 E.21891
G1 X186.872 Y95.025 E.01135
G1 X186.744 Y95.026 E.00404
G1 X181.911 Y90.194 E.21555
G1 X181.46 Y90.279 E.01448
G1 X186.21 Y95.029 E.21189
G1 X186.084 Y95.03 E.00398
G1 X185.614 Y94.969 E.01496
G1 X181.009 Y90.364 E.2054
G1 X180.827 Y90.399 E.00583
G1 X180.919 Y90.811 E.01331
G1 X184.935 Y94.827 E.17914
G1 X184.57 Y94.728 E.01191
G1 X184.101 Y94.529 E.01608
G1 X181.205 Y91.633 E.12916
G1 X181.583 Y92.349 E.02552
G1 X182.034 Y92.972 E.02426
G1 X183.369 Y94.334 E.06015
M204 S1000
; stop printing object 2XExtruderLock.stl id:1 copy 0
; printing object 2XExtruderLock.stl id:0 copy 0
;WIPE_START
G1 F8640
G1 X182.034 Y92.972 E-.44034
G1 X181.583 Y92.349 E-.17762
G1 X181.205 Y91.633 E-.18685
G1 X181.65 Y92.078 E-.1452
;WIPE_END
G1 E-.05 F2100
G1 Z.4 F720
G1 X161.477 Y71.674 F10800
G1 Z.2 F720
G1 E1 F2100
M204 S800
;TYPE:Perimeter
;WIDTH:0.419999
G1 F1200
G1 X161.66 Y70.81 E.0277
G1 X161.943 Y70.044 E.0256
G1 X162.328 Y69.324 E.0256
G1 X162.807 Y68.662 E.0256
G1 X163.371 Y68.072 E.0256
G1 X164.01 Y67.563 E.0256
G1 X164.711 Y67.146 E.0256
G1 X165.463 Y66.828 E.0256
G1 X166.251 Y66.614 E.02559
G1 X167.07 Y66.509 E.0259
G1 X167.878 Y66.515 E.02532
G1 X168.686 Y66.632 E.0256
G1 X169.471 Y66.857 E.0256
G1 X170.218 Y67.186 E.0256
G1 X170.914 Y67.614 E.0256
G1 X171.545 Y68.132 E.0256
G1 X172.101 Y68.731 E.0256
G1 X172.57 Y69.399 E.0256
G1 X172.828 Y69.9 E.01767
G1 X173.028 Y70.364 E.01582
M73 P1 R91
G1 X173.266 Y71.138 E.02541
G1 X173.398 Y71.936 E.02536
G1 X173.438 Y72.651 E.02246
G1 X173.438 Y88.483 E.49638
M73 Q1 S92
G1 X173.381 Y89.324 E.02644
G1 X173.216 Y90.124 E.0256
G1 X172.944 Y90.894 E.0256
G1 X172.57 Y91.619 E.0256
G1 X172.101 Y92.288 E.0256
G1 X171.545 Y92.887 E.0256
G1 X170.914 Y93.405 E.0256
G1 X170.218 Y93.832 E.0256
G1 X169.471 Y94.162 E.0256
G1 X168.686 Y94.387 E.0256
G1 X167.878 Y94.503 E.02559
G1 X167.052 Y94.508 E.0259
G1 X166.252 Y94.405 E.02532
G1 X165.463 Y94.191 E.0256
G1 X164.711 Y93.873 E.0256
G1 X164.01 Y93.455 E.0256
G1 X163.509 Y93.057 E.02004
G1 X163.184 Y92.75 E.01403
G1 X162.713 Y92.227 E.02206
G1 X162.269 Y91.584 E.02451
G1 X161.87 Y90.776 E.02824
G1 X161.648 Y90.157 E.02062
G1 X161.477 Y89.344 E.02605
G1 X161.705 Y89.33 E.00716
G1 X162.837 Y89.117 E.03613
G1 X163.93 Y88.758 E.03608
G1 X164.938 Y88.279 E.03499
G1 X165.878 Y87.677 E.03499
G1 X166.689 Y87.007 E.03299
G1 X167.496 Y86.146 E.03699
G1 X168.148 Y85.241 E.03499
G1 X168.651 Y84.325 E.03277
G1 X169.088 Y83.221 E.03721
G1 X169.361 Y82.14 E.03499
G1 X169.497 Y81.032 E.03499
G1 X169.497 Y79.987 E.03277
G1 X169.348 Y78.809 E.03721
G1 X169.066 Y77.73 E.03499
G1 X168.651 Y76.694 E.03499
G1 X168.11 Y75.718 E.03499
G1 X167.496 Y74.873 E.03277
G1 X166.683 Y74.007 E.03721
G1 X165.821 Y73.3 E.03499
G1 X165.389 Y73.026 E.01601
G1 X164.876 Y72.705 E.01898
G1 X163.864 Y72.234 E.03499
G1 X162.802 Y71.893 E.03499
G1 X162.259 Y71.79 E.01733
G1 X161.536 Y71.683 E.0229
M204 S1000
G1 X161.069 Y72.026 F10800
M204 S800
;TYPE:External perimeter
G1 F1200
G1 X161.109 Y71.55 E.01498
G1 X161.297 Y70.703 E.02721
G1 X161.598 Y69.889 E.02721
G1 X162.007 Y69.124 E.02721
G1 X162.516 Y68.421 E.02721
G1 X163.116 Y67.793 E.02721
G1 X163.795 Y67.252 E.02721
G1 X164.541 Y66.809 E.02721
G1 X165.34 Y66.47 E.02721
G1 X166.178 Y66.243 E.02721
G1 X167.048 Y66.132 E.02751
G1 X167.906 Y66.138 E.02692
G1 X168.765 Y66.262 E.02721
G1 X169.6 Y66.502 E.02721
G1 X170.394 Y66.852 E.02721
G1 X171.133 Y67.306 E.02721
G1 X171.804 Y67.857 E.02721
G1 X172.394 Y68.493 E.02721
G1 X172.893 Y69.204 E.02721
G1 X173.291 Y69.975 E.02721
G1 X173.58 Y70.793 E.02721
G1 X173.701 Y71.381 E.01882
G1 X173.774 Y71.911 E.01675
G1 X173.816 Y72.651 E.02326
G1 X173.816 Y88.495 E.49678
G1 X173.756 Y89.375 E.02765
M73 Q1 S91
G1 X173.58 Y90.225 E.02721
G1 X173.291 Y91.044 E.02721
G1 X172.893 Y91.815 E.02721
G1 X172.394 Y92.526 E.02721
G1 X171.804 Y93.162 E.02721
G1 X171.133 Y93.712 E.02721
G1 X170.394 Y94.167 E.02721
G1 X169.6 Y94.517 E.02721
G1 X168.765 Y94.756 E.02721
G1 X167.907 Y94.88 E.02721
G1 X167.029 Y94.885 E.02751
G1 X166.178 Y94.775 E.02692
G1 X165.34 Y94.548 E.02721
