; generated by PrusaSlicer 2.5.2+win64 on 2023-04-07 at 20:08:44 UTC


;
;
; 

; external perimeters extrusion width = 0.45mm
; perimeters extrusion width = 0.45mm
; infill extrusion width = 0.45mm
; solid infill extrusion width = 0.45mm
; top infill extrusion width = 0.40mm
; first layer extrusion width = 0.42mm

; external perimeters extrusion width = 0.45mm
; perimeters extrusion width = 0.45mm
; infill extrusion width = 0.45mm
; solid infill extrusion width = 0.45mm
; top infill extrusion width = 0.40mm
; first layer extrusion width = 0.42mm

M73 P0 R120
M73 Q0 S120
M201 X1000 Y1000 Z200 E5000 ; sets maximum accelerations, mm/sec^2
M203 X200 Y200 Z12 E120 ; sets maximum feedrates, mm / sec
M204 P1250 R1250 T1250 ; sets acceleration (P, T) and retract acceleration (R), mm/sec^2
M205 X8.00 Y8.00 Z0.40 E4.50 ; sets the jerk limits, mm/sec
M205 S0 T0 ; sets the minimum extruding and travel feed rate, mm/sec
M107
;TYPE:Custom
M862.3 P "MK3S" ; printer model check
M862.1 P0.4 ; nozzle diameter check
M115 U3.12.1 ; tell printer latest fw version
G90 ; use absolute coordinates
M83 ; extruder relative mode
M104 S230 ; set extruder temp
M140 S85 ; set bed temp
M190 S85 ; wait for bed temp
M109 S230 ; wait for extruder temp
G28 W ; home all without mesh bed level
G80 ; mesh bed leveling

G1 Z0.2 F720
G1 Y-3 F1000 ; go outside print area
G92 E0
G1 X60 E9 F1000 ; intro line
G1 X100 E12.5 F1000 ; intro line

G92 E0
M221 S95

; Don't change E values below. Excessive value can damage the printer.
M907 E430 ; set extruder motor current
G21 ; set units to millimeters
G90 ; use absolute coordinates
M83 ; use relative distances for extrusion
M900 K0.08 ; Filament gcode LA 1.5
M900 K45 ; Filament gcode LA 1.0
M107
;LAYER_CHANGE
;Z:0.2
;HEIGHT:0.2
;BEFORE_LAYER_CHANGE
G92 E0.0
;0.2


G1 E-1 F2100
G1 Z.2 F720
;AFTER_LAYER_CHANGE
;0.2
G1 Z.4
G1 X94.651 Y108.304 F10800
G1 Z.2 F720
M73 P0 R119
G1 E1 F2100
M204 S800
;TYPE:Skirt/Brim
;WIDTH:0.42
G1 F1200
G1 X112.848 Y96.565 E.67897
G1 X114.953 Y95.749 E.07078
G1 X116.75 Y95.455 E.05711
G1 X167.571 Y95.495 E1.59345
G1 X169.353 Y95.869 E.05711
G1 X171.036 Y96.565 E.0571
G1 X189.233 Y108.304 E.67897
G1 X190.118 Y109.343 E.04278
G1 X190.319 Y110.3 E.03067
G1 X190.319 Y135.3 E.78386
G1 X189.927 Y136.607 E.04278
G1 X189.233 Y137.295 E.03067
G1 X171.036 Y149.034 E.67897
G1 X168.931 Y149.85 E.07078
G1 X167.134 Y150.145 E.05711
G1 X116.313 Y150.104 E1.59345
G1 X114.531 Y149.73 E.05711
G1 X112.848 Y149.034 E.0571
G1 X94.651 Y137.295 E.67897
G1 X93.766 Y136.257 E.04278
G1 X93.565 Y135.3 E.03067
G1 X93.565 Y110.3 E.78386
G1 X93.956 Y108.993 E.04278
G1 X94.608 Y108.346 E.02878
M204 S1000
; printing object 2XRelayBracket.stl id:1 copy 0
;WIPE_START
G1 F8640
G1 X98.064 Y106.114 E-.95
;WIPE_END
G1 E-.05 F2100
G1 Z.4 F720
G1 X173.582 Y134.163 F10800
G1 Z.2 F720
G1 E1 F2100
M204 S800
;TYPE:Perimeter
;WIDTH:0.419999
G1 F1200
G1 X173.359 Y134.207 E.00714
G1 X173.076 Y134.39 E.01055
G1 X172.862 Y134.689 E.01152
G1 X172.778 Y135.078 E.0125
G1 X172.778 Y140.246 E.16203
G1 X172.665 Y141.463 E.03833
G1 X172.345 Y142.587 E.03663
G1 X171.825 Y143.632 E.03663
G1 X171.121 Y144.565 E.03663
G1 X170.257 Y145.352 E.03663
G1 X169.264 Y145.967 E.03663
G1 X168.175 Y146.389 E.03663
G1 X167.026 Y146.603 E.03663
G1 X165.858 Y146.603 E.03663
G1 X164.709 Y146.389 E.03663
G1 X163.62 Y145.967 E.03663
G1 X162.627 Y145.352 E.03663
G1 X161.763 Y144.565 E.03663
G1 X161.059 Y143.632 E.03663
G1 X160.539 Y142.587 E.03663
G1 X160.219 Y141.463 E.03663
G1 X160.106 Y140.246 E.03833
G1 X160.106 Y135.078 E.16203
G1 X160.022 Y134.689 E.0125
G1 X159.828 Y134.41 E.01063
G1 X159.525 Y134.207 E.01144
G1 X159.163 Y134.135 E.01155
G1 X146.106 Y134.135 E.4094
G1 X146.106 Y111.464 E.71085
G1 X159.163 Y111.464 E.4094
G1 X159.525 Y111.392 E.01155
G1 X159.808 Y111.209 E.01055
G1 X160.022 Y110.911 E.01152
G1 X160.106 Y110.521 E.0125
G1 X160.106 Y105.353 E.16203
G1 X160.219 Y104.136 E.03833
G1 X160.539 Y103.013 E.03663
G1 X161.059 Y101.967 E.03661
G1 X161.77 Y101.029 E.03691
G1 X162.627 Y100.247 E.03636
G1 X163.62 Y99.632 E.03663
G1 X164.709 Y99.21 E.03663
G1 X165.857 Y98.996 E.03661
G1 X167.035 Y98.997 E.03691
G1 X168.175 Y99.21 E.03636
G1 X169.264 Y99.632 E.03663
G1 X170.257 Y100.247 E.03663
G1 X171.121 Y101.035 E.03663
G1 X171.825 Y101.967 E.03663
G1 X172.345 Y103.013 E.03663
G1 X172.665 Y104.136 E.03663
G1 X172.778 Y105.353 E.03833
G1 X172.778 Y110.521 E.16203
G1 X172.862 Y110.911 E.0125
G1 X173.056 Y111.189 E.01063
G1 X173.359 Y111.392 E.01144
G1 X173.721 Y111.464 E.01155
G1 X186.778 Y111.464 E.4094
G1 X186.778 Y134.135 E.71085
G1 X173.721 Y134.135 E.4094
G1 X173.641 Y134.151 E.00253
M204 S1000
G1 X173.624 Y134.534 F10800
M204 S800
G1 F1200
G1 X173.419 Y134.6 E.00676
G1 X173.227 Y134.802 E.00874
G1 X173.155 Y135.078 E.00895
G1 X173.155 Y140.263 E.16257
G1 X173.037 Y141.532 E.03997
G1 X172.698 Y142.723 E.03882
G1 X172.147 Y143.832 E.03882
G1 X171.4 Y144.82 E.03882
G1 X170.485 Y145.654 E.03882
G1 X169.433 Y146.306 E.03882
G1 X168.278 Y146.753 E.03882
G1 X167.061 Y146.981 E.03882
G1 X165.823 Y146.981 E.03882
G1 X164.606 Y146.753 E.03882
G1 X163.451 Y146.306 E.03882
G1 X162.399 Y145.654 E.03882
G1 X161.484 Y144.82 E.03882
G1 X160.737 Y143.832 E.03882
G1 X160.186 Y142.723 E.03882
G1 X159.847 Y141.532 E.03882
G1 X159.729 Y140.263 E.03997
G1 X159.728 Y135.042 E.1637
G1 X159.637 Y134.768 E.00906
G1 X159.43 Y134.579 E.00879
G1 X159.163 Y134.513 E.0086
G1 X145.729 Y134.513 E.42122
G1 X145.729 Y111.087 E.7345
G1 X159.163 Y111.087 E.42122
G1 X159.465 Y111 E.00984
G1 X159.657 Y110.797 E.00874
G1 X159.729 Y110.521 E.00895
G1 X159.729 Y105.336 E.16257
G1 X159.847 Y104.067 E.03997
G1 X160.186 Y102.876 E.03882
G1 X160.737 Y101.768 E.03881
G1 X161.49 Y100.774 E.0391
G1 X162.399 Y99.945 E.03855
G1 X163.451 Y99.293 E.03882
G1 X164.606 Y98.846 E.03882
G1 X165.823 Y98.619 E.03881
G1 X167.07 Y98.62 E.0391
G1 X168.278 Y98.846 E.03855
G1 X169.433 Y99.293 E.03882
G1 X170.485 Y99.945 E.03882
G1 X171.4 Y100.779 E.03882
G1 X172.147 Y101.767 E.03882
G1 X172.698 Y102.876 E.03882
G1 X173.037 Y104.067 E.03882
G1 X173.155 Y105.336 E.03997
G1 X173.156 Y110.557 E.1637
G1 X173.247 Y110.831 E.00906
G1 X173.454 Y111.02 E.00879
G1 X173.721 Y111.087 E.0086
G1 X187.155 Y111.087 E.42122
G1 X187.155 Y134.513 E.7345
G1 X173.681 Y134.515 E.42245
M204 S1000
G1 X173.721 Y134.89 F10800
M204 S800
;TYPE:External perimeter
G1 F1200
G1 X173.602 Y134.932 E.00394
G1 X173.532 Y135.078 E.00509
G1 X173.532 Y140.281 E.16312
G1 X173.41 Y141.602 E.04161
G1 X173.052 Y142.86 E.04101
G1 X172.469 Y144.031 E.04101
G1 X171.68 Y145.075 E.04101
G1 X170.714 Y145.956 E.04101
G1 X169.601 Y146.645 E.04101
G1 X168.382 Y147.117 E.04101
G1 X167.096 Y147.358 E.04101
G1 X165.788 Y147.358 E.04101
G1 X164.502 Y147.117 E.04101
G1 X163.282 Y146.645 E.04101
G1 X162.17 Y145.956 E.04101
G1 X161.204 Y145.075 E.04101
G1 X160.415 Y144.031 E.04101
G1 X159.832 Y142.86 E.04101
G1 X159.474 Y141.602 E.04101
G1 X159.352 Y140.281 E.04161
G1 X159.352 Y135.078 E.16312
G1 X159.301 Y134.949 E.00435
G1 X159.163 Y134.89 E.0047
G1 X145.352 Y134.89 E.43305
G1 X145.352 Y110.71 E.75815
G1 X159.163 Y110.71 E.43305
G1 X159.282 Y110.668 E.00394
G1 X159.352 Y110.521 E.00509
G1 X159.352 Y105.319 E.16312
G1 X159.474 Y103.997 E.04161
G1 X159.832 Y102.739 E.04101
G1 X160.415 Y101.568 E.04101
G1 X161.21 Y100.518 E.04129
G1 X162.17 Y99.643 E.04073
G1 X163.282 Y98.954 E.04101
G1 X164.502 Y98.482 E.04101
G1 X165.788 Y98.242 E.04101
G1 X167.105 Y98.243 E.04129
G1 X168.382 Y98.482 E.04073
G1 X169.601 Y98.954 E.04101
G1 X170.714 Y99.643 E.04101
G1 X171.68 Y100.524 E.04101
G1 X172.469 Y101.568 E.04101
G1 X173.052 Y102.739 E.04101
G1 X173.41 Y103.997 E.04101
G1 X173.532 Y105.319 E.04161
G1 X173.532 Y110.521 E.16312
G1 X173.583 Y110.65 E.00435
G1 X173.721 Y110.71 E.0047
G1 X187.532 Y110.71 E.43305
G1 X187.532 Y134.89 E.75815
G1 X173.781 Y134.89 E.43117
M204 S1000
G1 X173.608 Y134.833 F10800
;WIPE_START
G1 F8640
G1 X173.602 Y134.932 E-.04235
G1 X173.532 Y135.078 E-.03751
G1 X173.532 Y138.847 E-.87014
;WIPE_END
G1 E-.05 F2100
G1 Z.4 F720
G1 X165.342 Y101.813 F10800
G1 Z.2 F720
G1 E1 F2100
M204 S800
;TYPE:Perimeter
G1 F1200
G1 X165.453 Y101.778 E.00364
G1 X166.295 Y101.644 E.02672
G1 X166.7 Y101.662 E.01272
G1 X167.431 Y101.778 E.02322
G1 X167.712 Y101.869 E.00925
G1 X168.471 Y102.256 E.02672
G1 X168.71 Y102.429 E.00925
G1 X169.313 Y103.032 E.02672
G1 X169.491 Y103.281 E.00961
G1 X169.873 Y104.03 E.02635
G1 X169.964 Y104.31 E.00925
G1 X170.097 Y105.152 E.02672
G1 X170.097 Y105.447 E.00925
G1 X169.964 Y106.289 E.02672
G1 X169.873 Y106.569 E.00925
G1 X169.486 Y107.329 E.02672
G1 X169.313 Y107.567 E.00925
G1 X168.71 Y108.17 E.02672
G1 X168.471 Y108.344 E.00925
G1 X167.712 Y108.73 E.02672
G1 X167.431 Y108.822 E.00925
G1 X166.589 Y108.955 E.02672
G1 X166.295 Y108.955 E.00925
G1 X165.453 Y108.822 E.02672
G1 X165.172 Y108.73 E.00925
G1 X164.413 Y108.344 E.02672
G1 X164.174 Y108.17 E.00925
G1 X163.571 Y107.567 E.02672
G1 X163.398 Y107.329 E.00925
G1 X163.011 Y106.569 E.02672
G1 X162.92 Y106.289 E.00925
G1 X162.787 Y105.447 E.02672
G1 X162.787 Y105.152 E.00925
G1 X162.92 Y104.31 E.02672
G1 X163.011 Y104.03 E.00925
G1 X163.399 Y103.268 E.02682
G1 X163.571 Y103.032 E.00916
G1 X164.174 Y102.429 E.02672
G1 X164.413 Y102.256 E.00925
G1 X165.172 Y101.869 E.02672
G1 X165.285 Y101.832 E.00373
M204 S1000
G1 X165.426 Y102.179 F10800
M204 S800
G1 F1200
G1 X165.47 Y102.158 E.00152
G1 X166.249 Y102.033 E.02476
G1 X166.53 Y102.017 E.00883
G1 X167.372 Y102.15 E.02672
G1 X167.879 Y102.377 E.01742
G1 X168.341 Y102.615 E.01628
G1 X168.907 Y103.16 E.02464
G1 X169.155 Y103.452 E.01202
G1 X169.539 Y104.206 E.02652
G1 X169.725 Y105.211 E.03206
G1 X169.592 Y106.23 E.03222
G1 X169.15 Y107.158 E.03222
G1 X168.443 Y107.904 E.03222
G1 X167.541 Y108.394 E.03222
G1 X166.53 Y108.582 E.03222
G1 X166.354 Y108.582 E.00555
G1 X165.512 Y108.449 E.02672
G1 X164.584 Y108.008 E.03222
G1 X163.838 Y107.301 E.03222
G1 X163.347 Y106.398 E.03222
G1 X163.159 Y105.388 E.03222
G1 X163.247 Y104.654 E.02319
G1 X163.347 Y104.201 E.01454
G1 X163.735 Y103.44 E.02678
G1 X164.441 Y102.696 E.03216
G1 X165.005 Y102.377 E.0203
G1 X165.372 Y102.205 E.01272
M204 S1000
G1 X165.598 Y102.518 F10800
M204 S800
;TYPE:External perimeter
G1 F1200
G1 X166.412 Y102.389 E.02584
G1 X167.313 Y102.523 E.02855
G1 X168.129 Y102.928 E.02855
G1 X168.819 Y103.623 E.03073
G1 X169.202 Y104.374 E.02641
G1 X169.352 Y105.27 E.0285
G1 X169.219 Y106.171 E.02855
G1 X168.814 Y106.986 E.02855
G1 X168.177 Y107.637 E.02855
G1 X167.369 Y108.058 E.02855
G1 X166.471 Y108.21 E.02855
G1 X165.571 Y108.077 E.02855
G1 X164.755 Y107.672 E.02855
G1 X164.105 Y107.034 E.02855
G1 X163.683 Y106.227 E.02855
G1 X163.532 Y105.329 E.02855
G1 X163.683 Y104.372 E.03038
G1 X164.07 Y103.612 E.02674
G1 X164.707 Y102.962 E.02853
G1 X165.542 Y102.536 E.02938
M204 S1000
G1 X165.682 Y102.127 F10800
;WIPE_START
G1 F8640
G1 X166.412 Y102.389 E-.20387
G1 X167.313 Y102.523 E-.21027
G1 X168.129 Y102.928 E-.21027
G1 X168.819 Y103.623 E-.22631
G1 X169.015 Y104.006 E-.09929
;WIPE_END
G1 E-.05 F2100
G1 Z.4 F720
G1 X165.341 Y143.785 F10800
G1 Z.2 F720
G1 E1 F2100
M204 S800
;TYPE:Perimeter
G1 F1200
G1 X165.172 Y143.73 E.00558
G1 X164.413 Y143.344 E.02672
G1 X164.174 Y143.17 E.00925
G1 X163.571 Y142.567 E.02672
G1 X163.393 Y142.318 E.00961
G1 X163.011 Y141.569 E.02635
G1 X162.92 Y141.289 E.00925
G1 X162.787 Y140.447 E.02672
G1 X162.787 Y140.152 E.00925
G1 X162.92 Y139.31 E.02672
G1 X163.011 Y139.03 E.00925
G1 X163.398 Y138.27 E.02672
G1 X163.571 Y138.032 E.00925
G1 X164.174 Y137.429 E.02672
G1 X164.413 Y137.256 E.00925
G1 X165.172 Y136.869 E.02672
G1 X165.453 Y136.778 E.00925
G1 X166.295 Y136.644 E.02672
G1 X166.589 Y136.644 E.00925
G1 X167.431 Y136.778 E.02672
G1 X167.712 Y136.869 E.00925
G1 X168.471 Y137.256 E.02672
G1 X168.71 Y137.429 E.00925
G1 X169.313 Y138.032 E.02672
G1 X169.486 Y138.27 E.00925
G1 X169.873 Y139.03 E.02672
G1 X169.964 Y139.31 E.00925
G1 X170.097 Y140.152 E.02672
G1 X170.097 Y140.447 E.00925
G1 X169.964 Y141.289 E.02672
G1 X169.873 Y141.569 E.00925
G1 X169.486 Y142.329 E.02672
G1 X169.313 Y142.567 E.00925
G1 X168.71 Y143.17 E.02672
G1 X168.471 Y143.344 E.00925
G1 X167.712 Y143.73 E.02672
G1 X167.431 Y143.822 E.00925
G1 X166.692 Y143.939 E.02346
G1 X166.295 Y143.955 E.01248
G1 X165.398 Y143.804 E.02849
M204 S1000
G1 X165.434 Y143.414 F10800
M204 S800
G1 F1200
G1 X165.005 Y143.222 E.01474
G1 X164.543 Y142.984 E.01628
G1 X163.977 Y142.439 E.02464
G1 X163.729 Y142.147 E.01202
G1 X163.345 Y141.394 E.02652
G1 X163.159 Y140.388 E.03206
G1 X163.292 Y139.369 E.03222
G1 X163.734 Y138.442 E.03222
G1 X164.441 Y137.696 E.03222
G1 X165.343 Y137.205 E.03222
G1 X166.354 Y137.017 E.03222
G1 X167.372 Y137.15 E.03222
G1 X168.3 Y137.592 E.03222
G1 X169.046 Y138.298 E.03222
G1 X169.537 Y139.201 E.03222
G1 X169.725 Y140.211 E.03222
G1 X169.637 Y140.945 E.02319
G1 X169.537 Y141.398 E.01454
G1 X169.15 Y142.158 E.02672
G1 X168.443 Y142.904 E.03222
G1 X167.879 Y143.222 E.0203
G1 X167.414 Y143.441 E.01611
G1 X166.633 Y143.566 E.02481
G1 X166.354 Y143.582 E.00878
G1 X165.488 Y143.439 E.0275
M204 S1000
G1 X165.6 Y143.081 F10800
M204 S800
;TYPE:External perimeter
G1 F1200
G1 X164.755 Y142.672 E.02945
G1 X164.065 Y141.976 E.03073
G1 X163.682 Y141.225 E.02641
G1 X163.532 Y140.329 E.0285
G1 X163.665 Y139.428 E.02855
G1 X164.07 Y138.613 E.02855
G1 X164.707 Y137.962 E.02855
G1 X165.515 Y137.541 E.02855
G1 X166.412 Y137.389 E.02855
G1 X167.313 Y137.523 E.02855
G1 X168.129 Y137.928 E.02855
G1 X168.779 Y138.565 E.02855
G1 X169.201 Y139.372 E.02855
G1 X169.352 Y140.27 E.02855
G1 X169.201 Y141.227 E.03038
G1 X168.814 Y141.986 E.02672
G1 X168.177 Y142.637 E.02855
G1 X167.708 Y142.886 E.01663
G1 X167.313 Y143.077 E.01375
G1 X166.574 Y143.194 E.02346
G1 X166.31 Y143.194 E.00829
G1 X165.659 Y143.091 E.02065
M204 S1000
G1 X165.296 Y143.341 F10800
;WIPE_START
G1 F8640
G1 X164.755 Y142.672 E-.23015
G1 X164.065 Y141.976 E-.22631
G1 X163.682 Y141.225 E-.19447
G1 X163.532 Y140.329 E-.20988
G1 X163.588 Y139.947 E-.08918
;WIPE_END
G1 E-.05 F2100
G1 Z.4 F720
G1 X185.902 Y111.577 F10800
G1 Z.2 F720
G1 E1 F2100
M204 S800
;TYPE:Solid infill
;WIDTH:0.420241
G1 F1200
G1 X186.495 Y112.17 E.02632
G1 X186.495 Y112.704 E.01674
G1 X185.538 Y111.747 E.04246
G1 X185.004 Y111.747 E.01674
G1 X186.495 Y113.237 E.06614
G1 X186.495 Y113.771 E.01674
G1 X184.471 Y111.747 E.08982
G1 X183.937 Y111.747 E.01674
G1 X186.495 Y114.304 E.11349
G1 X186.495 Y114.838 E.01674
G1 X183.404 Y111.747 E.13717
G1 X182.87 Y111.747 E.01674
G1 X186.495 Y115.372 E.16085
G1 X186.495 Y115.905 E.01674
G1 X182.336 Y111.747 E.18452
G1 X181.803 Y111.747 E.01674
G1 X186.495 Y116.439 E.2082
G1 X186.495 Y116.972 E.01674
G1 X181.269 Y111.747 E.23187
G1 X180.735 Y111.747 E.01674
G1 X186.495 Y117.506 E.25555
G1 X186.495 Y118.04 E.01674
G1 X180.202 Y111.747 E.27923
G1 X179.668 Y111.747 E.01674
G1 X186.495 Y118.573 E.3029
G1 X186.495 Y119.107 E.01674
M73 Q0 S119
G1 X179.135 Y111.747 E.32658
G1 X178.601 Y111.747 E.01674
G1 X186.495 Y119.641 E.35026
G1 X186.495 Y120.174 E.01674
G1 X178.067 Y111.747 E.37393
G1 X177.534 Y111.747 E.01674
G1 X186.495 Y120.708 E.39761
G1 X186.495 Y121.241 E.01674
G1 X177 Y111.747 E.42129
G1 X176.467 Y111.747 E.01674
G1 X186.495 Y121.775 E.44496
G1 X186.495 Y122.309 E.01674
G1 X175.933 Y111.747 E.46864
G1 X175.399 Y111.747 E.01674
G1 X186.495 Y122.842 E.49232
G1 X186.495 Y123.376 E.01674
G1 X174.866 Y111.747 E.51599
G1 X174.332 Y111.747 E.01674
G1 X186.495 Y123.909 E.53967
G1 X186.495 Y124.443 E.01674
G1 X173.612 Y111.56 E.5716
M204 S1000
;WIPE_START
G1 F8640
M73 P0 R118
G1 X176.522 Y114.47 E-.95
;WIPE_END
G1 E-.05 F2100
G1 Z.4 F720
G1 X171.905 Y102.383 F10800
G1 Z.2 F720
G1 E1 F2100
M204 S800
G1 F1200
G1 X169.851 Y100.329 E.09113
G1 X169.137 Y99.887 E.02635
G1 X168.71 Y99.721 E.01437
G1 X172.057 Y103.068 E.1485
G1 X172.283 Y103.828 E.02488
G1 X167.903 Y99.447 E.19437
G1 X167.246 Y99.325 E.02095
G1 X172.414 Y104.492 E.22929
G1 X172.469 Y105.08 E.01853
G1 X166.668 Y99.28 E.25738
G1 X166.133 Y99.279 E.01676
G1 X172.495 Y105.641 E.28227
