; generated by PrusaSlicer 2.5.2+win64 on 2023-04-07 at 20:10:53 UTC


;
;
; 

; external perimeters extrusion width = 0.45mm
; perimeters extrusion width = 0.45mm
; infill extrusion width = 0.45mm
; solid infill extrusion width = 0.45mm
; top infill extrusion width = 0.40mm
; support material extrusion width = 0.35mm
; first layer extrusion width = 0.42mm

; external perimeters extrusion width = 0.45mm
; perimeters extrusion width = 0.45mm
; infill extrusion width = 0.45mm
; solid infill extrusion width = 0.45mm
; top infill extrusion width = 0.40mm
; support material extrusion width = 0.35mm
; first layer extrusion width = 0.42mm

M73 P0 R203
M73 Q0 S206
M201 X1000 Y1000 Z200 E5000 ; sets maximum accelerations, mm/sec^2
M203 X200 Y200 Z12 E120 ; sets maximum feedrates, mm / sec
M204 P1250 R1250 T1250 ; sets acceleration (P, T) and retract acceleration (R), mm/sec^2
M205 X8.00 Y8.00 Z0.40 E4.50 ; sets the jerk limits, mm/sec
M205 S0 T0 ; sets the minimum extruding and travel feed rate, mm/sec
M107
;TYPE:Custom
M862.3 P "MK3S" ; printer model check
M862.1 P0.4 ; nozzle diameter check
M115 U3.12.1 ; tell printer latest fw version
G90 ; use absolute coordinates
M83 ; extruder relative mode
M104 S230 ; set extruder temp
M140 S85 ; set bed temp
M190 S85 ; wait for bed temp
M109 S230 ; wait for extruder temp
G28 W ; home all without mesh bed level
G80 ; mesh bed leveling

G1 Z0.2 F720
G1 Y-3 F1000 ; go outside print area
G92 E0
G1 X60 E9 F1000 ; intro line
G1 X100 E12.5 F1000 ; intro line

G92 E0
M221 S95

; Don't change E values below. Excessive value can damage the printer.

M907 E538 ; set extruder motor current
G21 ; set units to millimeters
G90 ; use absolute coordinates
M83 ; use relative distances for extrusion
M900 K0.08 ; Filament gcode LA 1.5
M900 K45 ; Filament gcode LA 1.0
M107
;LAYER_CHANGE
;Z:0.2
;HEIGHT:0.2
;BEFORE_LAYER_CHANGE
G92 E0.0
;0.2


M73 Q0 S205
G1 E-1 F2100
G1 Z.2 F720
;AFTER_LAYER_CHANGE
;0.2
G1 Z.4
G1 X87.616 Y53.441 F10800
G1 Z.2 F720
G1 E1 F2100
M204 S800
;TYPE:Skirt/Brim
;WIDTH:0.42
G1 F1200
G1 X88.662 Y52.565 E.04278
G1 X89.602 Y52.371 E.03008
G1 X114.363 Y52.393 E.77637
G1 X151.539 Y57.463 E1.17642
G1 X152.6 Y57.818 E.03508
G1 X153.128 Y58.121 E.01908
G1 X153.795 Y58.655 E.0268
G1 X157.22 Y62.08 E.15185
G1 X157.743 Y62.728 E.02611
G1 X158.053 Y63.265 E.01946
G1 X158.414 Y64.347 E.03575
G1 X158.502 Y65.175 E.02611
G1 X158.502 Y144.825 E2.49739
G1 X158.414 Y145.653 E.02611
G1 X158.057 Y146.725 E.03542
G1 X157.821 Y147.161 E.01552
G1 X157.22 Y147.92 E.03038
G1 X153.562 Y151.55 E.16158
G1 X152.61 Y152.178 E.03575
G1 X151.539 Y152.537 E.03541
G1 X114.363 Y157.607 E1.17642
G1 X89.602 Y157.629 E.77637
G1 X88.295 Y157.237 E.04278
G1 X87.418 Y156.192 E.04278
G1 X87.225 Y155.252 E.03008
G1 X87.225 Y54.748 E3.15123
G1 X87.599 Y53.499 E.0409
M204 S1000
; printing object 2XStepperZHolder.stl id:0 copy 0
;WIPE_START
G1 F8640
G1 X88.662 Y52.565 E-.32671
G1 X89.602 Y52.371 E-.22155
G1 X91.342 Y52.373 E-.40174
;WIPE_END
G1 E-.05 F2100
G1 Z.4 F720
G1 X114.042 Y59.27 F10800
G1 Z.2 F720
G1 E1 F2100
M204 S800
;TYPE:Support material
G1 F1200
G1 X108.676 Y59.27 E.16824
G1 X108.395 Y59.551 E.01247
G1 X108.395 Y75.623 E.50391
G1 X108.341 Y75.676 E.00238
G1 X108.341 Y79.188 E.11012
G1 X89.602 Y79.188 E.58757
G1 X89.602 Y54.748 E.7663
G1 X114.042 Y54.748 E.7663
G1 X114.042 Y59.213 E.14001
M204 S1000
G1 X113.688 Y59.1 F10800
M204 S800
G1 F1200
G1 X113.688 Y55.087 E.12582
G1 X113.269 Y55.087 E.01314
G1 X113.269 Y58.931 E.1205
G1 X112.85 Y58.931 E.01314
G1 X112.85 Y55.087 E.1205
G1 X112.431 Y55.087 E.01314
G1 X112.431 Y58.931 E.1205
G1 X112.012 Y58.931 E.01314
G1 X112.012 Y55.087 E.1205
G1 X111.593 Y55.087 E.01314
G1 X111.593 Y58.931 E.1205
G1 X111.174 Y58.931 E.01314
G1 X111.174 Y55.087 E.1205
G1 X110.755 Y55.087 E.01314
G1 X110.755 Y58.931 E.1205
G1 X110.336 Y58.931 E.01314
G1 X110.336 Y55.087 E.1205
G1 X109.917 Y55.087 E.01314
G1 X109.917 Y58.931 E.1205
G1 X109.498 Y58.931 E.01314
G1 X109.498 Y55.087 E.1205
G1 X109.079 Y55.087 E.01314
G1 X109.079 Y58.931 E.1205
G1 X108.66 Y58.931 E.01314
G1 X108.66 Y55.087 E.1205
G1 X108.241 Y55.087 E.01314
G1 X108.241 Y59.225 E.12974
G1 X108.056 Y59.411 E.00822
G1 X108.056 Y75.482 E.50391
G1 X108.002 Y75.536 E.00238
G1 X108.002 Y78.849 E.10388
G1 X107.822 Y78.849 E.00565
G1 X107.822 Y55.087 E.74502
G1 X107.403 Y55.087 E.01314
G1 X107.403 Y78.849 E.74502
G1 X106.984 Y78.849 E.01314
G1 X106.984 Y55.087 E.74502
G1 X106.565 Y55.087 E.01314
M73 P0 R202
G1 X106.565 Y78.849 E.74502
G1 X106.146 Y78.849 E.01314
G1 X106.146 Y55.087 E.74502
G1 X105.727 Y55.087 E.01314
G1 X105.727 Y78.849 E.74502
G1 X105.308 Y78.849 E.01314
G1 X105.308 Y55.087 E.74502
G1 X104.889 Y55.087 E.01314
G1 X104.889 Y78.849 E.74502
G1 X104.47 Y78.849 E.01314
G1 X104.47 Y55.087 E.74502
G1 X104.051 Y55.087 E.01314
G1 X104.051 Y78.849 E.74502
G1 X103.632 Y78.849 E.01314
G1 X103.632 Y55.087 E.74502
G1 X103.213 Y55.087 E.01314
G1 X103.213 Y78.849 E.74502
G1 X102.794 Y78.849 E.01314
G1 X102.794 Y55.087 E.74502
G1 X102.375 Y55.087 E.01314
G1 X102.375 Y78.849 E.74502
G1 X101.956 Y78.849 E.01314
G1 X101.956 Y55.087 E.74502
G1 X101.537 Y55.087 E.01314
G1 X101.537 Y78.849 E.74502
G1 X101.118 Y78.849 E.01314
G1 X101.118 Y55.087 E.74502
G1 X100.699 Y55.087 E.01314
G1 X100.699 Y78.849 E.74502
G1 X100.28 Y78.849 E.01314
G1 X100.28 Y55.087 E.74502
G1 X99.861 Y55.087 E.01314
G1 X99.861 Y78.849 E.74502
G1 X99.442 Y78.849 E.01314
G1 X99.442 Y55.087 E.74502
G1 X99.023 Y55.087 E.01314
G1 X99.023 Y78.849 E.74502
G1 X98.604 Y78.849 E.01314
M73 Q0 S204
G1 X98.604 Y55.087 E.74502
G1 X98.185 Y55.087 E.01314
G1 X98.185 Y78.849 E.74502
G1 X97.766 Y78.849 E.01314
G1 X97.766 Y55.087 E.74502
G1 X97.348 Y55.087 E.01314
G1 X97.348 Y78.849 E.74502
G1 X96.929 Y78.849 E.01314
G1 X96.929 Y55.087 E.74502
G1 X96.51 Y55.087 E.01314
G1 X96.51 Y78.849 E.74502
G1 X96.091 Y78.849 E.01314
G1 X96.091 Y55.087 E.74502
G1 X95.672 Y55.087 E.01314
G1 X95.672 Y78.849 E.74502
G1 X95.253 Y78.849 E.01314
G1 X95.253 Y55.087 E.74502
G1 X94.834 Y55.087 E.01314
G1 X94.834 Y78.849 E.74502
G1 X94.415 Y78.849 E.01314
G1 X94.415 Y55.087 E.74502
G1 X93.996 Y55.087 E.01314
G1 X93.996 Y78.849 E.74502
G1 X93.577 Y78.849 E.01314
G1 X93.577 Y55.087 E.74502
G1 X93.158 Y55.087 E.01314
G1 X93.158 Y78.849 E.74502
G1 X92.739 Y78.849 E.01314
G1 X92.739 Y55.087 E.74502
G1 X92.32 Y55.087 E.01314
G1 X92.32 Y78.849 E.74502
G1 X91.901 Y78.849 E.01314
G1 X91.901 Y55.087 E.74502
G1 X91.482 Y55.087 E.01314
G1 X91.482 Y78.849 E.74502
G1 X91.063 Y78.849 E.01314
G1 X91.063 Y55.087 E.74502
G1 X90.644 Y55.087 E.01314
G1 X90.644 Y78.849 E.74502
G1 X90.225 Y78.849 E.01314
G1 X90.225 Y54.918 E.75034
M204 S1000
;WIPE_START
G1 F8640
G1 X90.225 Y59.032 E-.95
;WIPE_END
G1 E-.05 F2100
G1 Z.4 F720
G1 X108.341 Y86.074 F10800
G1 Z.2 F720
G1 E1 F2100
M204 S800
G1 F1200
G1 X108.395 Y86.127 E.00238
G1 X108.395 Y102.199 E.50391
G1 X108.676 Y102.48 E.01247
G1 X114.042 Y102.48 E.16824
G1 X114.042 Y107.002 E.14178
G1 X89.602 Y107.002 E.7663
G1 X89.602 Y82.562 E.7663
G1 X108.341 Y82.562 E.58757
G1 X108.341 Y86.017 E.10834
M204 S1000
;WIPE_START
G1 F8640
G1 X108.341 Y82.562 E-.79787
G1 X107.683 Y82.562 E-.15213
;WIPE_END
G1 E-.05 F2100
G1 Z.4 F720
G1 X113.688 Y106.832 F10800
G1 Z.2 F720
G1 E1 F2100
M204 S800
G1 F1200
G1 X113.688 Y102.819 E.12582
G1 X113.269 Y102.819 E.01314
G1 X113.269 Y106.663 E.1205
G1 X112.85 Y106.663 E.01314
G1 X112.85 Y102.819 E.1205
G1 X112.431 Y102.819 E.01314
G1 X112.431 Y106.663 E.1205
G1 X112.012 Y106.663 E.01314
G1 X112.012 Y102.819 E.1205
G1 X111.593 Y102.819 E.01314
G1 X111.593 Y106.663 E.1205
G1 X111.174 Y106.663 E.01314
G1 X111.174 Y102.819 E.1205
G1 X110.755 Y102.819 E.01314
G1 X110.755 Y106.663 E.1205
G1 X110.336 Y106.663 E.01314
G1 X110.336 Y102.819 E.1205
G1 X109.917 Y102.819 E.01314
G1 X109.917 Y106.663 E.1205
G1 X109.498 Y106.663 E.01314
G1 X109.498 Y102.819 E.1205
G1 X109.079 Y102.819 E.01314
G1 X109.079 Y106.663 E.1205
G1 X108.66 Y106.663 E.01314
G1 X108.66 Y102.819 E.1205
G1 X108.536 Y102.819 E.0039
G1 X108.241 Y102.525 E.01307
G1 X108.241 Y106.663 E.12974
G1 X107.822 Y106.663 E.01314
G1 X107.822 Y82.901 E.74502
G1 X107.403 Y82.901 E.01314
M73 P0 R201
G1 X107.403 Y106.663 E.74502
G1 X106.984 Y106.663 E.01314
G1 X106.984 Y82.901 E.74502
G1 X106.565 Y82.901 E.01314
G1 X106.565 Y106.663 E.74502
G1 X106.146 Y106.663 E.01314
G1 X106.146 Y82.901 E.74502
G1 X105.727 Y82.901 E.01314
G1 X105.727 Y106.663 E.74502
G1 X105.308 Y106.663 E.01314
G1 X105.308 Y82.901 E.74502
G1 X104.889 Y82.901 E.01314
G1 X104.889 Y106.663 E.74502
G1 X104.47 Y106.663 E.01314
G1 X104.47 Y82.901 E.74502
G1 X104.051 Y82.901 E.01314
G1 X104.051 Y106.663 E.74502
G1 X103.632 Y106.663 E.01314
G1 X103.632 Y82.901 E.74502
G1 X103.213 Y82.901 E.01314
G1 X103.213 Y106.663 E.74502
G1 X102.794 Y106.663 E.01314
G1 X102.794 Y82.901 E.74502
G1 X102.375 Y82.901 E.01314
G1 X102.375 Y106.663 E.74502
G1 X101.956 Y106.663 E.01314
G1 X101.956 Y82.901 E.74502
G1 X101.537 Y82.901 E.01314
G1 X101.537 Y106.663 E.74502
G1 X101.118 Y106.663 E.01314
G1 X101.118 Y82.901 E.74502
G1 X100.699 Y82.901 E.01314
G1 X100.699 Y106.663 E.74502
G1 X100.28 Y106.663 E.01314
G1 X100.28 Y82.901 E.74502
G1 X99.861 Y82.901 E.01314
G1 X99.861 Y106.663 E.74502
G1 X99.442 Y106.663 E.01314
G1 X99.442 Y82.901 E.74502
G1 X99.023 Y82.901 E.01314
M73 Q0 S203
G1 X99.023 Y106.663 E.74502
G1 X98.604 Y106.663 E.01314
M73 P1 R201
G1 X98.604 Y82.901 E.74502
G1 X98.185 Y82.901 E.01314
M73 Q1 S203
G1 X98.185 Y106.663 E.74502
G1 X97.766 Y106.663 E.01314
G1 X97.766 Y82.901 E.74502
G1 X97.348 Y82.901 E.01314
G1 X97.348 Y106.663 E.74502
G1 X96.929 Y106.663 E.01314
G1 X96.929 Y82.901 E.74502
G1 X96.51 Y82.901 E.01314
G1 X96.51 Y106.663 E.74502
G1 X96.091 Y106.663 E.01314
G1 X96.091 Y82.901 E.74502
G1 X95.672 Y82.901 E.01314
G1 X95.672 Y106.663 E.74502
G1 X95.253 Y106.663 E.01314
G1 X95.253 Y82.901 E.74502
G1 X94.834 Y82.901 E.01314
G1 X94.834 Y106.663 E.74502
G1 X94.415 Y106.663 E.01314
G1 X94.415 Y82.901 E.74502
G1 X93.996 Y82.901 E.01314
G1 X93.996 Y106.663 E.74502
G1 X93.577 Y106.663 E.01314
G1 X93.577 Y82.901 E.74502
G1 X93.158 Y82.901 E.01314
G1 X93.158 Y106.663 E.74502
G1 X92.739 Y106.663 E.01314
G1 X92.739 Y82.901 E.74502
G1 X92.32 Y82.901 E.01314
G1 X92.32 Y106.663 E.74502
G1 X91.901 Y106.663 E.01314
G1 X91.901 Y82.901 E.74502
G1 X91.482 Y82.901 E.01314
G1 X91.482 Y106.663 E.74502
G1 X91.063 Y106.663 E.01314
G1 X91.063 Y82.901 E.74502
G1 X90.644 Y82.901 E.01314
G1 X90.644 Y106.663 E.74502
G1 X90.225 Y106.663 E.01314
G1 X90.225 Y82.732 E.75034
M204 S1000
;WIPE_START
G1 F8640
G1 X90.225 Y86.846 E-.95
;WIPE_END
G1 E-.05 F2100
G1 Z.4 F720
G1 X109.662 Y101.213 F10800
G1 Z.2 F720
G1 E1 F2100
M204 S800
;TYPE:Perimeter
;WIDTH:0.419999
G1 F1200
G1 X109.662 Y85.63 E.48859
G1 X109.609 Y85.542 E.00321
G1 X109.609 Y76.208 E.29269
G1 X109.658 Y76.164 E.00208
G1 X109.662 Y76.096 E.00211
G1 X109.662 Y60.537 E.48785
G1 X150.182 Y60.537 E1.27048
G1 X150.877 Y60.567 E.02181
G1 X151.303 Y60.705 E.01404
G1 X151.595 Y60.929 E.0115
G1 X154.735 Y64.069 E.13925
G1 X155.089 Y64.467 E.0167
G1 X155.29 Y64.862 E.01391
G1 X155.338 Y65.294 E.01362
G1 X155.338 Y95.568 E.94921
G1 X155.307 Y96.755 E.03724
G1 X155.17 Y97.178 E.01396
G1 X154.946 Y97.47 E.0115
G1 X151.875 Y100.541 E.13618
G1 X151.411 Y100.962 E.01967
G1 X151.013 Y101.165 E.01401
G1 X150.649 Y101.213 E.0115
G1 X109.722 Y101.213 E1.28323
M204 S1000
G1 X109.285 Y101.59 F10800
M204 S800
;TYPE:External perimeter
M73 P1 R200
G1 F1200
G1 X109.285 Y85.654 E.49968
G1 X109.231 Y85.585 E.00273
G1 X109.231 Y76.165 E.29534
G1 X109.285 Y76.096 E.00273
G1 X109.285 Y60.16 E.49968
G1 X150.58 Y60.16 E1.29478
G1 X151.111 Y60.218 E.01674
G1 X151.494 Y60.376 E.01299
G1 X151.844 Y60.645 E.01383
G1 X155.169 Y63.97 E.14745
G1 X155.499 Y64.381 E.01653
G1 X155.657 Y64.764 E.01299
G1 X155.715 Y65.294 E.01672
G1 X155.715 Y96.456 E.97705
G1 X155.657 Y96.986 E.01672
G1 X155.499 Y97.369 E.01299
G1 X155.23 Y97.719 E.01384
G1 X151.906 Y101.043 E.1474
G1 X151.494 Y101.374 E.01658
G1 X151.111 Y101.532 E.01299
G1 X150.674 Y101.59 E.01383
G1 X109.345 Y101.59 E1.29582
M204 S1000
G1 X109.485 Y101.243 F10800
;WIPE_START
G1 F8640
G1 X109.33 Y97.476 E-.95
;WIPE_END
G1 E-.05 F2100
G1 Z.4 F720
G1 X153.021 Y63.916 F10800
G1 Z.2 F720
G1 E1 F2100
M204 S800
;TYPE:Perimeter
G1 F1200
G1 X153.095 Y64.071 E.00537
G1 X153.279 Y64.874 E.02584
G1 X153.283 Y65.104 E.0072
G1 X153.095 Y65.929 E.02655
G1 X152.986 Y66.156 E.00789
G1 X152.472 Y66.801 E.02584
G1 X152.275 Y66.958 E.00789
G1 X151.533 Y67.315 E.02584
G1 X151.287 Y67.371 E.00789
G1 X150.463 Y67.371 E.02585
G1 X150.217 Y67.315 E.00789
G1 X149.475 Y66.958 E.02584
G1 X149.278 Y66.801 E.00789
G1 X148.764 Y66.156 E.02584
G1 X148.655 Y65.929 E.00789
G1 X148.47 Y65.122 E.02598
G1 X148.471 Y64.874 E.00776
G1 X148.655 Y64.071 E.02584
G1 X148.764 Y63.844 E.00789
G1 X149.278 Y63.199 E.02584
G1 X149.475 Y63.042 E.00789
G1 X150.217 Y62.685 E.02584
G1 X150.463 Y62.629 E.00789
G1 X151.287 Y62.629 E.02584
G1 X151.533 Y62.685 E.00789
G1 X152.275 Y63.042 E.02584
G1 X152.472 Y63.199 E.00789
G1 X152.995 Y63.862 E.02647
M204 S1000
G1 X152.665 Y64.048 F10800
M204 S800
;TYPE:External perimeter
G1 F1200
G1 X152.691 Y64.079 E.00127
G1 X152.911 Y64.958 E.02842
G1 X152.912 Y65.035 E.0024
G1 X152.728 Y65.846 E.02608
G1 X152.177 Y66.566 E.02842
G1 X151.369 Y66.976 E.02842
G1 X150.463 Y66.994 E.02842
G1 X149.911 Y66.749 E.01895
G1 X149.573 Y66.566 E.01205
G1 X149.059 Y65.921 E.02584
G1 X148.839 Y65.042 E.02842
G1 X149.022 Y64.154 E.02842
G1 X149.573 Y63.434 E.02842
G1 X150.381 Y63.024 E.02842
G1 X150.954 Y63.006 E.01797
G1 X151.369 Y63.024 E.01302
G1 X152.112 Y63.382 E.02584
G1 X152.627 Y64.002 E.02527
M204 S1000
G1 X152.705 Y64.038 F10800
;WIPE_START
G1 F8640
G1 X152.691 Y64.079 E-.02319
G1 X152.911 Y64.958 E-.20926
G1 X152.912 Y65.035 E-.01768
G1 X152.728 Y65.846 E-.19206
G1 X152.177 Y66.566 E-.20926
G1 X151.369 Y66.976 E-.20926
G1 X150.982 Y66.984 E-.08928
;WIPE_END
G1 E-.05 F2100
G1 Z.4 F720
G1 X153.279 Y96.705 F10800
G1 Z.2 F720
G1 E1 F2100
M204 S800
;TYPE:Perimeter
G1 F1200
G1 X153.279 Y96.876 E.00537
G1 X153.095 Y97.679 E.02584
G1 X152.986 Y97.906 E.00789
G1 X152.472 Y98.551 E.02584
G1 X152.275 Y98.708 E.00789
G1 X151.533 Y99.065 E.02584
G1 X151.287 Y99.121 E.00789
G1 X150.463 Y99.121 E.02584
G1 X150.217 Y99.065 E.00789
G1 X149.475 Y98.708 E.02584
G1 X149.278 Y98.551 E.00789
G1 X148.764 Y97.906 E.02584
G1 X148.655 Y97.679 E.00789
G1 X148.471 Y96.876 E.02584
G1 X148.471 Y96.624 E.00789
G1 X148.655 Y95.821 E.02584
G1 X148.744 Y95.62 E.00689
G1 X149.096 Y95.178 E.0177
G1 X149.421 Y94.822 E.01513
G1 X150.217 Y94.435 E.02776
G1 X150.463 Y94.379 E.00789
G1 X151.287 Y94.379 E.02584
G1 X151.533 Y94.435 E.00789
G1 X152.275 Y94.792 E.02585
G1 X152.472 Y94.949 E.00789
G1 X152.986 Y95.594 E.02584
G1 X153.095 Y95.821 E.00789
G1 X153.279 Y96.645 E.02647
M204 S1000
G1 X152.901 Y96.67 F10800
M204 S800
;TYPE:External perimeter
G1 F1200
G1 X152.911 Y96.708 E.00124
G1 X152.728 Y97.596 E.02842
G1 X152.177 Y98.316 E.02842
G1 X151.369 Y98.726 E.02842
G1 X150.786 Y98.744 E.01829
G1 X150.381 Y98.726 E.0127
G1 X149.638 Y98.368 E.02584
G1 X149.059 Y97.671 E.02842
G1 X148.839 Y96.792 E.02842
G1 X149.022 Y95.904 E.02842
G1 X149.052 Y95.838 E.0023
G1 X149.638 Y95.132 E.02876
G1 X150.381 Y94.774 E.02584
G1 X151.287 Y94.756 E.02842
G1 X152.112 Y95.132 E.02842
G1 X152.691 Y95.829 E.02842
G1 X152.887 Y96.611 E.02529
M204 S1000
G1 X152.94 Y96.678 F10800
;WIPE_START
G1 F8640
G1 X152.911 Y96.708 E-.02299
G1 X152.728 Y97.596 E-.20926
G1 X152.177 Y98.316 E-.20926
G1 X151.369 Y98.726 E-.20926
G1 X150.786 Y98.744 E-.13473
G1 X150.381 Y98.726 E-.09355
G1 X150.104 Y98.592 E-.07095
;WIPE_END
G1 E-.05 F2100
G1 Z.4 F720
G1 X146.786 Y80.856 F10800
G1 Z.2 F720
G1 E1 F2100
M204 S800
;TYPE:Perimeter
G1 F1200
G1 X146.608 Y82.914 E.06478
G1 X146.097 Y84.847 E.06268
G1 X145.313 Y86.581 E.05968
G1 X144.2 Y88.242 E.06268
G1 X142.823 Y89.691 E.06268
G1 X141.22 Y90.886 E.06268
G1 X139.35 Y91.829 E.06567
G1 X137.436 Y92.406 E.06268
G1 X135.452 Y92.652 E.06268
G1 X133.455 Y92.559 E.06268
