; generated by PrusaSlicer 2.5.2+win64 on 2023-04-07 at 20:13:44 UTC


;
;
; 

; external perimeters extrusion width = 0.45mm
; perimeters extrusion width = 0.45mm
; infill extrusion width = 0.45mm
; solid infill extrusion width = 0.45mm
; top infill extrusion width = 0.40mm
; first layer extrusion width = 0.42mm

; external perimeters extrusion width = 0.45mm
; perimeters extrusion width = 0.45mm
; infill extrusion width = 0.45mm
; solid infill extrusion width = 0.45mm
; top infill extrusion width = 0.40mm
; first layer extrusion width = 0.42mm

; external perimeters extrusion width = 0.45mm
; perimeters extrusion width = 0.45mm
; infill extrusion width = 0.45mm
; solid infill extrusion width = 0.45mm
; top infill extrusion width = 0.40mm
; first layer extrusion width = 0.42mm

M73 P0 R190
M73 Q0 S192
M201 X1000 Y1000 Z200 E5000 ; sets maximum accelerations, mm/sec^2
M203 X200 Y200 Z12 E120 ; sets maximum feedrates, mm / sec
M204 P1250 R1250 T1250 ; sets acceleration (P, T) and retract acceleration (R), mm/sec^2
M205 X8.00 Y8.00 Z0.40 E4.50 ; sets the jerk limits, mm/sec
M205 S0 T0 ; sets the minimum extruding and travel feed rate, mm/sec
M107
;TYPE:Custom
M862.3 P "MK3S" ; printer model check
M862.1 P0.4 ; nozzle diameter check
M115 U3.12.1 ; tell printer latest fw version
G90 ; use absolute coordinates
M83 ; extruder relative mode
M104 S230 ; set extruder temp
M140 S85 ; set bed temp
M190 S85 ; wait for bed temp
M109 S230 ; wait for extruder temp
G28 W ; home all without mesh bed level
G80 ; mesh bed leveling

G1 Z0.2 F720
G1 Y-3 F1000 ; go outside print area
G92 E0
G1 X60 E9 F1000 ; intro line
G1 X100 E12.5 F1000 ; intro line

G92 E0
M221 S95

; Don't change E values below. Excessive value can damage the printer.

M907 E538 ; set extruder motor current
G21 ; set units to millimeters
G90 ; use absolute coordinates
M83 ; use relative distances for extrusion
M900 K0.08 ; Filament gcode LA 1.5
M900 K45 ; Filament gcode LA 1.0
M107
;LAYER_CHANGE
;Z:0.2
;HEIGHT:0.2
;BEFORE_LAYER_CHANGE
G92 E0.0
;0.2


G1 E-1 F2100
M73 P0 R189
G1 Z.2 F720
;AFTER_LAYER_CHANGE
;0.2
G1 Z.4
G1 X99.015 Y67.693 F10800
G1 Z.2 F720
G1 E1 F2100
M204 S800
;TYPE:Skirt/Brim
;WIDTH:0.42
G1 F1200
G1 X100.06 Y66.817 E.04278
G1 X101 Y66.623 E.03008
G1 X149 Y66.623 E1.50501
G1 X150.307 Y67.015 E.04278
G1 X151.183 Y68.06 E.04278
G1 X151.377 Y69 E.03008
G1 X151.377 Y141 E2.25751
G1 X150.985 Y142.307 E.04278
G1 X149.94 Y143.183 E.04278
G1 X149 Y143.377 E.03008
G1 X101 Y143.377 E1.50501
G1 X99.693 Y142.985 E.04278
M73 Q0 S191
G1 X98.817 Y141.94 E.04278
G1 X98.623 Y141 E.03008
G1 X98.623 Y69 E2.25751
G1 X98.997 Y67.75 E.0409
M204 S1000
; printing object 3XRouleauMount.stl id:2 copy 0
;WIPE_START
G1 F8640
G1 X100.06 Y66.817 E-.32671
G1 X101 Y66.623 E-.22155
G1 X102.74 Y66.623 E-.40174
;WIPE_END
G1 E-.05 F2100
G1 Z.4 F720
G1 X101.787 Y121.787 F10800
G1 Z.2 F720
G1 E1 F2100
M204 S800
;TYPE:Perimeter
;WIDTH:0.419999
G1 F1200
G1 X148.213 Y121.787 E1.45565
G1 X148.213 Y140.213 E.57773
G1 X101.787 Y140.213 E1.45565
G1 X101.787 Y121.847 E.57585
M204 S1000
G1 X101.41 Y121.41 F10800
M204 S800
;TYPE:External perimeter
G1 F1200
G1 X148.59 Y121.41 E1.47929
G1 X148.59 Y140.59 E.60137
G1 X101.41 Y140.59 E1.47929
G1 X101.41 Y121.47 E.59949
M204 S1000
G1 X101.807 Y121.461 F10800
;WIPE_START
G1 F8640
G1 X105.524 Y121.465 E-.95
;WIPE_END
G1 E-.05 F2100
G1 Z.4 F720
G1 X141.601 Y129.347 F10800
G1 Z.2 F720
G1 E1 F2100
M204 S800
;TYPE:Perimeter
G1 F1200
G1 X141.674 Y129.466 E.0044
G1 X142.01 Y130.332 E.0291
G1 X142.048 Y130.536 E.00652
G1 X142.038 Y131.569 E.03239
G1 X141.674 Y132.534 E.03233
G1 X141.565 Y132.71 E.00652
G1 X140.94 Y133.396 E.0291
G1 X140.774 Y133.522 E.00652
G1 X139.943 Y133.935 E.0291
G1 X139.743 Y133.992 E.00652
G1 X138.819 Y134.078 E.0291
G1 X138.612 Y134.059 E.00652
G1 X137.72 Y133.805 E.0291
G1 X137.534 Y133.712 E.00652
G1 X136.793 Y133.153 E.0291
G1 X136.653 Y132.999 E.00652
G1 X136.164 Y132.21 E.0291
G1 X136.089 Y132.016 E.00652
G1 X135.919 Y131.104 E.0291
G1 X135.919 Y130.896 E.00652
G1 X136.089 Y129.984 E.0291
G1 X136.164 Y129.79 E.00652
G1 X136.653 Y129.001 E.0291
G1 X136.793 Y128.847 E.00652
G1 X137.534 Y128.288 E.0291
G1 X137.72 Y128.195 E.00652
G1 X138.612 Y127.941 E.0291
G1 X138.819 Y127.922 E.00652
G1 X139.743 Y128.008 E.0291
G1 X139.943 Y128.065 E.00652
G1 X140.774 Y128.478 E.0291
G1 X141.029 Y128.701 E.01062
G1 X141.569 Y129.296 E.02519
M204 S1000
G1 X141.262 Y129.518 F10800
M204 S800
;TYPE:External perimeter
G1 F1200
G1 X141.658 Y130.468 E.03227
G1 X141.668 Y131.499 E.03233
G1 X141.323 Y132.398 E.03018
G1 X140.75 Y133.045 E.02709
G1 X140.606 Y133.184 E.00629
G1 X139.775 Y133.598 E.0291
G1 X138.784 Y133.702 E.03124
G1 X137.823 Y133.442 E.03124
G1 X137.02 Y132.852 E.03124
G1 X136.485 Y132.011 E.03124
G1 X136.289 Y131.035 E.03124
G1 X136.46 Y130.053 E.03124
G1 X136.973 Y129.199 E.03124
G1 X137.761 Y128.589 E.03124
G1 X138.715 Y128.304 E.03124
G1 X139.708 Y128.383 E.03124
G1 X140.606 Y128.816 E.03124
G1 X141.221 Y129.474 E.02825
M204 S1000
G1 X141.662 Y129.497 F10800
;WIPE_START
G1 F8640
G1 X141.658 Y130.468 E-.25069
G1 X141.668 Y131.499 E-.23809
G1 X141.323 Y132.398 E-.22222
G1 X140.75 Y133.045 E-.19953
G1 X140.627 Y133.163 E-.03946
;WIPE_END
G1 E-.05 F2100
G1 Z.4 F720
G1 X107.919 Y131.036 F10800
G1 Z.2 F720
G1 E1 F2100
M204 S800
;TYPE:Perimeter
G1 F1200
G1 X107.919 Y130.896 E.0044
G1 X108.089 Y129.984 E.0291
G1 X108.164 Y129.79 E.00652
G1 X108.653 Y129.001 E.0291
G1 X108.793 Y128.847 E.00652
G1 X109.534 Y128.288 E.0291
G1 X109.72 Y128.195 E.00652
G1 X110.612 Y127.941 E.0291
G1 X110.819 Y127.922 E.00652
G1 X111.743 Y128.008 E.0291
G1 X111.943 Y128.065 E.00652
G1 X112.774 Y128.478 E.0291
G1 X112.94 Y128.604 E.00652
G1 X113.565 Y129.29 E.0291
G1 X113.674 Y129.466 E.00652
G1 X114.01 Y130.332 E.0291
G1 X114.048 Y130.536 E.00652
G1 X114.048 Y131.464 E.0291
G1 X114.01 Y131.668 E.00652
G1 X113.674 Y132.534 E.0291
G1 X113.565 Y132.71 E.00652
G1 X112.94 Y133.396 E.0291
G1 X112.774 Y133.522 E.00652
G1 X111.943 Y133.935 E.0291
G1 X111.743 Y133.992 E.00652
G1 X110.819 Y134.078 E.0291
G1 X110.612 Y134.059 E.00652
G1 X109.72 Y133.805 E.0291
G1 X109.534 Y133.712 E.00652
G1 X108.793 Y133.153 E.0291
G1 X108.653 Y132.999 E.00652
G1 X108.164 Y132.21 E.0291
G1 X108.089 Y132.016 E.00652
G1 X107.919 Y131.096 E.02933
M204 S1000
G1 X108.296 Y131.069 F10800
M204 S800
;TYPE:External perimeter
G1 F1200
G1 X108.46 Y130.053 E.03227
G1 X108.973 Y129.199 E.03124
G1 X109.761 Y128.589 E.03124
G1 X110.715 Y128.304 E.03124
G1 X111.708 Y128.383 E.03124
G1 X112.606 Y128.816 E.03124
G1 X113.286 Y129.544 E.03124
G1 X113.658 Y130.468 E.03124
G1 X113.664 Y131.514 E.03279
G1 X113.323 Y132.398 E.02971
G1 X112.661 Y133.142 E.03124
G1 X111.775 Y133.598 E.03124
G1 X110.784 Y133.702 E.03124
G1 X109.823 Y133.442 E.03124
G1 X109.02 Y132.852 E.03124
G1 X108.485 Y132.011 E.03124
G1 X108.308 Y131.128 E.02825
M204 S1000
G1 X107.946 Y130.877 F10800
;WIPE_START
G1 F8640
G1 X108.46 Y130.053 E-.25069
G1 X108.973 Y129.199 E-.23003
G1 X109.761 Y128.589 E-.23003
G1 X110.715 Y128.304 E-.23003
G1 X110.755 Y128.307 E-.00921
;WIPE_END
G1 E-.05 F2100
G1 Z.4 F720
G1 X147.332 Y121.9 F10800
G1 Z.2 F720
G1 E1 F2100
M204 S800
;TYPE:Solid infill
;WIDTH:0.42284
G1 F1200
G1 X147.93 Y122.499 E.02674
G1 X147.93 Y123.036 E.01697
G1 X146.964 Y122.07 E.04317
G1 X146.427 Y122.07 E.01697
G1 X147.93 Y123.573 E.06717
G1 X147.93 Y124.111 E.01697
G1 X145.889 Y122.07 E.09117
G1 X145.352 Y122.07 E.01697
G1 X147.93 Y124.648 E.11518
G1 X147.93 Y125.185 E.01697
G1 X144.815 Y122.07 E.13918
G1 X144.277 Y122.07 E.01697
G1 X147.93 Y125.723 E.16318
G1 X147.93 Y126.26 E.01697
G1 X143.74 Y122.07 E.18719
G1 X143.203 Y122.07 E.01697
G1 X147.93 Y126.797 E.21119
G1 X147.93 Y127.334 E.01697
G1 X142.666 Y122.07 E.2352
G1 X142.128 Y122.07 E.01697
G1 X147.93 Y127.872 E.2592
G1 X147.93 Y128.409 E.01697
G1 X141.591 Y122.07 E.2832
G1 X141.054 Y122.07 E.01697
G1 X147.93 Y128.946 E.30721
G1 X147.93 Y129.484 E.01697
G1 X140.516 Y122.07 E.33121
G1 X139.979 Y122.07 E.01697
G1 X147.93 Y130.021 E.35521
G1 X147.93 Y130.558 E.01697
G1 X139.442 Y122.07 E.37922
G1 X138.905 Y122.07 E.01697
G1 X147.93 Y131.095 E.40322
G1 X147.93 Y131.633 E.01697
G1 X138.367 Y122.07 E.42723
G1 X137.83 Y122.07 E.01697
G1 X147.93 Y132.17 E.45123
G1 X147.93 Y132.707 E.01697
G1 X137.293 Y122.07 E.47523
G1 X136.755 Y122.07 E.01697
G1 X147.93 Y133.245 E.49924
G1 X147.93 Y133.782 E.01697
G1 X136.218 Y122.07 E.52324
G1 X135.681 Y122.07 E.01697
G1 X147.93 Y134.319 E.54724
G1 X147.93 Y134.856 E.01697
G1 X135.144 Y122.07 E.57125
G1 X134.606 Y122.07 E.01697
G1 X147.93 Y135.394 E.59525
G1 X147.93 Y135.931 E.01697
G1 X142.281 Y130.282 E.25236
G1 X142.317 Y130.379 E.00325
G1 X142.323 Y130.862 E.01526
G1 X147.93 Y136.468 E.25049
G1 X147.93 Y137.006 E.01697
G1 X142.33 Y131.405 E.25019
G1 X142.316 Y131.625 E.00695
G1 X142.233 Y131.846 E.00746
G1 X147.93 Y137.543 E.2545
G1 X147.93 Y138.08 E.01697
G1 X142.087 Y132.237 E.26104
G1 X141.941 Y132.628 E.01319
G1 X147.93 Y138.617 E.26757
G1 X147.93 Y139.155 E.01697
G1 X141.719 Y132.943 E.27749
G1 X141.463 Y133.225 E.01201
G1 X147.93 Y139.692 E.28894
G1 X147.93 Y139.93 E.00752
G1 X147.631 Y139.93 E.00945
G1 X141.206 Y133.506 E.28702
G1 X141.038 Y133.69 E.0079
G1 X140.916 Y133.753 E.00432
G1 X147.094 Y139.93 E.27597
G1 X146.556 Y139.93 E.01697
G1 X140.562 Y133.935 E.26782
G1 X140.207 Y134.118 E.01261
G1 X146.019 Y139.93 E.25967
G1 X145.482 Y139.93 E.01697
G1 X139.818 Y134.267 E.25302
G1 X139.322 Y134.308 E.01572
G1 X144.945 Y139.93 E.25118
G1 X144.407 Y139.93 E.01697
G1 X138.826 Y134.349 E.24933
G1 X138.688 Y134.361 E.00438
G1 X138.156 Y134.216 E.01742
G1 X144.04 Y140.1 E.26286
M204 S1000
;WIPE_START
G1 F8640
G1 X141.13 Y137.191 E-.95
;WIPE_END
G1 E-.05 F2100
G1 Z.4 F720
G1 X133.899 Y121.9 F10800
G1 Z.2 F720
G1 E1 F2100
M204 S800
G1 F1200
G1 X139.722 Y127.722 E.26011
G1 X139.137 Y127.675 E.01852
G1 X133.532 Y122.07 E.25043
G1 X132.994 Y122.07 E.01697
G1 X138.59 Y127.666 E.25
G1 X138.168 Y127.781 E.01383
G1 X132.457 Y122.07 E.25513
G1 X131.92 Y122.07 E.01697
G1 X137.745 Y127.895 E.26026
G1 X137.49 Y127.982 E.00853
G1 X137.378 Y128.065 E.00439
G1 X131.383 Y122.07 E.26783
G1 X130.845 Y122.07 E.01697
G1 X137.068 Y128.293 E.27802
G1 X136.759 Y128.521 E.01214
G1 X130.308 Y122.07 E.28821
G1 X129.771 Y122.07 E.01697
G1 X136.474 Y128.774 E.2995
G1 X136.266 Y129.102 E.0123
M73 P0 R188
G1 X129.233 Y122.07 E.31418
G1 X128.696 Y122.07 E.01697
G1 X136.057 Y129.431 E.32886
G1 X135.921 Y129.646 E.00804
G1 X135.863 Y129.774 E.00444
G1 X128.159 Y122.07 E.34418
G1 X127.622 Y122.07 E.01697
G1 X135.762 Y130.211 E.36369
G1 X135.676 Y130.661 E.0145
G1 X127.084 Y122.07 E.38383
G1 X126.547 Y122.07 E.01697
G1 X135.643 Y131.165 E.40635
G1 X135.766 Y131.826 E.02124
G1 X126.01 Y122.07 E.43587
G1 X125.472 Y122.07 E.01697
G1 X143.333 Y139.93 E.79792
G1 X142.795 Y139.93 E.01697
G1 X124.935 Y122.07 E.79792
G1 X124.398 Y122.07 E.01697
G1 X142.258 Y139.93 E.79792
G1 X141.721 Y139.93 E.01697
G1 X123.861 Y122.07 E.79792
G1 X123.323 Y122.07 E.01697
M73 Q0 S190
G1 X141.183 Y139.93 E.79792
G1 X140.646 Y139.93 E.01697
G1 X122.786 Y122.07 E.79792
G1 X122.249 Y122.07 E.01697
G1 X140.109 Y139.93 E.79792
G1 X139.572 Y139.93 E.01697
G1 X121.711 Y122.07 E.79792
G1 X121.174 Y122.07 E.01697
G1 X139.034 Y139.93 E.79792
G1 X138.497 Y139.93 E.01697
G1 X120.637 Y122.07 E.79792
G1 X120.1 Y122.07 E.01697
G1 X137.96 Y139.93 E.79792
G1 X137.422 Y139.93 E.01697
G1 X119.562 Y122.07 E.79792
G1 X119.025 Y122.07 E.01697
G1 X136.885 Y139.93 E.79792
G1 X136.348 Y139.93 E.01697
G1 X118.488 Y122.07 E.79792
G1 X117.95 Y122.07 E.01697
G1 X135.811 Y139.93 E.79792
G1 X135.273 Y139.93 E.01697
G1 X117.413 Y122.07 E.79792
G1 X116.876 Y122.07 E.01697
G1 X134.736 Y139.93 E.79792
G1 X134.199 Y139.93 E.01697
G1 X116.338 Y122.07 E.79792
G1 X115.801 Y122.07 E.01697
G1 X133.661 Y139.93 E.79792
G1 X133.124 Y139.93 E.01697
G1 X115.264 Y122.07 E.79792
G1 X114.727 Y122.07 E.01697
G1 X132.587 Y139.93 E.79792
G1 X132.05 Y139.93 E.01697
G1 X114.189 Y122.07 E.79792
G1 X113.652 Y122.07 E.01697
G1 X131.512 Y139.93 E.79792
G1 X130.975 Y139.93 E.01697
G1 X113.115 Y122.07 E.79792
G1 X112.577 Y122.07 E.01697
G1 X130.438 Y139.93 E.79792
G1 X129.9 Y139.93 E.01697
G1 X112.04 Y122.07 E.79792
G1 X111.503 Y122.07 E.01697
G1 X129.363 Y139.93 E.79792
G1 X128.826 Y139.93 E.01697
G1 X110.966 Y122.07 E.79792
G1 X110.428 Y122.07 E.01697
G1 X128.289 Y139.93 E.79792
G1 X127.751 Y139.93 E.01697
G1 X109.891 Y122.07 E.79792
G1 X109.354 Y122.07 E.01697
G1 X127.214 Y139.93 E.79792
G1 X126.677 Y139.93 E.01697
G1 X108.816 Y122.07 E.79792
G1 X108.279 Y122.07 E.01697
G1 X126.139 Y139.93 E.79792
G1 X125.602 Y139.93 E.01697
G1 X107.742 Y122.07 E.79792
G1 X107.205 Y122.07 E.01697
G1 X125.065 Y139.93 E.79792
G1 X124.528 Y139.93 E.01697
M73 P1 R188
G1 X106.667 Y122.07 E.79792
G1 X106.13 Y122.07 E.01697
M73 Q1 S190
G1 X111.79 Y127.73 E.25286
G1 X111.204 Y127.681 E.01858
G1 X105.593 Y122.07 E.25067
G1 X105.055 Y122.07 E.01697
G1 X110.638 Y127.653 E.24942
G1 X110.216 Y127.768 E.01383
G1 X104.518 Y122.07 E.25455
G1 X103.981 Y122.07 E.01697
G1 X109.793 Y127.882 E.25968
G1 X109.489 Y127.983 E.01011
G1 X109.413 Y128.039 E.00301
G1 X103.444 Y122.07 E.26669
G1 X102.906 Y122.07 E.01697
G1 X109.105 Y128.269 E.27694
G1 X108.797 Y128.498 E.01213
G1 X102.369 Y122.07 E.28719
G1 X102.07 Y122.07 E.00945
G1 X102.07 Y122.308 E.00752
G1 X108.502 Y128.74 E.28737
G1 X108.286 Y129.062 E.01223
G1 X102.07 Y122.845 E.27771
G1 X102.07 Y123.383 E.01697
G1 X108.084 Y129.397 E.26868
G1 X107.882 Y129.732 E.01236
G1 X102.07 Y123.92 E.25965
G1 X102.07 Y124.457 E.01697
G1 X107.777 Y130.164 E.25496
G1 X107.687 Y130.612 E.01443
G1 X102.07 Y124.994 E.25096
G1 X102.07 Y125.532 E.01697
G1 X107.638 Y131.1 E.24874
G1 X107.752 Y131.751 E.0209
G1 X101.9 Y125.899 E.26143
M204 S1000
;WIPE_START
G1 F8640
G1 X104.809 Y128.809 E-.95
;WIPE_END
G1 E-.05 F2100
G1 Z.4 F720
G1 X113.966 Y129.906 F10800
G1 Z.2 F720
G1 E1 F2100
M204 S800
G1 F1200
G1 X123.99 Y139.93 E.44784
G1 X123.453 Y139.93 E.01697
M73 P1 R187
G1 X114.32 Y130.797 E.40803
G1 X114.32 Y131.334 E.01697
G1 X122.916 Y139.93 E.38403
G1 X122.378 Y139.93 E.01697
G1 X114.258 Y131.81 E.36278
G1 X114.108 Y132.197 E.01312
G1 X121.841 Y139.93 E.34548
G1 X121.304 Y139.93 E.01697
G1 X113.958 Y132.584 E.32817
G1 X113.844 Y132.815 E.00813
G1 X113.752 Y132.915 E.00431
G1 X120.767 Y139.93 E.3134
G1 X120.229 Y139.93 E.01697
G1 X113.494 Y133.195 E.3009
G1 X113.237 Y133.475 E.01201
G1 X119.692 Y139.93 E.2884
G1 X119.155 Y139.93 E.01697
G1 X112.957 Y133.732 E.2769
G1 X112.602 Y133.915 E.01261
G1 X118.617 Y139.93 E.26875
G1 X118.08 Y139.93 E.01697
G1 X112.247 Y134.097 E.2606
G1 X112.064 Y134.191 E.00651
G1 X111.868 Y134.256 E.0065
G1 X117.543 Y139.93 E.25352
G1 X117.006 Y139.93 E.01697
G1 X111.379 Y134.303 E.25139
G1 X110.883 Y134.345 E.01572
G1 X116.468 Y139.93 E.24954
G1 X115.931 Y139.93 E.01697
G1 X109.998 Y133.997 E.26504
M204 S1000
;WIPE_START
G1 F8640
G1 X112.908 Y136.907 E-.95
;WIPE_END
G1 E-.05 F2100
G1 Z.4 F720
G1 X115.563 Y140.1 F10800
G1 Z.2 F720
G1 E1 F2100
M204 S800
G1 F1200
G1 X102.07 Y126.606 E.60283
G1 X102.07 Y127.144 E.01697
G1 X114.856 Y139.93 E.57125
G1 X114.319 Y139.93 E.01697
M73 Q1 S189
G1 X102.07 Y127.681 E.54724
G1 X102.07 Y128.218 E.01697
G1 X113.782 Y139.93 E.52324
G1 X113.245 Y139.93 E.01697
G1 X102.07 Y128.755 E.49923
G1 X102.07 Y129.293 E.01697
G1 X112.707 Y139.93 E.47523
G1 X112.17 Y139.93 E.01697
G1 X102.07 Y129.83 E.45123
G1 X102.07 Y130.367 E.01697
G1 X111.633 Y139.93 E.42722
G1 X111.095 Y139.93 E.01697
G1 X102.07 Y130.905 E.40322
G1 X102.07 Y131.442 E.01697
G1 X110.558 Y139.93 E.37922
G1 X110.021 Y139.93 E.01697
G1 X102.07 Y131.979 E.35521
G1 X102.07 Y132.517 E.01697
G1 X109.483 Y139.93 E.33121
G1 X108.946 Y139.93 E.01697
G1 X102.07 Y133.054 E.3072
G1 X102.07 Y133.591 E.01697
G1 X108.409 Y139.93 E.2832
G1 X107.872 Y139.93 E.01697
G1 X102.07 Y134.128 E.2592
G1 X102.07 Y134.666 E.01697
G1 X107.334 Y139.93 E.23519
G1 X106.797 Y139.93 E.01697
G1 X102.07 Y135.203 E.21119
G1 X102.07 Y135.74 E.01697
G1 X106.26 Y139.93 E.18719
