; generated by PrusaSlicer 2.5.2+win64 on 2023-04-11 at 10:12:34 UTC


;
;
; 

; external perimeters extrusion width = 0.45mm
; perimeters extrusion width = 0.45mm
; infill extrusion width = 0.45mm
; solid infill extrusion width = 0.45mm
; top infill extrusion width = 0.40mm
; first layer extrusion width = 0.42mm

; external perimeters extrusion width = 0.45mm
; perimeters extrusion width = 0.45mm
; infill extrusion width = 0.45mm
; solid infill extrusion width = 0.45mm
; top infill extrusion width = 0.40mm
; first layer extrusion width = 0.42mm

; external perimeters extrusion width = 0.45mm
; perimeters extrusion width = 0.45mm
; infill extrusion width = 0.45mm
; solid infill extrusion width = 0.45mm
; top infill extrusion width = 0.40mm
; first layer extrusion width = 0.42mm

; external perimeters extrusion width = 0.45mm
; perimeters extrusion width = 0.45mm
; infill extrusion width = 0.45mm
; solid infill extrusion width = 0.45mm
; top infill extrusion width = 0.40mm
; first layer extrusion width = 0.42mm

M73 P0 R172
M73 Q0 S173
M201 X1000 Y1000 Z200 E5000 ; sets maximum accelerations, mm/sec^2
M203 X200 Y200 Z12 E120 ; sets maximum feedrates, mm / sec
M204 P1250 R1250 T1250 ; sets acceleration (P, T) and retract acceleration (R), mm/sec^2
M205 X8.00 Y8.00 Z0.40 E4.50 ; sets the jerk limits, mm/sec
M205 S0 T0 ; sets the minimum extruding and travel feed rate, mm/sec
M107
;TYPE:Custom
M862.3 P "MK3S" ; printer model check
M862.1 P0.4 ; nozzle diameter check
M115 U3.12.1 ; tell printer latest fw version
G90 ; use absolute coordinates
M83 ; extruder relative mode
M104 S230 ; set extruder temp
M140 S85 ; set bed temp
M190 S85 ; wait for bed temp
M109 S230 ; wait for extruder temp
G28 W ; home all without mesh bed level
G80 ; mesh bed leveling

G1 Z0.2 F720
G1 Y-3 F1000 ; go outside print area
G92 E0
G1 X60 E9 F1000 ; intro line
G1 X100 E12.5 F1000 ; intro line

G92 E0
M221 S95

; Don't change E values below. Excessive value can damage the printer.

M907 E538 ; set extruder motor current
G21 ; set units to millimeters
G90 ; use absolute coordinates
M83 ; use relative distances for extrusion
M900 K0.08 ; Filament gcode LA 1.5
M900 K45 ; Filament gcode LA 1.0
M107
;LAYER_CHANGE
;Z:0.2
;HEIGHT:0.2
;BEFORE_LAYER_CHANGE
G92 E0.0
;0.2


G1 E-1 F2100
G1 Z.2 F720
;AFTER_LAYER_CHANGE
;0.2
G1 Z.4
G1 X78.015 Y67.693 F10800
G1 Z.2 F720
G1 E1 F2100
M204 S800
;TYPE:Skirt/Brim
;WIDTH:0.42
G1 F1200
G1 X79.06 Y66.817 E.04278
G1 X80 Y66.623 E.03008
G1 X170 Y66.623 E2.82189
G1 X171.307 Y67.015 E.04278
G1 X172.183 Y68.06 E.04278
G1 X172.377 Y69 E.03008
G1 X172.377 Y114.5 E1.42662
G1 X172.165 Y115.481 E.03145
G1 X160.165 Y141.981 E.91211
G1 X159.27 Y143.01 E.04278
G1 X158 Y143.377 E.04144
G1 X92 Y143.377 E2.06938
G1 X90.693 Y142.985 E.04278
G1 X89.835 Y141.981 E.04144
G1 X77.835 Y115.481 E.91211
G1 X77.623 Y114.5 E.03145
G1 X77.623 Y69 E1.42662
G1 X77.997 Y67.75 E.0409
M204 S1000
; printing object 4XSK10.stl id:3 copy 0
;WIPE_START
G1 F8640
G1 X79.06 Y66.817 E-.32671
G1 X80 Y66.623 E-.22155
G1 X81.74 Y66.623 E-.40174
;WIPE_END
G1 E-.05 F2100
G1 Z.4 F720
G1 X157.734 Y74.717 F10800
G1 Z.2 F720
G1 E1 F2100
M204 S800
;TYPE:Perimeter
;WIDTH:0.419999
G1 F1200
G1 X157.681 Y74.721 E.00166
G1 X157.407 Y74.852 E.00953
G1 X157.27 Y75.031 E.00704
G1 X157.213 Y75.279 E.00798
G1 X157.213 Y101.213 E.81315
G1 X150.787 Y101.213 E.20148
G1 X150.787 Y95.521 E.17847
G1 X151.397 Y95.348 E.01988
G1 X152.529 Y94.796 E.03949
G1 X153.54 Y94.044 E.03949
G1 X154.394 Y93.118 E.03949
G1 X155.062 Y92.05 E.03949
G1 X155.521 Y90.877 E.03949
G1 X155.756 Y89.64 E.03949
G1 X155.757 Y88.38 E.03949
G1 X155.526 Y87.142 E.03949
G1 X155.071 Y85.968 E.03949
G1 X154.406 Y84.898 E.03949
G1 X153.554 Y83.97 E.03949
G1 X152.546 Y83.215 E.03949
G1 X151.416 Y82.659 E.03949
G1 X150.202 Y82.322 E.03949
G1 X149.052 Y82.214 E.03621
G1 X147.798 Y82.322 E.03949
G1 X146.584 Y82.659 E.03949
G1 X145.454 Y83.215 E.03949
G1 X144.446 Y83.97 E.03949
G1 X143.594 Y84.898 E.03949
G1 X142.929 Y85.968 E.03949
G1 X142.474 Y87.142 E.03949
G1 X142.243 Y88.38 E.03949
G1 X142.244 Y89.64 E.03949
G1 X142.479 Y90.877 E.03949
G1 X142.938 Y92.05 E.03949
G1 X143.604 Y93.114 E.03935
G1 X144.464 Y94.047 E.03978
G1 X145.471 Y94.796 E.03934
G1 X146.603 Y95.348 E.03949
G1 X147.213 Y95.521 E.01988
G1 X147.213 Y101.213 E.17847
G1 X140.787 Y101.213 E.20148
G1 X140.782 Y75.203 E.81551
G1 X140.674 Y74.939 E.00895
G1 X140.488 Y74.779 E.00769
G1 X140.221 Y74.713 E.0086
G1 X128.787 Y74.713 E.35852
G1 X128.787 Y69.787 E.15445
G1 X169.213 Y69.787 E1.26752
G1 X169.213 Y74.713 E.15445
G1 X157.794 Y74.713 E.35805
M204 S1000
G1 X157.779 Y75.09 F10800
M204 S800
;TYPE:External perimeter
G1 F1200
G1 X157.655 Y75.136 E.00415
G1 X157.59 Y75.279 E.00489
G1 X157.59 Y101.59 E.82498
G1 X150.41 Y101.59 E.22512
G1 X150.41 Y95.231 E.19938
G1 X151.234 Y95.008 E.02678
G1 X152.306 Y94.492 E.03731
G1 X153.264 Y93.786 E.03731
G1 X154.075 Y92.915 E.03731
G1 X154.712 Y91.91 E.03731
G1 X155.151 Y90.804 E.03731
G1 X155.375 Y89.671 E.03621
G1 X155.389 Y88.481 E.03731
G1 X155.183 Y87.309 E.03731
G1 X154.764 Y86.196 E.03731
G1 X154.147 Y85.179 E.03731
G1 X153.352 Y84.293 E.03731
G1 X152.407 Y83.57 E.03731
G1 X151.345 Y83.034 E.03731
G1 X150.202 Y82.704 E.03731
G1 X149.017 Y82.59 E.03731
G1 X147.833 Y82.697 E.03731
G1 X146.688 Y83.021 E.03731
G1 X145.623 Y83.552 E.03731
G1 X144.674 Y84.27 E.03731
G1 X143.874 Y85.151 E.03731
G1 X143.251 Y86.164 E.03731
G1 X142.826 Y87.276 E.03731
M73 Q0 S172
G1 X142.611 Y88.48 E.03835
G1 X142.621 Y89.636 E.03627
G1 X142.849 Y90.804 E.03731
G1 X143.288 Y91.91 E.03731
G1 X143.922 Y92.912 E.03717
G1 X144.739 Y93.789 E.03759
G1 X145.694 Y94.492 E.03716
G1 X146.765 Y95.008 E.03731
G1 X147.59 Y95.231 E.02678
G1 X147.59 Y101.59 E.19938
G1 X140.41 Y101.59 E.22512
G1 X140.41 Y75.279 E.82498
G1 X140.345 Y75.136 E.00489
G1 X140.221 Y75.09 E.00415
G1 X128.41 Y75.09 E.37034
G1 X128.41 Y69.41 E.17809
G1 X169.59 Y69.41 E1.29117
G1 X169.59 Y75.09 E.17809
G1 X157.839 Y75.09 E.36846
M204 S1000
G1 X157.674 Y75.009 F10800
;WIPE_START
G1 F8640
G1 X157.655 Y75.136 E-.04381
G1 X157.59 Y75.279 E-.03603
G1 X157.59 Y79.047 E-.87016
;WIPE_END
G1 E-.05 F2100
G1 Z.4 F720
G1 X168.334 Y69.9 F10800
G1 Z.2 F720
G1 E1 F2100
M204 S800
;TYPE:Solid infill
;WIDTH:0.421793
G1 F1200
G1 X168.93 Y70.497 E.02657
G1 X168.93 Y71.032 E.01688
G1 X167.968 Y70.07 E.04288
G1 X167.432 Y70.07 E.01688
G1 X168.93 Y71.568 E.06675
G1 X168.93 Y72.104 E.01688
G1 X166.896 Y70.07 E.09063
G1 X166.36 Y70.07 E.01688
G1 X168.93 Y72.64 E.1145
G1 X168.93 Y73.176 E.01688
G1 X165.824 Y70.07 E.13837
G1 X165.289 Y70.07 E.01688
G1 X168.93 Y73.711 E.16224
G1 X168.93 Y74.247 E.01688
G1 X164.753 Y70.07 E.18611
G1 X164.217 Y70.07 E.01688
G1 X168.577 Y74.43 E.19426
G1 X168.041 Y74.43 E.01688
G1 X163.681 Y70.07 E.19426
G1 X163.145 Y70.07 E.01688
G1 X167.506 Y74.43 E.19426
G1 X166.97 Y74.43 E.01688
G1 X162.61 Y70.07 E.19426
G1 X162.074 Y70.07 E.01688
G1 X166.434 Y74.43 E.19426
G1 X165.898 Y74.43 E.01688
G1 X161.538 Y70.07 E.19426
G1 X161.002 Y70.07 E.01688
G1 X165.362 Y74.43 E.19426
G1 X164.827 Y74.43 E.01688
G1 X160.466 Y70.07 E.19426
G1 X159.931 Y70.07 E.01688
G1 X164.291 Y74.43 E.19426
G1 X163.755 Y74.43 E.01688
G1 X159.395 Y70.07 E.19426
G1 X158.859 Y70.07 E.01688
G1 X163.219 Y74.43 E.19426
G1 X162.683 Y74.43 E.01688
G1 X158.323 Y70.07 E.19426
G1 X157.787 Y70.07 E.01688
G1 X162.148 Y74.43 E.19426
G1 X161.612 Y74.43 E.01688
G1 X157.251 Y70.07 E.19426
G1 X156.716 Y70.07 E.01688
G1 X161.076 Y74.43 E.19426
G1 X160.54 Y74.43 E.01688
G1 X156.18 Y70.07 E.19426
G1 X155.644 Y70.07 E.01688
G1 X160.004 Y74.43 E.19426
G1 X159.468 Y74.43 E.01688
G1 X155.108 Y70.07 E.19426
G1 X154.572 Y70.07 E.01688
G1 X158.933 Y74.43 E.19426
G1 X158.397 Y74.43 E.01688
M73 P0 R171
G1 X154.037 Y70.07 E.19426
G1 X153.501 Y70.07 E.01688
G1 X157.861 Y74.43 E.19426
G1 X157.57 Y74.455 E.00921
G1 X157.412 Y74.517 E.00534
G1 X152.965 Y70.07 E.19811
G1 X152.429 Y70.07 E.01688
G1 X157.113 Y74.754 E.20869
G1 X157.016 Y74.906 E.00569
G1 X156.951 Y75.127 E.00726
G1 X151.893 Y70.07 E.22532
G1 X151.358 Y70.07 E.01688
G1 X156.93 Y75.642 E.24827
G1 X156.93 Y76.178 E.01688
G1 X150.822 Y70.07 E.27214
G1 X150.286 Y70.07 E.01688
G1 X156.93 Y76.714 E.29601
G1 X156.93 Y77.25 E.01688
G1 X149.75 Y70.07 E.31989
G1 X149.214 Y70.07 E.01688
G1 X156.93 Y77.786 E.34376
G1 X156.93 Y78.321 E.01688
G1 X148.679 Y70.07 E.36763
G1 X148.143 Y70.07 E.01688
G1 X156.93 Y78.857 E.3915
G1 X156.93 Y79.393 E.01688
G1 X147.607 Y70.07 E.41537
G1 X147.071 Y70.07 E.01688
G1 X156.93 Y79.929 E.43924
G1 X156.93 Y80.465 E.01688
G1 X146.535 Y70.07 E.46312
G1 X146 Y70.07 E.01688
G1 X156.93 Y81 E.48699
G1 X156.93 Y81.536 E.01688
G1 X145.464 Y70.07 E.51086
G1 X144.928 Y70.07 E.01688
G1 X156.93 Y82.072 E.53473
G1 X156.93 Y82.608 E.01688
G1 X144.392 Y70.07 E.5586
G1 X143.856 Y70.07 E.01688
G1 X156.93 Y83.144 E.58247
G1 X156.93 Y83.68 E.01688
G1 X143.32 Y70.07 E.60634
G1 X142.785 Y70.07 E.01688
G1 X156.93 Y84.215 E.63022
G1 X156.93 Y84.751 E.01688
G1 X142.249 Y70.07 E.65409
G1 X141.713 Y70.07 E.01688
G1 X156.93 Y85.287 E.67796
G1 X156.93 Y85.823 E.01688
G1 X141.177 Y70.07 E.70183
G1 X140.641 Y70.07 E.01688
G1 X156.93 Y86.359 E.7257
G1 X156.93 Y86.894 E.01688
G1 X140.106 Y70.07 E.74957
G1 X139.57 Y70.07 E.01688
G1 X152.26 Y82.76 E.56537
G1 X152.68 Y82.965 E.01474
G1 X153.732 Y83.749 E.04133
G1 X154.621 Y84.714 E.04133
G1 X155.298 Y85.798 E.04026
G1 X156.93 Y87.43 E.07271
G1 X156.93 Y87.966 E.01688
G1 X155.653 Y86.689 E.0569
G1 X155.794 Y87.049 E.01218
G1 X155.867 Y87.439 E.01251
G1 X156.93 Y88.502 E.04734
G1 X156.93 Y89.038 E.01688
G1 X155.992 Y88.1 E.04179
G1 X156.037 Y88.334 E.00752
G1 X156.046 Y88.689 E.01117
G1 X156.93 Y89.573 E.03941
G1 X156.93 Y90.109 E.01688
G1 X156.037 Y89.216 E.03981
G1 X156.027 Y89.742 E.0166
G1 X156.93 Y90.645 E.04022
G1 X156.93 Y91.181 E.01688
G1 X155.944 Y90.195 E.04393
G1 X155.856 Y90.642 E.01437
G1 X156.93 Y91.717 E.04787
G1 X156.93 Y92.252 E.01688
G1 X155.747 Y91.069 E.05272
G1 X155.597 Y91.455 E.01304
G1 X156.93 Y92.788 E.05941
G1 X156.93 Y93.324 E.01688
G1 X155.447 Y91.841 E.06609
G1 X155.287 Y92.217 E.01288
G1 X156.93 Y93.86 E.07319
G1 X156.93 Y94.396 E.01688
G1 X155.082 Y92.547 E.08235
G1 X154.876 Y92.878 E.01225
G1 X156.93 Y94.931 E.09151
G1 X156.93 Y95.467 E.01688
G1 X154.671 Y93.208 E.10067
G1 X154.425 Y93.498 E.01198
G1 X156.93 Y96.003 E.11162
G1 X156.93 Y96.539 E.01688
G1 X154.168 Y93.777 E.12305
G1 X153.912 Y94.056 E.01195
G1 X156.93 Y97.075 E.13447
G1 X156.93 Y97.611 E.01688
G1 X153.639 Y94.319 E.14664
G1 X153.332 Y94.548 E.01206
G1 X156.93 Y98.146 E.1603
G1 X156.93 Y98.682 E.01688
G1 X153.026 Y94.778 E.17395
G1 X152.719 Y95.007 E.01206
G1 X156.93 Y99.218 E.18761
G1 X156.93 Y99.754 E.01688
G1 X152.365 Y95.188 E.2034
G1 X152.005 Y95.365 E.01261
G1 X156.93 Y100.29 E.21941
G1 X156.93 Y100.825 E.01688
G1 X151.646 Y95.541 E.23542
G1 X151.513 Y95.607 E.00467
G1 X151.252 Y95.683 E.00857
G1 X156.499 Y100.93 E.23377
G1 X155.963 Y100.93 E.01688
G1 X151.07 Y96.037 E.21801
G1 X151.07 Y96.573 E.01688
G1 X155.427 Y100.93 E.19414
G1 X154.892 Y100.93 E.01688
G1 X151.07 Y97.108 E.17027
G1 X151.07 Y97.644 E.01688
G1 X154.356 Y100.93 E.1464
G1 X153.82 Y100.93 E.01688
G1 X151.07 Y98.18 E.12253
G1 X151.07 Y98.716 E.01688
G1 X153.284 Y100.93 E.09866
G1 X152.748 Y100.93 E.01688
G1 X151.07 Y99.252 E.07478
G1 X151.07 Y99.787 E.01688
G1 X152.213 Y100.93 E.05091
G1 X151.677 Y100.93 E.01688
G1 X151.07 Y100.323 E.02704
G1 X151.07 Y100.859 E.01688
G1 X151.311 Y101.1 E.01073
M204 S1000
;WIPE_START
G1 F8640
G1 X151.07 Y100.859 E-.07864
G1 X151.07 Y100.323 E-.12372
G1 X151.677 Y100.93 E-.19819
G1 X152.213 Y100.93 E-.12372
G1 X151.07 Y99.787 E-.37316
G1 X151.07 Y99.56 E-.05257
;WIPE_END
G1 E-.05 F2100
G1 Z.4 F720
G1 X147.1 Y96.353 F10800
G1 Z.2 F720
G1 E1 F2100
M204 S800
G1 F1200
G1 X145.853 Y95.106 E.05556
M204 S1000
;WIPE_START
G1 F8640
G1 X147.1 Y96.353 E-.4072
;WIPE_END
G1 E-.5928 F2100
G1 Z.4 F720
G1 X151.581 Y82.617 F10800
G1 Z.2 F720
G1 E1 F2100
M204 S800
G1 F1200
G1 X139.034 Y70.07 E.559
G1 X138.498 Y70.07 E.01688
G1 X150.555 Y82.126 E.53714
G1 X150.252 Y82.042 E.00988
G1 X149.903 Y82.011 E.01104
G1 X137.962 Y70.07 E.53199
G1 X137.427 Y70.07 E.01688
G1 X149.314 Y81.957 E.52961
G1 X149 Y81.929 E.00993
G1 X148.771 Y81.95 E.00726
G1 X136.891 Y70.07 E.52927
G1 X136.355 Y70.07 E.01688
G1 X148.279 Y81.994 E.53126
G1 X147.788 Y82.039 E.01554
G1 X141.07 Y75.321 E.29931
G1 X141.037 Y75.043 E.00879
G1 X140.984 Y74.906 E.00464
G1 X140.9 Y74.769 E.00507
G1 X140.779 Y74.639 E.0056
G1 X140.621 Y74.529 E.00607
G1 X140.43 Y74.455 E.00643
G1 X140.179 Y74.43 E.00794
G1 X135.819 Y70.07 E.19426
G1 X135.283 Y70.07 E.01688
G1 X139.644 Y74.43 E.19426
G1 X139.108 Y74.43 E.01688
G1 X134.748 Y70.07 E.19426
G1 X134.212 Y70.07 E.01688
G1 X138.572 Y74.43 E.19426
G1 X138.036 Y74.43 E.01688
G1 X133.676 Y70.07 E.19426
G1 X133.14 Y70.07 E.01688
G1 X137.5 Y74.43 E.19426
G1 X136.965 Y74.43 E.01688
G1 X132.604 Y70.07 E.19426
G1 X132.069 Y70.07 E.01688
G1 X136.429 Y74.43 E.19426
G1 X135.893 Y74.43 E.01688
G1 X131.533 Y70.07 E.19426
G1 X130.997 Y70.07 E.01688
G1 X135.357 Y74.43 E.19426
G1 X134.821 Y74.43 E.01688
G1 X130.461 Y70.07 E.19426
G1 X129.925 Y70.07 E.01688
G1 X134.286 Y74.43 E.19426
G1 X133.75 Y74.43 E.01688
G1 X129.389 Y70.07 E.19426
G1 X129.07 Y70.07 E.01007
G1 X129.07 Y70.286 E.00681
G1 X133.214 Y74.43 E.18463
G1 X132.678 Y74.43 E.01688
G1 X129.07 Y70.822 E.16076
G1 X129.07 Y71.358 E.01688
G1 X132.142 Y74.43 E.13688
G1 X131.607 Y74.43 E.01688
G1 X129.07 Y71.893 E.11301
G1 X129.07 Y72.429 E.01688
G1 X131.071 Y74.43 E.08914
G1 X130.535 Y74.43 E.01688
G1 X129.07 Y72.965 E.06527
G1 X129.07 Y73.501 E.01688
G1 X129.999 Y74.43 E.0414
G1 X129.463 Y74.43 E.01688
G1 X128.9 Y73.867 E.02509
M204 S1000
;WIPE_START
G1 F8640
G1 X129.463 Y74.43 E-.18387
G1 X129.999 Y74.43 E-.12372
G1 X129.07 Y73.501 E-.30343
G1 X129.07 Y72.965 E-.12372
G1 X129.729 Y73.624 E-.21526
;WIPE_END
G1 E-.05 F2100
G1 Z.4 F720
G1 X140.9 Y75.687 F10800
G1 Z.2 F720
G1 E1 F2100
M204 S800
G1 F1200
G1 X147.363 Y82.149 E.28792
G1 X146.943 Y82.266 E.01371
G1 X141.07 Y76.392 E.26168
G1 X141.07 Y76.928 E.01688
G1 X146.524 Y82.382 E.24299
G1 X146.16 Y82.554 E.01267
G1 X141.07 Y77.464 E.2268
G1 X141.07 Y78 E.01688
G1 X145.801 Y82.73 E.21076
G1 X145.441 Y82.906 E.01262
M73 Q0 S171
G1 X141.07 Y78.535 E.19473
G1 X141.07 Y79.071 E.01688
G1 X145.116 Y83.117 E.18026
G1 X144.809 Y83.346 E.01206
G1 X141.07 Y79.607 E.16659
G1 X141.07 Y80.143 E.01688
G1 X144.502 Y83.575 E.15291
G1 X144.268 Y83.749 E.0092
G1 X144.207 Y83.816 E.00284
G1 X141.07 Y80.679 E.13976
G1 X141.07 Y81.214 E.01688
G1 X143.95 Y84.095 E.12832
G1 X143.693 Y84.373 E.01195
G1 X141.07 Y81.75 E.11687
G1 X141.07 Y82.286 E.01688
G1 X143.436 Y84.652 E.10542
G1 X143.219 Y84.971 E.01215
G1 X141.07 Y82.822 E.09574
G1 X141.07 Y83.358 E.01688
G1 X143.013 Y85.301 E.08656
G1 X142.807 Y85.63 E.01225
G1 X141.07 Y83.893 E.07738
G1 X141.07 Y84.429 E.01688
G1 X142.623 Y85.983 E.0692
G1 X142.473 Y86.368 E.01303
G1 X141.07 Y84.965 E.06249
G1 X141.07 Y85.501 E.01688
G1 X142.322 Y86.753 E.05578
G1 X142.206 Y87.049 E.01001
G1 X142.187 Y87.153 E.00335
G1 X141.07 Y86.037 E.04975
G1 X141.07 Y86.573 E.01688
G1 X142.101 Y87.604 E.04596
G1 X142.016 Y88.055 E.01445
G1 X141.07 Y87.108 E.04216
G1 X141.07 Y87.644 E.01688
G1 X141.952 Y88.526 E.03929
G1 X141.961 Y89.071 E.01718
G1 X141.07 Y88.18 E.0397
G1 X141.07 Y88.716 E.01688
G1 X141.97 Y89.616 E.04012
G1 X141.973 Y89.775 E.005
G1 X142.067 Y90.248 E.0152
G1 X141.07 Y89.252 E.04441
G1 X141.07 Y89.787 E.01688
G1 X142.198 Y90.916 E.05028
G1 X142.532 Y91.785 E.02933
G1 X141.07 Y90.323 E.06513
G1 X141.07 Y90.859 E.01688
G1 X146.93 Y96.719 E.26109
G1 X146.93 Y97.255 E.01688
G1 X141.07 Y91.395 E.26109
G1 X141.07 Y91.931 E.01688
G1 X146.93 Y97.791 E.26109
G1 X146.93 Y98.327 E.01688
G1 X141.07 Y92.466 E.26109
G1 X141.07 Y93.002 E.01688
G1 X146.93 Y98.862 E.26109
G1 X146.93 Y99.398 E.01688
G1 X141.07 Y93.538 E.26109
G1 X141.07 Y94.074 E.01688
M73 P1 R171
M73 Q1 S171
G1 X146.93 Y99.934 E.26109
G1 X146.93 Y100.47 E.01688
G1 X141.07 Y94.61 E.26109
